<?xml version="1.0" encoding="UTF-8"?>
<map version="1.10" tiledversion="1.12.1" orientation="orthogonal" renderorder="right-down" width="30" height="20" tilewidth="16" tileheight="16" infinite="1" nextlayerid="16" nextobjectid="1736">
 <tileset firstgid="1" source="threadalley.tsx"/>
 <tileset firstgid="169" source="bossmatrix.tsx"/>
 <layer id="4" name="background0" width="30" height="20">
  <data encoding="csv"/>
 </layer>
 <layer id="5" name="background1" width="30" height="20">
  <data encoding="csv"/>
 </layer>
 <layer id="2" name="walls" width="30" height="20">
  <data encoding="csv">
   <chunk x="-16" y="-96" width="16" height="16">
0,0,0,0,0,0,0,0,0,0,0,0,0,0,0,0,
0,0,0,0,0,0,0,0,0,0,0,0,0,0,0,0,
0,0,0,0,0,0,0,0,0,0,0,0,0,0,0,0,
0,0,0,0,0,0,0,0,0,0,0,0,0,0,0,0,
0,0,0,0,0,0,0,0,0,0,0,0,0,0,0,0,
0,0,0,0,0,0,0,0,0,0,0,0,0,0,0,0,
0,0,0,0,0,0,0,0,0,0,0,0,0,0,0,0,
0,0,0,0,0,0,0,0,0,0,0,0,0,0,0,0,
0,0,0,0,0,0,0,0,0,0,0,0,0,0,0,0,
0,0,0,0,0,0,0,0,0,0,0,0,0,0,0,0,
0,0,0,0,0,0,0,0,0,0,0,0,0,0,0,0,
0,0,0,0,0,0,0,0,0,0,0,0,0,0,0,0,
0,0,0,0,0,0,0,0,0,0,0,0,0,0,0,0,
0,0,0,0,0,0,0,0,0,0,0,0,0,0,0,0,
0,0,0,0,0,0,0,0,0,0,0,0,0,0,0,0,
0,0,0,0,0,39,0,0,0,37,38,0,0,0,0,0
</chunk>
   <chunk x="-16" y="-80" width="16" height="16">
0,0,0,0,39,0,0,0,0,0,37,38,0,0,0,0,
0,0,0,39,0,0,0,0,0,0,0,37,38,0,0,0,
0,0,0,0,0,0,0,0,0,0,0,0,0,0,0,0,
0,0,0,0,0,0,0,0,0,0,0,0,0,0,0,0,
0,0,0,38,38,37,38,38,38,39,38,38,0,0,0,0,
0,0,0,0,0,37,38,38,38,39,0,0,0,0,0,0,
0,0,0,0,0,0,37,38,39,0,0,0,0,0,0,0,
0,0,0,0,0,0,0,0,0,0,0,0,0,0,0,0,
0,0,0,0,0,0,0,0,0,0,0,0,0,0,0,0,
0,0,0,0,0,0,0,0,0,0,38,0,0,0,0,0,
0,0,0,0,39,0,0,0,0,0,37,38,0,0,0,0,
0,0,0,39,0,0,0,0,0,0,0,37,38,0,0,0,
0,0,0,0,0,0,0,0,0,0,0,0,0,0,0,0,
0,0,0,0,0,0,0,0,0,0,0,0,0,0,0,0,
0,0,0,38,38,37,38,38,38,39,38,38,0,0,0,0,
0,0,0,0,0,37,38,38,38,39,0,0,0,0,0,0
</chunk>
   <chunk x="-48" y="-64" width="16" height="16">
0,0,0,0,0,0,0,0,0,0,0,0,0,0,0,0,
0,0,0,0,0,0,0,0,0,0,0,0,0,0,0,0,
0,0,0,0,0,0,0,0,0,0,0,0,0,0,0,0,
0,0,0,0,0,0,0,0,0,0,0,0,0,0,0,0,
0,0,0,0,0,0,0,0,0,0,0,0,0,0,0,0,
0,0,0,0,0,0,0,0,0,0,0,0,0,0,0,0,
0,0,0,0,0,0,0,0,0,0,0,0,0,0,0,0,
0,0,0,0,0,0,0,0,0,0,0,0,0,0,0,0,
0,37,38,0,0,0,0,0,0,0,0,0,0,0,0,0,
37,0,0,0,0,0,0,0,0,0,0,0,0,0,0,0,
0,0,0,0,0,0,0,0,0,0,0,0,0,0,0,0,
0,0,37,38,0,0,0,0,0,0,0,0,0,0,0,0,
0,37,0,37,38,0,0,0,0,0,0,0,0,0,0,0,
0,0,37,0,37,38,0,0,0,0,0,0,0,0,0,0,
0,0,0,37,0,37,38,0,0,0,0,0,0,0,0,0,
0,0,0,0,37,0,37,38,0,0,0,0,0,0,0,0
</chunk>
   <chunk x="-16" y="-64" width="16" height="16">
0,0,0,0,0,0,37,38,39,0,0,0,0,0,0,0,
0,0,0,0,0,0,0,0,0,0,0,0,0,0,0,0,
0,0,0,0,0,0,0,0,0,0,0,0,0,0,0,0,
0,0,0,0,0,0,0,0,0,0,0,0,0,0,0,0,
0,0,0,0,0,0,0,0,0,0,0,0,0,0,0,0,
0,0,0,0,0,0,0,0,0,0,0,0,0,0,0,0,
0,0,0,0,0,0,0,0,0,0,0,0,0,0,0,0,
0,0,0,0,0,0,0,0,0,0,0,0,0,0,0,0,
0,0,0,0,0,0,0,0,0,0,0,0,0,0,0,0,
0,0,0,0,0,0,0,0,0,0,0,0,0,0,0,0,
0,0,0,0,0,0,0,0,0,0,0,0,0,0,0,0,
0,0,0,0,0,0,0,0,0,37,0,0,0,0,0,0,
0,0,0,0,0,0,0,0,0,0,37,0,0,0,0,0,
0,0,0,0,0,0,0,0,0,0,0,37,38,38,38,38,
0,0,0,0,0,0,0,0,0,0,0,0,0,0,0,0,
0,0,0,0,0,0,0,0,0,0,0,0,0,0,0,0
</chunk>
   <chunk x="0" y="-64" width="16" height="16">
0,0,0,0,0,0,0,0,0,0,0,0,0,0,0,0,
0,0,0,0,0,0,0,0,0,0,0,0,0,0,0,0,
0,0,0,0,0,0,0,0,0,0,0,0,0,0,0,0,
0,0,0,0,0,0,0,0,0,0,0,0,0,0,0,0,
0,0,0,0,0,0,0,0,0,0,0,0,0,0,0,0,
0,0,0,0,0,0,0,0,0,0,0,0,0,0,0,0,
0,0,0,0,0,0,0,0,0,0,0,0,0,0,0,0,
0,0,0,0,0,0,0,0,0,0,0,0,0,0,0,0,
0,0,0,0,0,0,0,0,0,0,0,0,0,0,0,0,
0,0,0,0,0,0,0,0,0,0,0,0,0,0,0,0,
0,0,0,0,0,0,0,0,0,0,0,0,0,0,0,0,
0,0,0,0,0,0,0,0,0,0,0,0,0,0,0,0,
0,0,0,0,0,0,0,0,0,0,0,0,0,0,0,0,
38,38,38,38,38,38,38,38,38,38,38,38,38,38,38,38,
0,0,0,0,0,0,0,0,0,0,0,0,0,0,0,0,
0,0,0,0,0,0,0,0,0,0,0,0,0,0,0,0
</chunk>
   <chunk x="16" y="-64" width="16" height="16">
0,0,0,0,0,0,0,0,0,0,0,0,0,0,0,0,
0,0,0,0,0,0,0,0,0,0,0,0,0,0,0,0,
0,0,0,0,0,0,0,0,0,0,0,0,0,0,0,0,
0,0,0,0,0,0,0,0,0,0,0,0,0,0,0,0,
0,0,0,0,0,0,0,0,0,0,0,0,0,0,0,0,
0,0,0,0,0,0,0,0,0,0,0,0,0,0,0,0,
0,0,0,0,0,0,0,0,0,0,0,0,0,0,0,0,
0,0,0,0,0,0,0,0,0,0,0,0,0,0,0,0,
0,0,0,0,0,0,0,0,0,0,0,0,0,0,0,0,
0,0,0,0,0,0,0,0,0,0,0,0,0,0,0,0,
0,0,0,0,0,0,0,0,0,0,0,0,0,0,0,0,
0,0,0,0,0,0,0,0,0,0,0,0,0,0,0,0,
0,0,0,0,0,0,0,0,0,0,0,0,0,0,0,0,
38,38,38,38,38,38,38,38,38,38,38,38,38,38,38,38,
0,0,0,0,0,0,0,0,0,0,0,0,0,0,0,0,
0,0,0,0,0,0,0,0,0,0,0,0,0,0,0,0
</chunk>
   <chunk x="32" y="-64" width="16" height="16">
0,0,0,0,0,0,0,0,0,0,0,0,0,0,0,0,
0,0,0,0,0,0,0,0,0,0,0,0,0,0,0,0,
0,0,0,0,0,0,0,0,0,0,0,0,0,0,0,0,
0,0,0,0,0,0,0,0,0,0,0,0,0,0,0,0,
0,0,0,0,0,0,0,0,0,0,0,0,0,0,0,0,
0,0,0,0,0,0,0,0,0,0,0,0,0,0,0,0,
0,0,0,0,0,0,0,0,0,0,0,0,0,0,0,0,
0,0,0,0,0,0,0,0,0,0,0,0,0,0,0,0,
0,0,0,0,0,0,0,0,0,0,0,0,0,0,0,0,
0,0,0,0,0,0,0,0,0,0,0,0,0,0,0,0,
0,0,0,0,0,0,0,0,0,0,0,0,0,0,0,0,
0,0,0,0,0,0,0,0,0,0,0,0,0,0,0,0,
0,0,0,0,0,0,0,0,0,0,0,0,0,0,0,0,
38,38,38,38,38,38,38,38,38,38,38,38,38,38,38,38,
0,0,0,0,0,0,0,0,0,0,0,0,0,0,0,0,
0,0,0,0,0,0,0,0,0,0,0,0,0,0,0,0
</chunk>
   <chunk x="48" y="-64" width="16" height="16">
0,0,0,0,0,0,0,0,0,0,0,0,0,0,0,0,
0,0,0,0,0,0,0,0,0,0,0,0,0,0,0,0,
0,0,0,0,0,0,0,0,0,0,0,0,0,0,0,0,
0,0,0,0,0,0,0,0,0,0,0,0,0,0,0,0,
0,0,0,0,0,0,0,0,0,0,0,0,0,0,0,0,
0,0,0,0,0,0,0,0,0,0,0,0,0,0,0,0,
0,0,0,0,0,0,0,0,0,0,0,0,0,0,0,0,
0,0,0,0,0,0,0,0,0,0,0,0,0,0,0,0,
0,0,0,0,0,0,0,0,0,0,0,0,0,0,0,0,
0,0,0,0,0,0,0,0,0,0,0,0,0,0,0,0,
0,0,0,0,0,0,0,0,0,0,0,0,0,0,0,0,
0,0,0,0,0,0,0,0,0,0,0,0,0,0,0,0,
0,0,0,0,0,0,0,0,0,0,0,0,0,0,0,0,
38,38,38,38,38,38,38,38,38,38,38,38,38,38,38,38,
0,0,0,0,0,0,0,0,0,0,0,0,0,0,0,0,
0,0,0,0,0,0,0,0,0,0,0,0,0,0,0,0
</chunk>
   <chunk x="64" y="-64" width="16" height="16">
0,0,0,0,0,0,0,0,0,0,0,0,0,0,0,0,
0,0,0,0,0,0,0,0,0,0,0,0,0,0,0,0,
0,0,0,0,0,0,0,0,0,0,0,0,0,0,0,0,
0,0,0,0,0,0,0,0,0,0,0,0,0,0,0,0,
0,0,0,0,0,0,0,0,0,0,0,0,0,0,0,0,
0,0,0,0,0,0,0,0,0,0,0,0,0,0,0,0,
0,0,0,0,0,0,0,0,0,0,0,0,0,0,0,0,
0,0,0,0,0,0,0,0,0,0,0,0,0,0,0,0,
0,0,0,0,0,0,0,0,0,0,0,0,0,0,0,0,
0,0,0,0,0,0,0,0,0,0,0,0,0,0,0,0,
0,0,0,0,0,0,0,0,0,0,0,0,0,0,0,0,
0,0,0,0,0,0,0,0,0,0,0,0,0,0,0,39,
0,0,0,0,0,0,0,0,0,0,0,0,0,0,39,0,
38,38,38,38,38,38,38,38,38,38,38,38,38,39,0,0,
0,0,0,0,0,0,0,0,0,0,0,0,0,0,0,0,
0,0,0,0,0,0,0,0,0,0,0,0,0,0,0,0
</chunk>
   <chunk x="-48" y="-48" width="16" height="16">
0,0,0,0,0,37,38,37,38,0,0,0,0,0,0,0,
0,0,0,0,0,0,37,0,37,0,0,0,0,0,0,0,
0,0,0,0,0,0,0,0,37,38,0,0,0,0,0,0,
0,0,0,0,0,0,0,37,0,0,0,0,0,0,0,0,
0,0,0,0,0,0,0,0,0,37,38,0,0,0,0,0,
0,0,0,0,0,0,0,0,37,0,37,38,38,0,0,0,
0,0,0,0,0,0,0,0,0,37,38,0,37,38,0,0,
0,0,0,0,0,0,0,0,0,0,0,37,0,37,38,0,
0,0,0,0,0,0,0,0,0,0,0,0,37,0,37,38,
0,0,0,0,0,0,0,0,0,0,0,0,0,37,0,37,
0,0,0,0,0,0,0,0,0,0,0,0,0,0,37,0,
0,0,0,0,0,0,0,0,0,0,0,0,0,0,0,0,
0,0,0,0,0,0,0,0,0,0,0,0,0,0,0,37,
0,0,0,0,0,0,0,0,0,0,0,0,0,0,0,0,
0,0,0,0,0,0,0,0,0,0,0,0,0,0,0,0,
0,0,0,0,0,0,0,0,0,0,0,0,0,0,0,0
</chunk>
   <chunk x="-32" y="-48" width="16" height="16">
0,0,0,0,0,0,0,0,0,0,0,0,0,0,0,0,
0,0,0,0,0,0,0,0,0,0,0,0,0,0,0,0,
0,0,0,0,0,0,0,0,0,0,0,0,0,0,0,0,
0,0,0,0,0,0,0,0,0,0,0,0,0,0,0,0,
0,0,0,0,0,0,0,0,0,0,0,0,0,0,0,0,
0,0,0,0,0,0,0,0,0,0,0,0,0,0,0,0,
0,0,0,0,0,0,0,0,0,0,0,0,0,0,0,0,
0,0,0,0,0,0,0,0,0,0,0,0,0,0,0,0,
0,0,0,0,0,0,0,0,0,0,0,0,0,0,0,0,
38,0,0,0,0,0,0,0,0,0,0,0,0,0,0,0,
37,0,0,0,0,0,0,0,0,0,0,0,0,0,0,0,
37,38,0,0,0,0,0,0,0,0,0,0,0,0,0,0,
0,37,38,0,0,0,0,0,0,0,0,0,0,0,0,0,
37,0,37,38,0,0,0,0,0,0,0,0,0,0,0,0,
0,37,0,37,38,38,0,0,0,0,0,0,0,0,0,0,
0,0,37,38,0,0,0,0,0,0,0,0,0,0,0,0
</chunk>
   <chunk x="-16" y="-48" width="16" height="16">
0,0,0,0,0,0,0,0,0,0,0,0,0,0,0,0,
0,0,0,0,0,0,0,0,0,0,0,0,0,0,0,0,
0,0,0,0,0,0,0,0,0,0,0,0,0,0,0,0,
0,0,0,0,0,0,0,0,0,0,0,0,0,0,0,0,
0,0,0,0,0,0,0,0,0,0,0,0,0,0,0,0,
0,0,0,0,0,0,0,0,0,0,0,0,0,0,0,0,
0,0,0,0,0,0,0,0,0,0,0,0,0,0,0,0,
0,0,0,0,0,0,0,0,0,0,0,0,0,0,0,0,
0,0,0,0,0,0,0,0,0,0,0,0,0,0,0,0,
0,0,0,0,0,0,0,0,0,0,0,0,0,0,0,0,
0,0,0,0,0,0,0,0,0,0,0,0,0,0,0,0,
0,0,0,0,0,0,0,0,0,0,0,0,0,0,0,0,
0,0,0,0,0,0,0,0,0,0,0,0,0,0,0,0,
0,0,0,0,0,0,0,0,0,0,0,0,0,0,0,0,
0,0,0,0,0,39,0,0,0,37,38,0,0,0,0,0,
0,0,0,0,39,0,0,0,0,0,37,38,0,0,0,0
</chunk>
   <chunk x="0" y="-48" width="16" height="16">
0,0,0,0,0,0,0,0,0,0,0,0,0,0,0,0,
0,0,0,0,0,0,0,0,0,0,0,0,0,0,0,0,
0,0,0,0,0,0,0,0,0,0,0,0,0,0,0,0,
0,0,0,0,0,0,0,0,0,0,0,0,0,0,0,0,
0,0,0,0,0,0,0,37,38,38,38,38,38,38,38,38,
0,0,0,0,0,0,0,0,37,38,38,38,38,38,38,38,
0,0,0,0,0,0,0,0,0,0,0,0,37,38,38,38,
0,0,0,0,0,0,0,0,0,0,0,0,0,0,37,38,
0,0,0,0,0,0,0,0,0,0,0,0,0,0,0,0,
0,0,0,0,0,0,0,0,0,0,0,0,0,0,0,0,
0,0,0,0,0,0,0,0,0,0,0,0,0,0,0,0,
0,0,0,0,0,0,0,0,0,0,0,0,0,0,0,0,
0,0,0,0,0,0,0,0,0,0,0,0,0,0,0,0,
0,0,0,0,0,0,0,0,0,0,0,0,0,0,0,0,
0,0,0,0,0,0,0,0,0,0,0,0,0,0,0,0,
0,0,0,0,0,0,0,0,0,0,0,0,0,0,0,0
</chunk>
   <chunk x="16" y="-48" width="16" height="16">
0,0,0,0,0,0,0,0,0,0,0,0,0,0,0,0,
0,0,0,0,0,0,0,0,0,0,0,0,0,0,0,0,
0,0,0,0,0,0,0,0,0,0,0,0,0,0,0,0,
0,0,0,0,0,0,0,0,0,0,0,0,0,0,0,0,
38,38,38,38,38,38,38,38,38,38,38,38,38,38,38,38,
38,38,38,38,38,38,38,38,38,38,38,38,38,38,38,38,
38,38,38,38,38,38,38,38,38,38,38,38,38,38,38,38,
38,38,38,38,38,38,38,38,38,38,38,38,38,38,38,38,
0,0,37,38,38,38,38,38,38,38,38,38,38,38,38,38,
0,0,0,0,0,0,37,38,38,38,38,38,38,38,38,38,
0,0,0,0,0,0,0,0,0,0,37,38,38,38,38,38,
0,0,0,0,0,0,0,0,0,0,0,0,0,0,0,0,
0,0,0,0,0,0,0,0,0,0,0,0,0,0,0,0,
0,0,0,0,0,0,0,0,0,0,0,0,0,0,0,0,
0,0,0,0,0,0,0,0,0,0,0,0,0,0,0,0,
0,0,0,0,0,0,0,0,0,0,0,0,0,0,0,0
</chunk>
   <chunk x="32" y="-48" width="16" height="16">
0,0,0,0,0,0,0,0,0,0,0,0,0,0,0,0,
0,0,0,0,0,0,0,0,0,0,0,0,0,0,0,0,
0,0,0,0,0,0,0,0,0,0,0,0,0,0,0,0,
0,0,0,0,0,0,0,0,0,0,0,0,0,0,0,0,
38,38,38,38,38,38,38,38,38,38,38,38,38,38,38,38,
38,38,38,38,38,38,38,38,38,38,38,38,38,38,38,38,
38,38,38,38,38,38,38,38,38,38,38,38,38,38,38,38,
38,38,38,38,38,38,38,38,38,38,38,38,38,38,38,38,
38,38,38,38,38,38,38,38,38,38,38,38,38,38,38,38,
38,38,38,38,38,38,38,38,38,38,38,38,38,38,38,38,
38,38,38,38,38,38,38,38,38,38,38,38,38,38,38,39,
0,0,0,0,0,0,0,0,0,0,0,0,0,0,0,0,
0,0,0,0,0,0,0,0,0,0,0,0,0,0,0,0,
0,0,0,0,0,0,0,0,0,0,0,0,0,0,0,0,
0,0,0,0,0,0,0,0,0,0,0,0,0,0,0,0,
0,0,0,0,0,0,0,0,0,0,0,0,0,0,0,0
</chunk>
   <chunk x="48" y="-48" width="16" height="16">
0,0,0,0,0,0,0,0,0,0,0,0,0,0,0,0,
0,0,0,0,0,0,0,0,0,0,0,0,0,0,0,0,
0,0,0,0,0,0,0,0,0,0,0,0,0,0,0,0,
0,0,0,0,0,0,0,0,0,0,0,0,0,0,0,0,
38,38,38,38,38,38,38,38,38,38,38,38,38,38,38,38,
38,38,38,38,38,38,38,38,38,38,38,38,38,38,38,38,
38,38,38,38,38,38,38,38,38,38,38,38,38,38,38,38,
38,38,38,38,38,38,38,38,39,0,0,0,0,0,0,0,
38,38,38,38,38,39,0,0,0,0,0,0,0,0,0,0,
39,0,0,0,0,0,0,0,0,0,0,0,0,0,0,0,
0,0,0,0,0,0,0,0,0,0,0,0,0,0,0,0,
0,0,0,0,0,0,0,0,0,0,0,0,0,0,0,0,
0,0,0,0,0,0,0,0,0,0,0,0,0,0,0,0,
0,0,0,0,0,0,0,0,0,0,0,0,0,0,0,0,
0,0,0,0,0,0,0,0,0,0,0,0,0,0,0,0,
0,0,0,0,0,0,0,0,0,0,0,0,0,0,0,0
</chunk>
   <chunk x="64" y="-48" width="16" height="16">
0,0,0,0,0,0,0,0,0,0,0,0,0,0,0,0,
0,0,0,0,0,0,0,0,0,0,0,0,0,0,0,0,
0,0,0,0,0,0,0,0,0,0,0,0,0,0,0,0,
0,0,0,0,0,0,0,0,0,0,0,0,0,0,0,0,
38,38,38,38,38,39,0,0,0,0,0,0,0,0,0,0,
38,38,38,39,0,0,0,0,0,0,0,0,0,0,0,0,
38,38,39,0,0,0,0,0,0,0,0,0,0,0,0,0,
0,0,0,0,0,0,0,0,0,0,0,0,0,0,0,0,
0,0,0,0,0,0,0,0,0,0,0,0,0,0,0,0,
0,0,0,0,0,0,0,0,0,0,0,0,0,0,0,0,
0,0,0,0,0,0,0,0,0,0,0,0,0,0,0,0,
0,0,0,0,0,0,0,0,0,0,0,0,0,0,0,0,
0,0,0,0,0,0,0,0,0,0,0,0,0,0,0,0,
0,0,0,0,0,0,0,0,0,0,0,0,0,0,0,0,
0,0,0,0,0,0,0,0,0,0,0,0,0,0,0,0,
0,0,0,0,0,0,0,0,0,0,0,0,0,0,0,0
</chunk>
   <chunk x="-48" y="-32" width="16" height="16">
0,0,0,0,0,0,0,0,0,0,0,0,0,0,0,0,
0,0,0,0,0,0,0,0,0,0,0,0,0,0,0,0,
0,0,0,0,0,0,0,0,0,0,0,0,0,0,0,0,
0,0,0,0,0,0,0,0,0,0,0,0,0,0,0,0,
0,0,0,0,0,0,0,0,0,0,0,0,0,0,0,0,
0,0,0,0,0,0,0,0,0,0,0,0,0,0,0,39,
0,0,0,0,0,0,0,0,0,0,0,0,38,38,39,0,
0,0,0,0,0,0,0,0,0,0,38,38,39,0,0,0,
0,0,0,0,0,0,0,38,38,39,0,0,0,0,0,0,
0,0,0,0,0,38,39,0,0,0,0,0,0,0,0,0,
0,0,0,0,39,0,0,0,0,0,0,0,0,0,0,0,
0,0,38,39,0,0,0,0,0,0,0,0,0,0,0,0,
0,0,0,0,0,0,0,0,0,0,0,0,0,0,0,0,
37,39,0,0,0,0,0,0,0,0,0,0,0,0,0,0,
0,0,0,0,0,0,0,0,0,0,0,0,0,0,0,0,
0,0,0,0,0,0,0,0,0,0,0,0,0,0,0,0
</chunk>
   <chunk x="-32" y="-32" width="16" height="16">
0,0,0,0,0,0,0,0,0,0,0,0,0,0,0,0,
0,0,0,0,0,0,0,0,0,0,0,0,0,0,0,0,
0,0,0,0,0,0,0,0,0,0,0,0,0,0,0,0,
37,38,38,39,0,0,0,0,0,0,0,0,0,0,0,0,
0,0,0,0,0,0,0,0,0,0,0,0,0,0,0,0,
0,0,0,0,0,0,0,0,0,0,0,0,0,0,0,0,
0,0,0,0,0,0,0,0,0,0,0,0,0,0,0,0,
0,0,0,0,0,0,0,0,0,0,0,0,0,0,0,0,
0,0,0,0,0,0,0,0,0,0,0,0,0,0,0,0,
0,0,0,0,0,0,0,0,0,0,0,0,0,0,0,0,
0,0,0,0,0,0,0,0,0,0,0,0,0,0,0,0,
0,0,0,0,0,0,0,0,0,0,0,0,0,0,0,0,
0,0,0,0,0,0,0,0,0,0,0,0,0,0,0,0,
0,0,0,0,0,0,0,0,0,0,0,0,0,0,0,0,
0,0,0,0,0,0,0,0,0,0,0,0,0,0,0,0,
0,0,0,0,0,0,0,0,0,0,0,0,0,0,0,0
</chunk>
   <chunk x="-16" y="-32" width="16" height="16">
0,0,0,39,0,0,0,0,0,0,0,37,38,0,0,0,
0,0,0,0,0,0,0,0,0,0,0,0,0,0,0,0,
0,0,0,0,0,0,0,0,0,0,0,0,0,0,0,0,
0,0,0,38,38,0,0,0,0,0,38,38,0,0,0,0,
0,0,0,0,0,37,38,38,38,39,0,0,0,0,0,0,
0,0,0,0,0,0,37,38,39,0,0,0,0,0,0,0,
0,0,0,0,0,0,0,0,0,0,0,0,0,0,0,0,
0,0,0,0,0,0,0,0,0,0,0,0,0,0,0,0,
0,0,0,0,0,0,0,0,0,0,38,0,0,0,0,0,
0,0,0,0,39,0,0,0,0,0,37,38,0,0,0,0,
0,0,0,39,0,0,0,0,0,0,0,37,38,0,0,0,
0,0,0,0,0,0,0,0,0,0,0,0,0,0,0,0,
0,0,0,0,0,0,0,0,0,0,0,0,0,0,0,0,
0,0,0,38,38,0,0,0,0,0,38,38,0,0,0,0,
0,0,0,0,0,37,38,38,38,39,0,0,0,0,0,0,
0,0,0,0,0,0,37,38,39,0,0,0,0,0,0,0
</chunk>
   <chunk x="-64" y="-16" width="16" height="16">
0,0,0,0,0,0,0,0,0,0,0,0,0,0,0,0,
0,0,0,0,0,0,0,0,0,0,0,0,0,0,0,0,
0,0,0,0,0,0,0,0,0,0,0,0,0,0,0,0,
0,0,0,0,0,0,0,0,0,0,0,0,0,0,0,0,
0,0,0,0,0,0,0,0,0,0,0,0,0,0,0,0,
0,0,0,0,0,0,0,0,0,0,0,0,0,0,0,0,
0,0,0,0,0,0,0,0,0,0,0,0,0,0,0,0,
0,0,0,0,0,0,0,0,0,0,0,0,0,0,0,0,
0,0,0,0,0,0,0,0,0,0,0,0,0,0,0,0,
0,0,0,0,0,0,0,0,0,0,0,0,0,0,0,0,
0,0,0,0,0,0,0,0,0,0,0,0,0,0,0,0,
0,0,0,0,0,0,0,0,0,0,0,0,0,0,0,0,
0,0,0,0,0,0,0,0,0,0,0,0,0,0,0,0,
0,0,0,0,0,0,0,0,0,0,0,0,0,0,0,37,
0,0,0,0,0,0,0,0,0,0,0,0,0,0,0,0,
0,0,0,0,0,0,0,0,0,0,0,0,0,0,0,0
</chunk>
   <chunk x="-48" y="-16" width="16" height="16">
0,0,0,0,0,0,0,0,0,0,0,0,0,0,0,0,
0,0,0,0,0,0,37,38,38,38,38,38,38,38,38,38,
0,0,0,0,0,37,38,38,38,38,38,38,38,38,38,38,
0,0,0,0,0,0,0,0,0,0,0,0,0,0,0,0,
0,0,0,0,0,0,0,0,0,0,0,0,0,0,0,0,
0,0,0,0,0,0,0,0,37,38,38,38,38,38,38,38,
0,0,0,0,0,0,0,0,0,0,0,0,0,0,0,0,
0,0,0,0,0,0,0,0,0,0,0,0,0,0,0,0,
0,0,0,0,0,0,0,0,0,0,0,0,0,0,0,0,
0,0,0,0,0,0,0,0,0,0,0,0,0,0,0,0,
0,0,0,0,0,0,0,0,0,0,0,0,0,0,0,0,
0,0,0,0,0,0,0,0,0,0,0,0,0,0,0,0,
0,0,0,0,0,0,0,0,0,0,0,0,0,0,0,0,
0,0,0,0,0,0,0,0,0,0,0,0,0,0,0,0,
0,0,0,0,0,0,0,0,0,0,0,0,0,0,0,0,
37,38,38,38,38,38,38,38,38,38,38,38,38,38,38,38
</chunk>
   <chunk x="-32" y="-16" width="16" height="16">
0,0,0,0,0,0,0,0,0,0,0,0,0,38,38,0,
38,38,38,38,38,38,38,38,38,38,38,38,38,38,38,38,
38,38,38,38,38,38,38,38,38,38,38,38,38,38,38,38,
0,0,0,0,0,0,0,0,0,0,0,0,0,0,0,0,
0,0,0,0,0,0,0,0,0,0,0,0,0,0,0,0,
38,38,38,38,38,38,38,38,38,38,38,39,0,0,0,0,
0,0,0,0,0,0,0,0,0,0,0,0,0,0,0,0,
0,0,0,0,0,0,0,0,0,0,0,0,0,0,0,0,
0,0,0,0,0,0,0,0,0,0,0,0,0,0,0,0,
0,0,0,0,0,0,0,0,0,0,0,0,0,0,0,0,
0,0,0,0,0,0,0,0,0,0,0,0,0,0,0,0,
0,0,0,0,0,0,0,0,0,0,0,0,0,0,0,0,
0,0,0,0,0,0,0,0,0,0,0,0,0,0,0,0,
0,0,0,0,0,0,0,0,0,0,0,0,0,0,0,0,
0,0,0,0,0,0,0,0,0,0,0,0,0,0,0,0,
38,38,38,38,38,38,38,38,38,38,38,38,38,38,38,38
</chunk>
   <chunk x="-16" y="-16" width="16" height="16">
0,0,0,0,0,0,0,0,0,0,0,0,0,0,0,0,
38,39,0,0,0,0,0,0,0,0,0,0,0,0,0,0,
39,0,0,0,0,0,0,0,0,0,0,0,0,0,0,0,
0,0,0,0,0,0,0,0,0,0,0,0,0,0,0,0,
0,0,0,0,0,0,0,0,0,0,0,0,0,0,0,0,
0,0,0,0,0,0,0,0,0,0,0,0,0,0,0,0,
0,0,0,0,0,0,0,0,0,0,0,0,0,0,0,0,
0,0,0,0,0,0,0,0,0,0,0,0,0,0,0,0,
0,0,0,0,0,0,0,0,0,0,0,0,0,0,0,0,
0,0,0,0,0,0,0,0,0,0,0,0,0,0,0,0,
0,0,0,0,0,0,0,0,0,37,0,0,0,0,0,0,
0,0,0,0,0,0,0,0,0,0,37,0,0,0,0,0,
0,0,0,0,0,0,0,0,0,0,0,37,38,38,38,38,
0,0,0,0,0,0,0,0,0,0,0,0,0,0,0,0,
0,0,0,0,0,0,0,0,0,0,0,0,0,0,0,0,
38,38,38,38,38,39,0,0,0,0,0,0,0,0,0,0
</chunk>
   <chunk x="0" y="-16" width="16" height="16">
0,0,0,0,0,0,0,0,0,0,0,0,0,0,0,0,
0,0,0,0,0,0,0,0,0,0,0,0,0,0,0,0,
0,0,0,0,0,0,0,0,0,0,0,0,0,0,0,0,
0,0,0,0,0,0,0,0,0,0,0,0,0,0,0,0,
0,0,0,0,0,0,0,0,0,0,0,0,0,0,0,0,
0,0,0,0,0,0,0,0,0,0,0,0,0,0,0,0,
0,0,0,0,0,0,0,0,0,0,0,0,0,0,0,0,
0,0,0,0,0,0,0,0,0,0,0,0,0,0,0,0,
0,0,0,0,0,0,0,0,0,0,0,0,0,0,0,0,
0,0,0,0,0,0,0,0,0,0,0,0,0,0,0,0,
0,0,0,0,0,0,0,0,0,0,0,0,0,0,0,0,
0,0,0,0,0,0,0,0,0,0,0,0,0,0,0,0,
38,38,38,38,38,38,38,38,38,38,38,38,38,38,38,38,
0,0,0,0,0,0,0,0,0,0,0,0,0,0,0,0,
0,0,0,0,0,0,0,0,0,0,0,0,0,0,0,0,
0,0,0,0,0,0,0,0,0,0,0,0,0,0,0,0
</chunk>
   <chunk x="16" y="-16" width="16" height="16">
0,0,0,0,0,0,0,0,0,0,0,0,0,0,0,0,
0,0,0,0,0,0,0,0,0,0,0,0,0,0,0,0,
0,0,0,0,0,0,0,0,0,0,0,0,0,0,0,0,
0,0,0,0,0,0,0,0,0,0,0,0,0,0,0,0,
0,0,0,0,0,0,0,0,0,0,0,0,0,0,0,0,
0,0,0,0,0,0,0,0,0,0,0,0,0,0,0,0,
0,0,0,0,0,0,0,0,0,0,0,0,0,0,0,0,
0,0,0,0,0,0,0,0,0,0,0,0,0,0,0,0,
0,0,0,0,0,0,0,0,0,0,0,0,0,0,0,0,
0,0,0,0,0,0,0,0,0,0,0,0,0,0,0,0,
0,0,0,0,0,0,0,0,0,0,0,0,0,0,0,0,
0,0,0,0,0,0,0,0,0,0,0,0,0,0,0,0,
38,38,38,38,38,38,38,38,38,38,38,38,38,38,38,38,
0,0,0,0,0,0,0,0,0,0,0,0,0,0,0,0,
0,0,0,0,0,0,0,0,0,0,0,0,0,0,0,0,
0,0,0,0,0,0,0,0,0,0,0,0,0,0,0,0
</chunk>
   <chunk x="32" y="-16" width="16" height="16">
0,0,0,0,0,0,0,0,0,0,0,0,0,0,0,0,
0,0,0,0,0,0,0,0,0,0,0,0,0,0,0,0,
0,0,0,0,0,0,0,0,0,0,0,0,0,0,0,0,
0,0,0,0,0,0,0,0,0,0,0,0,0,0,0,0,
0,0,0,0,0,0,0,0,0,0,0,0,0,0,0,0,
0,0,0,0,0,0,0,0,0,0,0,0,0,0,0,0,
0,0,0,0,0,0,0,0,0,0,0,0,0,0,0,0,
0,0,0,0,0,0,0,0,0,0,0,0,0,0,0,0,
0,0,0,0,0,0,0,0,0,0,0,0,0,0,0,0,
0,0,0,0,0,0,0,0,0,0,0,0,0,0,0,0,
0,0,0,0,0,0,0,0,0,0,0,0,0,0,0,0,
0,0,0,0,0,0,0,0,0,0,0,0,0,0,0,0,
38,38,38,38,38,38,38,38,38,38,38,38,38,38,38,38,
0,0,0,0,0,0,0,0,0,0,0,0,0,0,0,0,
0,0,0,0,0,0,0,0,0,0,0,0,0,0,0,0,
0,0,0,0,0,0,0,0,0,0,0,0,0,0,0,0
</chunk>
   <chunk x="48" y="-16" width="16" height="16">
0,0,0,0,0,0,0,0,0,0,0,0,0,0,0,0,
0,0,0,0,0,0,0,0,0,0,0,0,0,0,0,0,
0,0,0,0,0,0,0,0,0,0,0,0,0,0,0,0,
0,0,0,0,0,0,0,0,0,0,0,0,0,0,0,0,
0,0,0,0,0,0,0,0,0,0,0,0,0,0,0,0,
0,0,0,0,0,0,0,0,0,0,0,0,0,0,0,0,
0,0,0,0,0,0,0,0,0,0,0,0,0,0,0,0,
0,0,0,0,0,0,0,0,0,0,0,0,0,0,0,0,
0,0,0,0,0,0,0,0,0,0,0,0,0,0,0,0,
0,0,0,0,0,0,0,0,0,0,0,0,0,0,0,0,
0,0,0,0,0,0,0,0,0,0,0,0,0,0,0,0,
0,0,0,0,0,0,0,0,0,0,0,0,0,0,0,0,
38,38,38,38,38,38,38,38,38,38,38,38,38,38,38,38,
0,0,0,0,0,0,0,0,0,0,0,0,0,0,0,0,
0,0,0,0,0,0,0,0,0,0,0,0,0,0,0,0,
0,0,0,0,0,0,0,0,0,0,0,0,0,0,0,0
</chunk>
   <chunk x="64" y="-16" width="16" height="16">
0,0,0,0,0,0,0,0,0,0,0,0,0,0,0,0,
0,0,0,0,0,0,0,0,0,0,0,0,0,0,0,0,
0,0,0,0,0,0,0,0,0,0,0,0,0,0,0,0,
0,0,0,0,0,0,0,0,0,0,0,0,0,0,0,0,
0,0,0,0,0,0,0,0,0,0,0,0,0,0,0,0,
0,0,0,0,0,0,0,0,0,0,0,0,0,0,0,0,
0,0,0,0,0,0,0,0,0,0,0,0,0,0,0,0,
0,0,0,0,0,0,0,0,0,0,0,0,0,0,0,0,
0,0,0,0,0,0,0,0,0,0,0,0,0,0,0,0,
0,0,0,0,0,0,0,0,0,0,0,0,0,0,0,0,
0,0,0,0,0,0,0,0,0,0,0,0,0,0,0,39,
0,0,0,0,0,0,0,0,0,0,0,0,0,0,39,0,
38,38,38,38,38,38,38,38,38,38,38,38,38,39,0,0,
0,0,0,0,0,0,0,0,0,0,0,0,0,0,0,0,
0,0,0,0,0,0,0,0,0,0,0,0,0,0,0,0,
0,0,0,0,0,0,0,0,0,0,0,0,0,0,0,0
</chunk>
   <chunk x="-48" y="0" width="16" height="16">
0,0,0,0,0,0,0,0,0,0,0,0,0,0,0,38,
0,0,0,0,0,0,0,0,0,0,0,0,0,0,0,38,
0,0,0,0,0,0,0,0,0,0,0,0,0,0,0,38,
0,0,0,0,0,0,0,0,0,0,0,0,0,0,0,38,
0,0,0,0,0,0,0,0,0,0,0,38,38,38,38,38,
0,0,0,0,0,0,0,0,0,0,38,38,38,38,38,38,
0,0,0,0,0,0,0,0,0,0,37,38,38,38,38,38,
0,0,0,0,0,0,0,0,0,0,0,0,0,37,38,38,
0,0,0,0,0,0,0,0,0,0,0,0,0,0,0,0,
0,0,0,0,0,0,0,0,0,0,0,0,0,0,0,0,
0,0,0,0,0,0,0,0,0,0,0,0,0,0,0,0,
0,0,0,0,0,0,0,0,0,0,0,0,0,0,0,0,
0,0,0,0,0,0,0,0,37,38,0,0,0,0,0,0,
0,0,0,0,0,0,0,0,0,37,38,0,0,0,0,0,
0,0,0,0,0,0,0,0,0,0,37,38,38,38,38,38,
0,0,0,0,0,0,0,0,0,0,0,0,0,0,0,0
</chunk>
   <chunk x="-32" y="0" width="16" height="16">
38,38,38,38,0,0,0,0,0,0,0,0,0,0,0,0,
38,38,38,0,0,0,0,0,0,0,0,0,0,0,0,0,
38,38,38,0,0,0,0,0,0,0,0,0,0,0,0,0,
38,38,38,38,0,0,0,0,0,0,0,0,0,0,0,0,
38,38,38,38,38,38,38,38,0,0,0,0,0,0,0,0,
38,38,38,38,38,38,38,38,0,0,0,0,0,0,0,0,
38,38,38,38,38,38,38,38,0,0,38,39,0,0,0,0,
38,38,38,38,38,38,38,38,38,38,39,38,0,0,0,0,
0,0,0,0,37,38,38,39,0,0,0,38,0,0,0,0,
0,0,0,0,0,0,0,0,0,0,0,38,0,0,0,0,
0,0,0,0,0,0,0,0,0,0,0,38,0,0,0,0,
0,0,0,0,0,0,0,0,0,0,0,38,0,0,0,0,
0,0,0,0,0,0,0,0,0,0,38,39,0,0,0,0,
0,0,0,0,0,0,0,0,0,38,39,0,0,0,0,0,
38,38,38,38,38,38,38,38,38,39,0,0,0,0,0,0,
0,0,0,0,0,0,0,0,0,0,0,0,0,0,0,0
</chunk>
  </data>
 </layer>
 <layer id="1" name="floor" width="30" height="20">
  <data encoding="csv">
   <chunk x="-48" y="-96" width="16" height="16">
0,0,1,2,2,2,2,2,2,2,2,2,2,2,2,2,
0,1,4,14,14,14,14,14,14,14,14,14,14,14,14,14,
1,4,14,14,14,14,14,14,14,14,14,14,14,14,14,14,
13,14,14,14,14,14,14,14,14,14,14,14,14,14,14,14,
13,14,14,14,14,14,14,14,14,14,14,14,14,14,14,14,
13,14,14,14,14,14,14,14,14,14,14,14,14,14,14,14,
13,14,14,14,14,14,14,14,14,14,14,14,14,14,14,14,
13,14,14,14,14,14,14,14,14,14,14,14,14,14,14,14,
13,14,14,14,14,14,14,14,14,14,14,14,14,14,14,14,
13,14,14,14,14,14,14,14,14,14,14,14,14,14,14,14,
13,14,14,14,14,14,14,14,14,14,14,14,14,14,14,14,
13,14,14,134,14,14,14,134,14,14,14,14,14,14,14,14,
13,14,14,14,14,14,14,14,14,14,14,14,14,14,14,14,
13,14,14,14,14,14,14,14,14,14,14,14,14,14,14,14,
13,14,14,14,14,14,14,14,14,14,14,14,14,14,14,14,
13,14,14,14,14,14,14,14,14,14,14,14,14,14,14,14
</chunk>
   <chunk x="-32" y="-96" width="16" height="16">
2,2,2,2,2,2,2,2,2,2,2,2,2,2,2,2,
14,14,14,14,14,14,14,14,14,14,14,14,14,14,14,14,
14,14,14,14,14,14,14,14,14,14,14,14,14,14,14,14,
14,14,14,14,14,14,14,14,14,14,14,14,14,14,14,14,
14,14,14,14,14,14,14,14,14,14,14,14,14,14,14,14,
14,14,14,14,14,14,14,14,14,14,14,14,14,14,14,14,
14,14,14,14,14,14,14,14,14,14,14,14,14,14,14,14,
14,14,14,14,14,14,14,14,14,14,14,14,14,14,14,14,
14,14,14,14,14,14,14,14,14,14,14,14,14,14,14,14,
14,14,14,14,14,14,14,14,14,14,14,14,14,14,14,14,
14,14,14,14,14,14,14,14,14,14,14,14,14,14,14,14,
14,14,14,14,14,14,14,14,14,14,14,14,14,14,14,14,
14,14,14,14,14,14,14,14,14,14,14,14,14,14,14,14,
14,14,14,14,14,14,14,14,14,14,14,14,14,14,14,14,
14,14,14,14,14,14,14,14,14,14,14,14,14,14,14,14,
14,14,14,14,14,14,14,14,14,14,14,14,14,14,14,14
</chunk>
   <chunk x="-16" y="-96" width="16" height="16">
2,2,3,0,0,0,0,0,0,0,0,0,0,0,0,0,
14,14,14,3,0,0,0,0,0,0,0,0,0,0,0,0,
14,14,14,14,3,0,0,0,0,0,0,0,0,0,0,0,
14,14,14,14,14,3,0,0,0,0,0,0,0,0,0,0,
14,14,14,14,14,15,0,0,0,0,0,0,0,0,0,0,
14,14,14,14,14,15,0,0,0,0,0,1,2,2,2,2,
14,14,14,14,14,15,0,0,0,0,1,4,14,14,14,14,
14,14,14,14,14,15,0,0,0,1,4,14,14,14,14,14,
14,14,14,14,14,15,0,0,0,13,14,14,14,14,14,14,
14,14,14,14,14,15,0,0,0,13,14,14,14,14,14,14,
14,14,14,14,14,15,0,0,0,13,14,14,14,14,14,14,
14,14,14,14,14,15,0,0,0,13,14,14,14,14,14,14,
14,14,14,14,14,15,0,0,0,13,14,14,14,14,14,14,
14,14,14,14,14,15,0,0,0,13,14,14,14,14,14,14,
14,14,14,14,17,27,0,0,0,25,16,14,14,14,14,14,
14,14,14,17,27,0,0,0,0,0,25,16,14,14,14,14
</chunk>
   <chunk x="0" y="-96" width="16" height="16">
0,0,0,0,0,0,0,0,0,0,0,0,0,0,0,0,
0,0,0,0,0,0,0,0,0,0,0,0,0,0,0,0,
0,0,0,0,0,0,0,0,0,0,0,0,0,0,0,0,
0,0,0,0,0,0,0,0,0,0,0,0,0,0,0,0,
0,0,0,0,0,0,0,0,0,0,0,0,0,0,0,0,
2,2,2,2,2,2,2,2,2,2,2,2,2,2,2,2,
14,14,14,14,14,14,14,14,14,14,14,14,14,14,14,14,
14,14,14,14,14,14,14,14,14,14,14,14,14,14,14,14,
14,14,14,14,14,14,14,14,14,14,14,14,14,14,14,14,
14,14,14,14,14,14,14,14,14,14,14,14,14,14,14,14,
14,14,14,14,14,14,14,14,14,14,14,14,14,14,14,14,
14,14,14,14,14,14,14,14,14,14,14,14,14,14,14,14,
14,14,14,14,14,14,14,14,14,14,14,14,14,14,14,14,
14,14,14,14,14,14,14,14,14,14,14,14,14,14,14,14,
14,14,14,14,14,14,14,14,14,14,14,14,14,14,14,14,
14,14,14,14,14,14,14,14,14,14,14,14,14,14,14,14
</chunk>
   <chunk x="16" y="-96" width="16" height="16">
0,0,0,0,0,0,0,0,0,0,0,0,0,0,0,0,
0,0,0,0,0,0,0,0,0,0,0,0,0,0,0,0,
0,0,0,0,0,0,0,0,0,0,0,0,0,0,0,0,
0,0,0,0,0,0,0,0,0,0,0,0,0,0,0,0,
0,0,0,0,0,0,0,0,0,0,0,0,0,0,0,0,
2,2,2,2,2,2,2,2,2,2,2,2,2,2,2,2,
14,14,14,14,14,14,14,14,14,14,14,14,14,14,14,14,
14,14,14,14,14,14,14,14,14,14,14,14,14,14,14,14,
14,14,14,14,14,14,14,14,14,14,14,14,14,14,14,14,
14,14,14,14,14,14,14,14,14,14,14,14,14,14,14,14,
14,14,14,14,14,14,14,14,14,14,14,14,14,14,14,14,
14,14,14,14,14,14,14,14,14,14,14,14,14,14,14,14,
14,14,14,14,14,14,14,14,14,14,14,14,14,14,14,14,
14,14,14,14,14,14,14,14,14,14,14,14,14,14,14,14,
14,14,14,14,14,14,14,14,14,14,14,14,14,14,14,14,
14,14,14,14,14,14,14,14,14,14,14,14,14,14,14,14
</chunk>
   <chunk x="32" y="-96" width="16" height="16">
0,0,0,0,0,0,0,0,0,0,0,0,0,0,0,0,
0,0,0,0,0,0,0,0,0,0,0,0,0,0,0,0,
0,0,0,0,0,0,0,0,0,0,0,0,0,0,0,0,
0,0,0,0,0,0,0,0,0,0,0,0,0,0,0,0,
0,0,0,0,0,0,0,0,0,0,0,0,0,0,0,0,
2,2,2,2,2,2,2,2,2,2,2,2,2,2,2,2,
14,14,14,14,14,14,14,14,14,14,14,14,14,14,14,14,
14,14,14,14,14,14,14,14,14,14,14,14,14,14,14,14,
14,14,14,14,14,14,14,14,14,14,14,14,14,14,14,14,
14,14,14,14,14,14,14,14,14,14,14,14,14,14,14,14,
14,14,14,14,14,14,14,14,14,14,14,14,14,14,14,14,
14,14,14,14,14,14,14,14,14,14,14,14,14,14,14,14,
14,14,14,14,14,14,14,14,14,14,14,14,14,14,14,14,
14,14,14,14,14,14,14,14,14,14,14,14,14,14,14,14,
14,14,14,14,14,14,14,14,14,14,14,14,14,14,14,14,
14,14,14,14,14,14,14,14,14,14,14,14,14,14,14,14
</chunk>
   <chunk x="48" y="-96" width="16" height="16">
0,0,0,0,0,0,0,0,0,0,0,0,0,0,0,0,
0,0,0,0,0,0,0,0,0,0,0,0,0,0,0,0,
0,0,0,0,0,0,0,0,0,0,0,0,0,0,0,0,
0,0,0,0,0,0,0,0,0,0,0,0,0,0,0,0,
0,0,0,0,0,0,0,0,0,0,0,0,0,0,0,0,
2,2,2,2,2,2,2,2,2,2,2,2,2,2,2,2,
14,14,14,14,14,14,14,14,14,14,14,14,14,14,14,14,
14,14,14,14,14,14,14,14,14,14,14,14,14,14,14,14,
14,14,14,14,14,14,14,14,14,14,14,14,14,14,14,14,
14,14,14,14,14,14,14,14,14,14,14,14,14,14,14,14,
14,14,14,14,14,14,14,14,14,14,14,14,14,14,14,14,
14,14,14,14,14,14,14,14,14,14,14,14,14,14,14,14,
14,14,14,14,14,14,14,14,14,14,14,14,14,14,14,14,
14,14,14,14,14,14,14,14,14,14,14,14,14,14,14,14,
14,14,14,14,14,14,14,14,14,14,14,14,14,14,14,14,
14,14,14,14,14,14,14,14,14,14,14,14,14,14,14,14
</chunk>
   <chunk x="64" y="-96" width="16" height="16">
0,0,0,0,0,0,0,0,0,0,0,0,0,0,0,0,
0,0,0,0,0,0,0,0,0,0,0,0,0,0,0,0,
0,0,0,0,0,0,0,0,0,0,0,0,0,0,0,0,
0,0,0,0,0,0,0,0,0,0,0,0,0,0,0,0,
0,0,0,0,0,0,0,0,0,0,0,0,0,0,0,0,
2,2,2,2,2,2,2,2,2,2,2,2,2,3,0,0,
14,14,14,14,14,14,14,14,14,14,14,14,14,5,3,0,
14,14,14,14,14,14,14,14,14,14,14,14,14,14,5,3,
14,14,14,14,14,14,14,14,14,14,14,14,14,14,14,15,
14,14,14,14,14,14,14,14,14,14,14,14,14,14,14,15,
14,14,14,14,14,14,14,14,14,14,14,14,14,14,14,15,
14,14,14,14,14,14,14,14,14,14,14,14,14,14,14,15,
14,14,14,14,14,14,14,14,14,14,14,14,14,14,14,15,
14,14,14,14,14,14,14,14,14,14,14,134,14,14,14,15,
14,14,14,14,14,14,14,14,14,14,14,14,14,14,14,15,
14,14,14,14,14,14,14,14,14,14,14,14,134,14,14,15
</chunk>
   <chunk x="-48" y="-80" width="16" height="16">
13,14,14,14,14,14,14,14,14,14,14,14,14,14,14,14,
13,14,14,14,14,14,14,14,14,14,14,14,14,14,14,14,
13,14,14,14,14,14,14,14,14,14,14,14,14,14,14,14,
13,14,14,14,14,14,14,14,14,14,14,14,14,14,14,14,
13,14,14,14,14,14,14,14,14,14,14,14,14,14,14,14,
13,14,14,14,14,14,14,14,14,14,14,14,14,14,14,14,
13,14,14,14,14,14,14,14,14,14,14,14,14,14,14,14,
13,14,14,14,14,14,14,14,14,14,14,14,14,14,14,14,
13,14,14,14,14,14,14,14,14,14,14,14,14,14,14,14,
13,14,14,14,14,14,14,14,14,14,14,14,14,14,14,14,
13,14,14,14,14,14,14,14,14,14,14,14,14,14,14,14,
13,14,14,14,14,14,14,14,14,14,14,14,14,14,14,14,
13,14,14,14,14,14,14,14,14,14,14,14,14,14,14,134,
13,14,14,14,14,14,14,14,14,14,14,14,14,14,14,14,
13,14,14,14,14,14,14,14,14,14,14,14,14,14,14,14,
13,14,14,14,14,14,14,14,14,14,14,14,14,14,14,14
</chunk>
   <chunk x="-32" y="-80" width="16" height="16">
14,14,14,14,14,14,14,14,14,14,14,14,14,14,14,14,
14,14,14,14,14,14,14,14,14,14,14,14,14,14,14,14,
14,14,14,14,14,14,14,14,14,14,14,14,14,14,14,14,
14,14,14,14,14,14,14,14,14,14,14,14,14,14,14,14,
14,14,14,14,14,14,14,14,14,14,14,14,14,14,14,14,
14,14,14,14,14,14,14,14,14,14,14,14,14,14,14,14,
14,14,14,14,14,14,14,14,14,14,14,14,14,14,14,14,
14,14,14,14,14,14,14,14,14,14,14,14,14,14,14,14,
14,14,14,14,14,14,14,14,14,14,14,14,14,14,14,14,
14,14,14,14,14,14,14,14,14,14,14,14,14,14,14,14,
14,14,14,14,14,14,14,14,14,14,14,14,14,14,14,14,
14,14,14,14,14,14,14,14,14,14,14,14,14,14,14,14,
14,14,134,134,14,14,14,14,14,14,14,14,14,14,14,14,
14,14,14,14,14,14,14,14,14,14,14,14,14,14,14,14,
14,14,14,14,14,14,14,14,14,14,14,14,14,14,14,14,
14,14,14,14,14,14,14,14,14,14,14,14,14,14,14,14
</chunk>
   <chunk x="-16" y="-80" width="16" height="16">
14,14,17,27,0,0,0,0,0,0,0,25,16,14,14,14,
14,14,15,0,0,0,1,2,3,0,0,0,13,14,14,14,
14,14,15,0,0,1,4,14,5,3,0,0,13,14,14,14,
14,14,14,14,62,62,62,62,62,62,62,14,14,14,14,14,
14,14,15,0,0,25,16,14,17,27,0,0,13,14,14,14,
14,14,15,0,0,0,25,26,27,0,0,0,13,14,14,14,
14,14,5,3,0,0,0,0,0,0,0,1,4,14,14,14,
14,14,14,5,3,0,0,0,0,0,1,4,14,14,14,14,
14,14,14,14,15,0,0,0,0,0,13,14,14,14,14,14,
14,14,14,17,27,0,0,0,0,0,25,16,14,14,14,14,
14,14,17,27,0,0,0,0,0,0,0,25,16,14,14,14,
14,14,15,0,0,0,1,2,3,0,0,0,13,14,14,14,
14,14,15,0,0,1,4,14,5,3,0,0,13,14,14,14,
14,14,14,14,62,62,62,62,62,62,62,14,14,14,14,14,
14,14,15,0,0,25,16,14,17,27,0,0,13,14,14,14,
14,14,15,0,0,0,25,26,27,0,0,0,13,14,14,14
</chunk>
   <chunk x="0" y="-80" width="16" height="16">
14,14,14,14,14,14,14,14,14,14,14,14,14,14,14,14,
14,14,14,14,14,14,14,14,14,14,14,14,14,14,14,14,
14,14,14,14,14,14,14,14,14,14,14,14,14,14,14,14,
14,14,14,14,14,14,14,14,14,14,14,14,14,14,14,14,
14,14,14,14,14,14,14,14,14,14,14,14,14,14,14,14,
14,14,14,14,14,14,14,14,14,14,14,14,14,14,14,14,
14,14,14,14,14,14,14,14,14,14,14,14,14,14,14,14,
14,14,14,14,14,14,14,14,14,14,14,14,14,14,14,14,
14,14,14,14,14,14,14,14,14,14,14,14,14,14,14,14,
14,14,14,14,14,14,14,14,14,14,14,14,14,14,14,14,
14,14,14,14,14,14,14,14,14,14,14,14,14,14,14,14,
14,14,14,14,14,14,14,14,14,14,14,14,14,14,14,14,
14,14,14,14,14,14,14,14,14,14,14,14,14,14,14,14,
14,14,14,14,14,14,14,14,14,14,14,14,14,14,14,14,
14,14,14,14,14,14,14,14,14,14,14,14,14,14,14,14,
14,14,14,14,14,14,14,14,14,14,14,14,14,14,14,14
</chunk>
   <chunk x="16" y="-80" width="16" height="16">
14,14,14,14,14,14,14,14,14,14,14,14,14,14,14,14,
14,14,14,14,14,14,14,14,14,14,14,14,14,14,14,14,
14,14,14,14,14,14,14,14,14,14,14,14,14,14,14,14,
14,14,14,14,14,14,14,14,14,14,14,14,14,14,14,14,
14,14,14,14,14,14,14,14,14,14,14,14,14,14,14,14,
14,14,14,14,14,14,14,14,14,14,14,14,14,14,14,14,
14,14,14,14,14,14,14,14,14,14,14,14,14,14,14,14,
14,14,14,14,14,14,14,14,14,14,14,14,14,14,14,14,
14,14,14,14,14,14,14,14,14,14,14,14,14,14,14,14,
14,14,14,14,14,14,14,14,14,14,14,14,14,14,14,14,
14,14,14,14,14,14,14,14,14,14,14,14,14,14,14,14,
14,14,14,14,14,14,14,14,14,14,14,14,14,14,14,14,
14,14,14,14,14,14,14,14,14,14,14,14,14,14,14,14,
14,14,14,14,14,14,14,14,14,14,14,14,14,14,14,14,
14,14,14,14,14,14,14,14,14,14,14,14,14,14,14,14,
14,14,14,14,14,14,14,14,14,14,14,14,14,14,14,14
</chunk>
   <chunk x="32" y="-80" width="16" height="16">
14,14,14,14,14,14,14,14,14,14,14,14,14,14,14,14,
14,14,14,14,14,14,14,14,14,14,14,14,14,14,14,14,
14,14,14,14,14,14,14,14,14,14,14,14,14,14,14,14,
14,14,14,14,14,14,14,14,14,14,14,14,14,14,14,14,
14,14,14,14,14,14,14,14,14,14,14,14,14,14,14,14,
14,14,14,14,14,14,14,14,14,14,14,14,14,14,14,14,
14,14,14,14,14,14,14,14,14,14,14,14,14,14,14,14,
14,14,14,14,14,14,14,14,14,14,14,14,14,14,14,14,
14,14,14,14,14,14,14,14,14,14,14,14,14,14,14,14,
14,14,14,14,14,14,14,14,14,14,14,14,14,14,14,14,
14,14,14,14,14,14,14,14,14,14,14,14,14,14,14,14,
14,14,14,14,14,14,14,14,14,14,14,14,14,14,14,14,
14,14,14,14,14,14,14,14,14,14,14,14,14,14,14,14,
14,14,14,14,14,14,14,14,14,14,14,14,14,14,14,14,
14,14,14,14,14,14,14,14,14,14,14,14,14,14,14,14,
14,14,14,14,14,14,14,14,14,14,14,14,14,14,14,14
</chunk>
   <chunk x="48" y="-80" width="16" height="16">
14,14,14,14,14,14,14,14,14,14,14,14,14,14,14,14,
14,14,14,14,14,14,14,14,14,14,14,14,14,14,14,14,
14,14,14,14,14,14,14,14,14,14,14,14,14,14,14,14,
14,14,14,14,14,14,14,14,14,14,14,14,14,14,14,14,
14,14,14,14,14,14,14,14,14,14,14,14,14,14,14,14,
14,14,14,14,14,14,14,14,14,14,14,14,14,14,14,14,
14,14,14,14,14,14,14,14,14,14,14,14,14,14,14,14,
14,14,14,14,14,14,14,14,14,14,14,14,14,14,14,14,
14,14,14,14,14,14,14,14,14,14,14,14,14,14,14,14,
14,14,14,14,14,14,14,14,14,14,14,14,14,14,14,14,
14,14,14,14,14,14,14,14,14,14,14,14,14,14,14,14,
14,14,14,14,14,14,14,14,14,14,14,14,14,14,14,14,
14,14,14,14,14,14,14,14,14,14,14,14,14,14,14,14,
14,14,14,14,14,14,14,14,14,14,14,14,14,14,14,14,
14,14,14,14,14,14,14,14,14,14,14,14,14,14,14,14,
14,14,14,14,14,14,14,14,14,14,14,14,14,14,14,14
</chunk>
   <chunk x="64" y="-80" width="16" height="16">
14,14,14,14,14,14,14,14,14,14,14,14,14,14,14,15,
14,14,14,14,14,14,14,14,14,14,14,14,14,14,14,15,
14,14,14,14,14,14,14,14,14,14,14,14,14,14,14,15,
14,14,14,14,14,14,14,14,14,14,14,14,14,14,14,15,
14,14,14,14,14,14,14,14,14,14,14,14,14,14,14,15,
14,14,14,14,14,14,14,14,14,14,14,14,14,14,14,15,
14,14,14,14,14,14,14,14,14,14,14,14,14,14,14,15,
14,14,14,14,14,14,14,14,14,14,14,14,14,14,14,15,
14,14,14,14,14,14,14,14,14,14,14,14,14,14,14,15,
14,14,14,14,14,14,14,14,14,14,14,14,14,14,14,15,
14,14,14,14,14,14,14,14,14,14,14,14,14,14,14,15,
14,14,14,14,14,14,14,14,14,14,14,14,14,14,14,15,
14,14,14,14,14,14,14,14,14,14,14,14,14,14,14,15,
14,14,14,14,14,14,14,14,14,14,14,14,14,14,14,15,
14,14,14,14,14,14,14,14,14,14,14,14,14,14,14,15,
14,14,14,14,14,14,14,14,14,14,14,14,14,14,14,15
</chunk>
   <chunk x="-48" y="-64" width="16" height="16">
13,14,14,14,14,14,14,14,14,14,14,14,14,14,14,14,
13,14,14,14,14,14,14,14,14,14,14,14,14,14,14,14,
13,14,14,14,14,14,14,14,14,14,14,14,14,14,14,14,
13,14,14,14,14,14,14,14,14,14,14,14,14,14,14,14,
13,14,14,14,14,14,14,14,14,14,14,14,14,14,14,14,
13,14,14,14,14,14,14,14,14,14,14,14,14,14,14,14,
13,14,14,14,14,14,14,14,14,14,14,14,14,14,14,14,
13,14,14,14,14,14,14,14,14,14,14,14,14,14,14,14,
25,16,14,14,14,14,14,14,14,14,14,14,14,14,14,14,
0,13,14,14,14,14,14,14,14,14,14,14,14,14,14,14,
0,13,14,14,14,14,14,14,14,14,14,14,14,14,14,14,
0,25,16,14,14,14,14,14,14,14,14,14,14,14,14,14,
0,0,25,16,14,14,14,14,14,14,14,14,14,14,14,14,
0,0,0,25,16,14,14,14,14,14,14,14,14,14,14,14,
1,3,0,0,25,16,14,14,14,14,14,14,14,14,14,14,
13,5,3,0,0,25,16,14,14,14,14,14,14,14,14,14
</chunk>
   <chunk x="-32" y="-64" width="16" height="16">
14,14,14,14,14,14,14,14,14,14,14,14,14,14,14,14,
14,14,14,14,14,14,14,14,14,14,14,14,14,14,14,14,
14,14,14,14,14,14,14,14,14,14,14,14,14,14,14,14,
14,14,14,14,14,14,14,14,14,14,14,14,14,14,14,14,
14,14,14,14,14,14,14,14,14,14,14,14,14,14,14,14,
14,14,14,14,14,14,14,14,14,14,14,14,14,14,14,14,
14,14,14,14,14,14,14,14,14,14,14,14,14,14,14,14,
14,14,14,14,14,14,134,14,14,14,14,14,14,14,14,14,
14,14,14,14,14,14,14,14,14,14,14,14,14,14,14,14,
14,14,14,14,14,14,14,14,14,14,14,14,14,14,14,14,
14,14,14,14,14,14,14,14,14,14,14,14,14,14,14,14,
14,14,14,14,14,14,14,14,14,14,14,14,14,14,14,14,
14,14,14,14,14,14,14,14,14,14,14,14,14,14,14,14,
14,14,14,14,14,14,14,14,14,14,14,14,14,14,14,14,
14,14,14,14,14,14,14,14,14,14,14,14,14,14,14,14,
14,14,14,14,14,14,14,14,14,14,14,14,14,14,14,14
</chunk>
   <chunk x="-16" y="-64" width="16" height="16">
14,14,14,3,0,0,0,0,0,0,0,1,4,14,14,14,
14,14,14,14,3,0,0,0,0,0,1,4,14,14,14,14,
14,14,14,14,14,3,0,0,0,1,4,14,14,14,14,14,
14,14,14,14,14,15,0,0,0,13,14,14,14,14,14,14,
14,14,14,14,14,15,0,0,0,13,14,14,14,14,14,14,
14,14,14,14,14,15,0,0,0,13,14,14,14,14,14,14,
14,14,14,14,14,15,0,0,0,13,14,14,14,14,14,14,
14,14,14,14,14,15,0,0,0,13,14,14,14,14,14,14,
14,14,14,14,14,15,0,0,0,13,14,14,14,14,14,14,
14,14,14,14,14,15,0,0,0,13,26,14,14,14,14,14,
14,14,14,14,14,15,0,0,0,25,14,14,14,14,14,14,
14,14,14,14,14,15,0,0,0,0,25,16,14,14,14,14,
14,14,14,14,14,15,0,0,0,0,0,25,26,26,26,26,
14,14,14,14,14,15,0,0,0,0,0,0,0,0,0,0,
14,14,14,14,14,15,0,0,0,0,0,0,0,0,0,0,
14,14,14,14,14,15,0,0,0,0,0,0,0,0,0,0
</chunk>
   <chunk x="0" y="-64" width="16" height="16">
14,14,14,14,14,14,14,14,14,14,14,14,14,14,14,14,
14,14,14,14,14,14,14,14,14,14,14,14,14,14,14,14,
14,14,14,14,14,14,14,14,14,14,14,14,14,14,14,14,
14,14,14,14,14,14,14,14,14,14,14,14,14,14,14,14,
14,14,14,14,14,14,14,14,14,14,14,14,14,14,14,14,
14,14,14,14,14,14,14,14,14,14,14,14,14,14,14,14,
14,14,14,14,14,14,14,14,14,14,14,14,14,14,14,14,
14,14,14,14,14,14,14,14,14,14,14,14,14,14,14,14,
14,14,14,14,14,14,14,14,14,14,14,14,14,14,14,14,
14,14,14,14,14,14,14,14,14,14,14,14,14,14,14,14,
14,14,14,14,14,14,14,14,14,14,14,14,14,14,14,14,
14,14,14,14,14,14,14,14,14,14,14,14,14,14,14,14,
26,26,26,26,26,26,26,26,26,26,26,26,26,26,26,26,
0,0,0,0,0,0,0,0,0,0,0,0,0,0,0,0,
0,0,0,0,0,0,0,0,0,0,0,0,0,0,0,0,
0,0,0,0,0,0,0,0,0,0,0,0,0,0,0,0
</chunk>
   <chunk x="16" y="-64" width="16" height="16">
14,14,14,14,14,14,14,14,14,14,14,14,14,14,14,14,
14,14,14,14,14,14,14,14,14,14,14,14,14,14,14,14,
14,14,14,14,14,14,14,14,14,14,14,14,14,14,14,14,
14,14,14,14,14,14,14,14,14,14,14,14,14,14,14,14,
14,14,14,14,14,14,14,14,14,14,14,14,14,14,14,14,
14,14,14,14,14,14,14,14,14,14,14,14,14,14,14,14,
14,14,14,14,14,14,14,14,14,14,14,14,14,14,14,14,
14,14,14,14,14,14,14,14,14,14,14,14,134,14,14,14,
14,14,14,14,14,14,14,14,14,14,14,14,14,14,14,14,
14,14,14,14,14,14,14,14,14,14,14,14,14,14,14,14,
14,14,14,14,14,14,14,14,14,14,14,14,14,14,14,14,
14,14,14,14,14,14,14,14,14,14,14,14,14,14,14,14,
26,26,26,26,26,26,26,26,26,26,26,26,26,26,26,26,
0,0,0,0,0,0,0,0,0,0,0,0,0,0,0,0,
0,0,0,0,0,0,0,0,0,0,0,0,0,0,0,0,
0,0,0,0,0,0,0,0,0,0,0,0,0,0,0,0
</chunk>
   <chunk x="32" y="-64" width="16" height="16">
14,14,14,14,14,14,14,14,14,14,14,14,14,14,14,14,
14,14,14,14,14,14,14,14,14,14,14,14,14,14,14,14,
14,14,14,14,14,14,14,14,14,14,14,14,14,14,14,14,
14,14,14,14,14,14,14,14,14,14,14,14,14,14,14,14,
14,14,14,14,14,14,14,14,14,14,14,14,14,14,14,14,
14,14,14,14,14,14,14,14,14,14,14,14,14,14,14,14,
14,14,14,14,14,14,14,14,14,14,14,14,14,14,14,14,
14,14,14,14,14,14,14,14,14,14,14,14,14,14,14,14,
14,14,14,14,14,14,14,14,14,14,14,14,14,14,14,14,
14,14,14,14,14,14,14,14,14,14,14,14,14,14,14,14,
14,14,14,14,14,14,14,14,14,14,14,14,14,14,14,14,
14,14,14,14,14,14,14,14,14,14,14,14,14,14,14,14,
26,26,26,26,26,26,26,26,26,26,26,26,26,26,26,26,
0,0,0,0,0,0,0,0,0,0,0,0,0,0,0,0,
0,0,0,0,0,0,0,0,0,0,0,0,0,0,0,0,
0,0,0,0,0,0,0,0,0,0,0,0,0,0,0,0
</chunk>
   <chunk x="48" y="-64" width="16" height="16">
14,14,14,14,14,14,14,14,14,14,14,14,14,14,14,14,
14,14,14,14,14,14,14,14,14,14,14,14,14,14,14,14,
14,14,14,14,14,14,14,14,14,14,14,14,14,14,14,14,
14,14,14,14,14,14,14,14,14,14,14,14,14,14,14,14,
14,14,14,14,14,14,14,14,14,14,14,14,14,14,14,14,
14,14,14,14,14,14,14,14,14,14,14,14,14,14,14,14,
14,14,14,14,14,14,14,14,14,14,14,14,14,14,14,14,
14,14,14,14,14,14,14,14,14,14,14,14,14,14,14,14,
14,14,14,14,14,14,14,14,14,14,14,14,14,14,14,14,
14,14,14,14,14,14,14,14,14,14,14,14,14,14,14,14,
14,14,14,14,14,14,14,14,14,14,14,14,14,14,14,14,
14,14,14,14,14,14,14,14,14,14,14,14,14,14,14,14,
26,26,26,26,26,26,26,26,26,26,26,26,26,26,26,26,
0,0,0,0,0,0,0,0,0,0,0,0,0,0,0,0,
0,0,0,0,0,0,0,0,0,0,0,0,0,0,0,0,
0,0,0,0,0,0,0,0,0,0,0,0,0,0,0,0
</chunk>
   <chunk x="64" y="-64" width="16" height="16">
14,14,14,14,14,14,14,14,14,14,14,14,14,14,14,15,
14,14,14,14,14,14,14,14,14,14,14,14,14,14,14,15,
14,14,14,14,14,14,14,14,14,14,14,14,14,14,14,15,
14,14,14,14,14,14,14,14,14,14,14,14,14,14,14,15,
14,14,14,14,14,14,14,14,14,14,14,14,14,14,14,15,
14,14,14,14,14,14,14,14,14,14,14,14,14,14,14,15,
14,14,14,14,14,14,14,14,14,14,14,14,14,14,14,15,
14,14,14,14,14,14,14,14,14,14,14,14,14,14,14,15,
14,14,14,14,14,14,14,14,14,14,14,14,14,14,14,15,
14,14,14,14,14,14,14,14,14,14,14,14,14,14,14,15,
14,14,14,14,14,14,14,14,14,14,14,14,14,14,17,27,
14,14,14,14,14,14,14,14,14,14,14,14,14,17,27,0,
26,26,26,26,26,26,26,26,26,26,26,26,26,27,0,0,
0,0,0,0,0,0,0,0,0,0,0,0,0,0,0,0,
0,0,0,0,0,0,0,0,0,0,0,0,0,0,0,0,
0,0,0,0,0,0,0,0,0,0,0,0,0,0,0,0
</chunk>
   <chunk x="-48" y="-48" width="16" height="16">
13,14,5,3,0,0,25,16,14,14,14,14,14,14,14,14,
13,14,14,5,2,3,0,13,14,14,14,14,14,14,14,14,
13,14,14,14,14,15,0,25,16,14,14,14,14,14,14,14,
13,14,14,14,14,15,0,0,13,14,14,14,14,14,14,14,
13,14,14,14,14,5,3,0,25,16,14,14,14,14,14,14,
13,14,14,14,14,14,15,0,0,25,26,16,14,14,14,14,
13,14,14,14,14,14,5,3,0,0,0,25,16,14,14,14,
13,14,14,14,14,14,14,5,2,3,0,0,25,16,14,14,
13,14,14,14,14,14,14,14,14,5,3,0,0,25,16,14,
13,14,14,14,14,14,14,14,14,14,5,3,0,0,25,16,
13,14,14,14,14,14,14,14,14,14,14,5,3,0,0,13,
13,14,14,14,14,14,14,14,14,14,14,14,5,3,0,25,
13,14,14,14,14,14,14,14,14,14,14,14,14,15,0,0,
13,14,14,14,14,14,14,14,14,14,14,14,14,5,3,0,
13,14,14,14,14,14,14,14,14,14,14,14,14,14,5,3,
13,14,14,14,14,14,14,14,14,14,14,14,14,14,14,15
</chunk>
   <chunk x="-32" y="-48" width="16" height="16">
14,14,14,14,14,14,14,14,14,14,14,14,14,14,14,14,
14,14,14,14,14,14,14,14,14,14,14,14,14,14,14,14,
14,14,14,14,14,14,14,14,14,14,14,14,14,14,14,14,
14,14,14,14,14,14,14,14,14,14,14,14,14,14,14,14,
14,14,14,14,14,14,14,14,14,14,14,14,14,14,14,14,
14,14,14,122,14,14,14,14,14,14,14,14,14,14,14,14,
14,14,14,14,134,14,14,14,14,14,14,14,14,14,14,14,
14,14,14,14,14,14,14,14,14,14,14,14,14,14,14,14,
14,14,14,14,14,14,14,14,14,14,14,14,14,14,14,14,
14,14,14,14,14,14,14,14,14,14,14,14,14,14,14,14,
14,14,14,14,14,14,14,14,14,14,14,14,14,14,14,14,
16,14,14,14,14,14,14,14,14,14,14,14,14,14,14,14,
25,14,14,14,14,14,14,14,14,14,14,14,14,14,14,14,
0,25,14,14,14,14,14,14,14,14,14,14,14,14,14,14,
0,0,25,26,16,14,14,14,14,14,14,14,14,14,14,14,
0,0,0,0,13,14,14,14,14,14,14,14,14,14,14,14
</chunk>
   <chunk x="-16" y="-48" width="16" height="16">
14,14,14,14,14,15,0,0,0,0,0,0,0,0,0,0,
14,14,14,14,14,15,0,0,0,0,0,0,0,0,0,0,
14,14,14,14,14,15,0,0,0,0,0,0,0,0,0,0,
14,14,14,14,14,15,0,0,0,0,0,0,0,0,0,0,
14,14,14,14,14,15,0,0,0,0,0,1,2,2,2,2,
14,14,14,14,14,15,0,0,0,0,1,14,14,14,14,14,
14,14,14,14,14,15,0,0,0,1,14,14,14,14,14,14,
14,14,14,14,14,15,0,0,0,13,14,14,14,14,14,14,
14,14,14,14,14,15,0,0,0,13,14,14,14,14,14,14,
14,14,14,14,14,15,0,0,0,13,14,14,14,14,14,14,
14,14,14,14,14,15,0,0,0,13,14,14,14,14,14,14,
14,14,14,14,14,15,0,0,0,13,14,14,14,14,14,14,
134,14,14,14,14,15,0,0,0,13,14,14,14,14,14,14,
14,14,14,14,17,27,0,0,0,25,14,14,14,14,14,14,
14,14,14,17,27,0,0,0,0,0,25,14,14,14,14,14,
14,14,17,27,0,0,0,0,0,0,0,25,14,14,14,14
</chunk>
   <chunk x="0" y="-48" width="16" height="16">
0,0,0,0,0,0,0,0,0,0,0,0,0,0,0,0,
0,0,0,0,0,0,0,0,0,0,0,0,0,0,0,0,
0,0,0,0,0,0,0,0,0,0,0,0,0,0,0,0,
0,0,0,0,0,0,0,0,0,0,0,0,0,0,0,0,
2,2,2,2,2,2,2,2,2,2,2,2,2,2,2,2,
14,14,14,14,14,14,14,14,14,14,14,14,14,14,14,14,
14,14,14,14,14,14,14,14,14,14,14,14,14,14,14,14,
14,14,14,14,14,14,14,14,14,14,14,14,14,14,14,14,
14,14,14,14,14,14,14,14,14,14,14,14,14,14,14,14,
14,14,14,14,14,14,14,14,14,14,14,14,14,14,14,14,
14,14,14,14,14,14,14,14,14,14,14,14,14,14,14,14,
14,14,14,14,14,14,14,14,14,14,14,14,14,14,14,14,
14,14,14,14,14,14,14,14,14,14,14,14,14,14,14,14,
14,14,14,14,14,14,14,14,14,14,14,14,14,14,14,14,
14,14,14,14,14,14,14,14,14,14,14,14,14,14,14,14,
14,14,14,14,14,14,14,14,14,14,14,14,14,14,14,14
</chunk>
   <chunk x="16" y="-48" width="16" height="16">
0,0,0,0,0,0,0,0,0,0,0,0,0,0,0,0,
0,0,0,0,0,0,0,0,0,0,0,0,0,0,0,0,
0,0,0,0,0,0,0,0,0,0,0,0,0,0,0,0,
0,0,0,0,0,0,0,0,0,0,0,0,0,0,0,0,
2,2,2,2,2,2,2,2,2,2,2,2,2,2,2,2,
14,14,14,14,14,14,14,14,14,14,14,14,14,14,14,14,
14,14,14,14,14,14,14,14,14,14,14,14,14,14,14,14,
14,14,14,14,14,14,14,14,14,14,14,14,14,14,14,14,
14,14,14,14,14,14,14,14,14,14,14,14,14,14,14,14,
14,14,14,14,14,14,14,14,14,14,14,14,14,14,14,14,
14,14,14,14,14,14,14,14,14,14,14,14,14,14,14,14,
14,14,14,14,14,14,14,14,14,14,14,14,14,14,14,14,
14,14,14,14,14,14,14,14,14,14,14,14,14,14,14,14,
14,14,14,14,14,14,14,14,14,14,14,14,14,14,14,14,
14,14,14,14,14,14,14,14,14,14,14,14,14,14,14,14,
14,14,14,14,14,14,14,14,14,14,14,14,14,14,14,14
</chunk>
   <chunk x="32" y="-48" width="16" height="16">
0,0,0,0,0,0,0,0,0,0,0,0,0,0,0,0,
0,0,0,0,0,0,0,0,0,0,0,0,0,0,0,0,
0,0,0,0,0,0,0,0,0,0,0,0,0,0,0,0,
0,0,0,0,0,0,0,0,0,0,0,0,0,0,0,0,
2,2,2,2,2,2,2,2,2,2,2,2,2,2,2,2,
14,14,14,14,14,14,14,14,14,14,14,14,14,14,14,14,
14,14,14,14,14,14,14,14,14,14,14,14,14,14,14,14,
14,14,14,14,14,14,14,14,14,14,14,14,14,14,14,14,
14,14,14,14,14,14,14,14,14,14,14,14,14,14,14,14,
14,14,14,14,14,14,14,14,14,14,14,14,14,14,14,14,
14,14,14,14,14,14,14,14,14,14,14,14,14,14,14,14,
14,14,14,14,14,14,14,14,14,14,14,14,14,14,14,14,
14,14,14,14,14,14,14,14,14,14,14,14,14,14,14,14,
14,14,14,14,14,14,14,14,14,14,14,14,14,14,14,14,
14,14,14,14,14,14,14,14,14,14,14,14,14,14,14,14,
14,14,14,14,14,14,14,14,14,14,14,14,14,14,14,14
</chunk>
   <chunk x="48" y="-48" width="16" height="16">
0,0,0,0,0,0,0,0,0,0,0,0,0,0,0,0,
0,0,0,0,0,0,0,0,0,0,0,0,0,0,0,0,
0,0,0,0,0,0,0,0,0,0,0,0,0,0,0,0,
0,0,0,0,0,0,0,0,0,0,0,0,0,0,0,0,
2,2,2,2,2,2,2,2,2,2,2,2,2,2,2,2,
14,14,14,14,14,14,14,14,14,14,14,14,14,14,14,14,
14,14,14,14,14,14,14,14,14,14,14,14,14,14,14,14,
14,14,14,14,14,14,14,14,14,14,14,14,14,14,14,14,
14,14,14,14,14,14,14,14,14,14,14,14,14,14,14,14,
14,14,14,14,14,14,14,14,14,14,14,14,14,14,14,14,
14,14,14,14,14,14,14,14,14,14,14,14,14,14,14,14,
14,14,14,14,14,14,14,14,14,14,14,14,14,14,14,14,
14,14,14,14,14,14,14,14,14,14,14,14,14,14,14,14,
14,14,14,14,14,14,14,14,14,14,14,14,14,14,14,14,
14,14,14,14,14,14,14,14,14,14,14,14,14,14,14,14,
14,14,14,14,14,14,14,14,14,14,14,14,14,14,14,14
</chunk>
   <chunk x="64" y="-48" width="16" height="16">
0,0,0,0,0,0,0,0,0,0,0,0,0,0,0,0,
0,0,0,0,0,0,0,0,0,0,0,0,0,0,0,0,
0,0,0,0,0,0,0,0,0,0,0,0,0,0,0,0,
0,0,0,0,0,0,0,0,0,0,0,0,0,0,0,0,
2,2,2,2,2,2,2,2,2,2,2,2,2,3,0,0,
14,14,14,14,14,14,14,14,14,14,14,14,14,14,3,0,
14,14,14,14,14,14,14,14,14,14,14,14,14,14,14,3,
14,14,14,14,14,14,14,14,14,14,14,14,14,14,14,15,
14,14,14,14,14,14,14,14,14,14,14,14,14,14,14,15,
14,14,14,14,14,14,14,14,14,14,14,14,14,14,14,15,
14,14,14,14,14,14,14,14,14,14,14,14,14,14,14,15,
14,14,14,14,14,14,14,14,14,14,14,14,14,14,14,15,
14,14,14,14,14,14,14,14,14,14,14,14,14,14,14,15,
14,14,14,14,14,14,14,14,14,14,14,14,14,14,14,15,
14,14,14,14,14,14,14,14,14,14,14,14,14,14,14,15,
14,14,14,14,14,14,14,14,14,14,14,14,14,14,14,15
</chunk>
   <chunk x="-48" y="-32" width="16" height="16">
13,14,14,14,14,14,14,14,14,14,14,14,14,14,14,5,
13,14,14,14,14,14,14,14,14,14,14,14,14,14,62,62,
13,14,14,14,14,14,14,14,14,14,14,14,14,14,14,17,
13,14,14,14,14,14,14,14,14,14,14,14,14,14,14,15,
13,14,14,14,14,14,14,14,14,14,14,14,14,14,17,27,
13,14,14,14,14,14,14,14,14,14,14,14,17,26,27,0,
13,14,14,14,14,14,14,14,14,17,26,26,27,0,0,0,
13,14,14,14,14,14,17,26,26,27,0,0,0,0,1,2,
13,14,14,14,17,26,27,0,0,0,0,1,2,2,4,14,
13,14,14,17,27,0,0,0,1,2,2,4,14,14,14,14,
13,17,26,27,0,0,1,2,14,14,14,14,14,14,14,14,
13,15,0,0,0,1,4,14,14,14,14,14,14,14,14,14,
25,27,0,1,2,4,14,14,14,14,14,14,14,14,14,14,
0,0,0,13,14,14,14,14,14,14,14,14,14,14,14,14,
0,1,2,14,14,14,14,14,14,14,14,14,14,14,14,14,
1,4,14,14,14,14,14,14,14,14,14,14,14,14,14,14
</chunk>
   <chunk x="-32" y="-32" width="16" height="16">
2,2,2,2,4,14,14,14,14,14,14,14,14,14,14,14,
62,62,62,62,62,62,14,14,14,14,14,14,14,14,14,14,
26,26,26,26,16,14,14,14,14,14,14,14,14,14,14,14,
0,0,0,0,13,14,14,14,14,14,14,14,14,14,14,14,
0,0,0,1,4,14,14,14,14,14,14,14,14,14,14,14,
0,0,1,4,14,14,14,14,14,14,14,14,14,14,14,14,
1,2,4,14,14,14,14,14,14,14,14,14,14,14,14,14,
4,14,14,14,14,14,14,14,14,14,14,14,14,14,14,14,
14,14,14,14,14,14,14,14,14,14,14,14,14,14,14,14,
14,14,14,14,14,14,14,14,14,14,14,14,14,14,14,14,
14,14,14,14,14,14,14,14,14,14,14,14,14,14,14,14,
14,14,14,14,14,14,14,14,14,14,14,14,14,14,14,14,
14,14,14,14,14,14,14,14,14,14,134,14,14,14,14,14,
14,14,14,14,14,14,14,14,14,14,14,14,14,14,14,14,
14,14,14,14,14,14,14,14,14,14,14,14,14,14,14,14,
14,14,14,14,14,14,14,14,14,14,14,14,14,14,14,14
</chunk>
   <chunk x="-16" y="-32" width="16" height="16">
14,14,15,0,0,0,1,2,3,0,0,0,13,14,14,14,
14,14,15,0,0,1,4,14,5,3,0,0,13,14,14,14,
14,14,14,14,62,62,62,62,62,62,62,14,14,14,14,14,
14,14,15,0,0,25,16,14,17,27,0,0,13,14,14,14,
14,14,15,0,0,0,25,26,27,0,0,0,13,14,14,14,
14,14,5,3,0,0,0,0,0,0,0,1,4,14,14,14,
14,14,14,5,3,0,0,0,0,0,1,4,14,14,14,14,
14,14,14,14,15,0,0,0,0,0,13,14,14,14,14,14,
14,14,14,17,27,0,0,0,0,0,25,16,14,14,14,14,
14,14,17,27,0,0,0,0,0,0,0,25,16,14,14,14,
14,14,15,0,0,0,1,2,3,0,0,0,13,14,14,14,
14,14,15,0,0,1,4,14,5,3,0,0,13,14,14,14,
14,14,14,14,62,62,62,62,62,62,62,14,14,14,14,14,
14,14,15,0,0,25,16,14,17,27,0,0,13,14,14,14,
14,14,15,0,0,0,25,26,27,0,0,0,13,14,14,14,
14,14,14,3,0,0,0,0,0,0,0,1,4,14,14,14
</chunk>
   <chunk x="0" y="-32" width="16" height="16">
14,14,14,14,14,14,14,14,14,14,14,14,14,14,14,14,
14,14,14,14,14,14,14,14,14,14,14,14,14,14,14,14,
14,14,14,14,14,14,14,14,14,14,14,14,14,14,14,14,
14,14,14,14,14,14,14,14,14,14,14,14,14,14,14,14,
14,14,14,14,14,14,14,14,14,14,14,14,14,14,14,14,
14,14,14,14,14,14,14,14,14,14,14,14,14,14,14,14,
14,14,14,14,14,14,14,14,14,14,14,14,14,14,14,14,
14,14,14,14,14,14,14,14,14,14,14,14,14,14,14,14,
14,14,14,14,14,14,14,14,14,14,14,14,14,14,14,14,
14,14,14,14,14,14,14,14,14,14,14,14,14,14,14,14,
14,14,14,14,14,14,14,14,14,14,14,14,14,14,14,14,
14,14,14,14,14,14,14,14,14,14,14,14,14,14,14,14,
14,14,14,14,14,14,14,14,14,14,14,14,14,14,14,14,
14,14,14,14,14,14,14,14,14,14,14,14,14,14,14,14,
14,14,14,14,14,14,14,14,14,14,14,14,14,14,14,14,
14,14,14,14,14,14,14,14,14,14,14,14,14,14,14,14
</chunk>
   <chunk x="16" y="-32" width="16" height="16">
14,14,14,14,14,14,14,14,14,14,14,14,14,14,14,14,
14,14,14,14,14,14,14,14,14,14,14,14,14,14,14,14,
14,14,14,14,14,14,14,14,14,14,14,14,14,14,14,14,
14,14,14,14,14,14,14,14,14,14,14,14,14,14,14,14,
14,14,62,62,62,62,62,62,62,62,62,62,62,62,62,62,
14,14,62,62,62,62,62,62,62,62,62,62,62,62,62,62,
14,14,62,62,62,62,62,62,62,62,62,62,62,62,62,62,
14,14,62,62,62,62,62,62,62,62,62,62,62,62,62,62,
14,14,62,62,62,62,62,62,62,62,62,62,62,62,62,62,
14,14,62,62,62,62,62,62,62,62,62,62,62,62,62,62,
14,14,62,62,62,62,62,62,62,62,62,62,62,62,62,62,
14,14,62,62,62,62,62,62,62,62,62,62,62,62,62,62,
14,14,62,62,14,14,14,14,14,14,14,14,14,14,14,14,
14,14,62,62,14,14,14,14,14,14,14,14,14,14,14,14,
14,14,62,62,14,14,14,14,14,14,14,14,14,14,14,14,
14,14,14,14,14,14,14,14,14,14,14,14,14,14,14,14
</chunk>
   <chunk x="32" y="-32" width="16" height="16">
14,14,14,14,14,14,14,14,14,14,14,14,14,14,14,14,
14,14,14,14,14,14,14,14,14,14,14,14,14,14,14,14,
14,14,14,14,14,14,14,14,14,14,14,14,14,14,14,14,
14,14,14,14,14,14,14,14,14,14,14,14,14,14,14,14,
62,62,62,62,62,62,62,62,62,62,62,62,62,62,62,62,
62,62,62,62,62,62,62,62,62,62,62,62,62,62,62,62,
62,62,62,62,62,62,62,62,62,62,62,62,62,62,62,62,
62,62,62,62,62,62,62,62,62,62,62,62,62,62,62,62,
62,62,62,62,62,62,62,62,62,62,62,62,62,62,62,62,
62,62,62,62,62,62,62,62,62,62,62,62,62,62,62,62,
62,62,62,62,62,62,62,62,62,62,62,62,62,62,62,62,
62,62,62,62,62,62,62,62,62,62,62,62,62,62,62,62,
14,14,14,14,14,14,14,14,14,14,14,14,14,14,14,14,
14,14,14,14,14,14,14,14,14,14,14,14,14,14,14,14,
14,14,14,14,14,14,14,14,14,14,14,14,14,14,14,14,
14,14,14,14,14,14,14,14,14,14,14,14,14,14,14,14
</chunk>
   <chunk x="48" y="-32" width="16" height="16">
14,14,14,14,14,14,14,14,14,14,14,14,14,14,14,14,
14,14,14,14,14,14,14,14,14,14,14,14,14,14,14,14,
14,14,14,14,14,14,14,14,14,14,14,14,14,14,14,14,
14,14,14,14,14,14,14,14,14,14,14,14,14,14,14,14,
62,62,62,62,62,62,62,62,62,62,62,62,62,62,62,62,
62,62,62,62,62,62,62,62,62,62,62,62,62,62,62,62,
62,62,62,62,62,62,62,62,62,62,62,62,62,62,62,62,
62,62,62,62,62,62,62,62,62,62,62,62,62,62,62,62,
62,62,62,62,62,62,62,62,62,62,62,62,62,62,62,62,
62,62,62,62,62,62,62,62,62,62,62,62,62,62,62,62,
62,62,62,62,62,62,62,62,62,62,62,62,62,62,62,62,
62,62,62,62,62,62,62,62,62,62,62,62,62,62,62,62,
14,14,14,14,14,14,14,14,14,14,14,14,14,14,14,14,
14,14,14,14,14,14,14,14,14,14,14,14,14,14,14,14,
14,14,14,14,14,14,14,14,14,14,14,14,14,14,14,14,
14,14,14,14,14,14,14,14,14,14,14,14,14,14,14,14
</chunk>
   <chunk x="64" y="-32" width="16" height="16">
14,14,14,14,14,14,14,14,14,14,14,14,14,14,14,15,
14,14,14,14,14,14,14,14,14,14,14,14,14,14,14,15,
14,14,14,14,14,14,14,14,14,14,14,14,14,14,14,15,
14,14,14,14,14,14,14,14,14,14,14,14,14,14,14,15,
62,62,14,14,14,14,14,14,14,14,14,14,14,14,14,15,
62,62,14,14,14,14,14,14,14,14,14,14,14,14,14,15,
62,62,14,14,14,14,14,14,14,14,14,14,14,14,14,15,
62,62,14,14,14,14,14,14,14,14,14,14,14,14,14,15,
62,62,14,14,14,14,14,14,14,14,14,14,14,14,14,15,
62,62,14,14,14,14,14,14,14,14,14,14,14,14,14,15,
62,62,14,14,14,14,14,14,14,14,14,14,14,14,14,15,
62,62,14,14,14,14,14,14,14,14,14,14,14,14,14,15,
14,14,14,14,14,14,14,14,14,14,14,14,14,14,14,15,
14,14,14,14,14,14,14,14,14,14,14,14,14,14,14,15,
14,14,14,14,14,14,14,14,14,14,14,14,14,14,14,15,
14,14,14,14,14,14,14,14,14,14,14,14,14,14,14,15
</chunk>
   <chunk x="-64" y="-16" width="16" height="16">
0,0,0,0,0,0,0,0,0,0,0,0,0,0,0,1,
0,0,0,0,0,0,0,0,0,0,0,0,0,0,0,13,
0,0,0,0,0,0,0,0,0,0,0,0,0,0,0,13,
0,0,0,0,0,0,0,0,0,0,0,0,0,0,0,13,
0,0,0,0,0,0,0,0,0,0,0,0,0,0,0,13,
0,0,0,0,0,0,0,0,0,0,0,0,0,0,0,13,
0,0,0,0,0,0,0,0,0,0,0,0,0,0,0,13,
0,0,0,0,0,0,0,0,0,0,0,0,0,0,0,13,
0,0,0,0,0,0,0,0,0,0,0,0,0,0,0,13,
0,0,0,0,0,0,0,0,0,0,0,0,0,0,0,13,
0,0,0,0,0,0,0,0,0,0,0,0,0,0,0,13,
0,0,0,0,0,0,0,0,0,0,0,0,0,0,0,13,
0,0,0,0,0,0,0,0,0,0,0,0,0,0,0,25,
0,0,0,0,0,0,0,0,0,0,0,0,0,0,0,0,
0,0,0,0,0,0,0,0,0,0,0,0,0,0,0,0,
0,0,0,0,0,0,0,0,0,0,0,0,0,0,0,0
</chunk>
   <chunk x="-48" y="-16" width="16" height="16">
4,14,14,14,14,14,14,14,14,14,14,14,14,14,14,14,
14,14,14,14,17,26,26,26,26,26,26,26,26,26,26,26,
14,14,14,14,15,0,0,0,0,0,0,0,0,0,0,0,
14,14,14,14,15,0,0,0,0,0,0,0,0,0,0,0,
14,14,14,14,15,0,0,0,0,0,0,0,0,0,0,0,
14,14,14,14,14,2,2,2,2,2,2,2,2,2,2,2,
14,14,14,14,14,14,14,14,14,14,14,14,14,14,14,14,
14,14,14,14,14,14,14,14,14,14,14,14,14,14,14,14,
14,14,14,14,14,14,14,14,14,14,14,14,14,14,14,14,
14,14,14,14,14,14,14,14,14,14,14,14,14,14,14,14,
14,14,14,14,14,14,14,14,14,14,14,14,14,14,14,14,
14,14,14,14,14,14,14,14,14,14,14,14,14,14,14,14,
16,14,14,14,14,14,14,14,14,14,14,14,14,14,14,14,
13,14,14,14,14,14,14,14,14,14,14,14,14,14,14,14,
25,26,26,26,26,26,26,26,26,26,26,26,26,26,26,16,
0,0,0,0,0,0,0,0,0,0,0,0,0,0,0,13
</chunk>
   <chunk x="-32" y="-16" width="16" height="16">
14,14,14,14,14,14,14,14,14,14,14,14,14,14,14,14,
26,26,26,26,26,26,26,26,26,26,26,26,26,26,26,26,
0,0,0,0,0,0,0,0,0,0,0,0,0,0,0,0,
0,0,0,0,0,0,0,0,0,0,0,0,0,0,0,0,
0,0,0,0,0,0,0,0,0,0,0,0,0,0,0,0,
2,2,2,2,2,2,2,2,2,2,2,2,2,2,2,2,
14,14,14,14,14,14,14,14,14,14,14,14,14,14,14,14,
14,14,14,14,14,14,14,14,14,14,14,14,14,14,14,14,
14,14,14,14,14,14,14,14,14,14,14,14,14,14,14,14,
14,14,14,14,14,14,14,14,14,14,14,14,14,14,14,14,
14,14,14,14,14,14,14,14,14,14,14,14,14,14,14,14,
14,14,14,14,14,14,14,14,14,14,14,14,14,14,14,14,
14,14,14,14,14,14,14,14,14,14,14,14,14,14,14,14,
14,14,14,14,14,14,14,14,14,14,14,14,14,14,14,14,
62,62,62,17,26,26,26,26,26,26,26,26,26,26,26,26,
62,62,62,15,0,0,0,0,0,0,0,0,0,0,0,0
</chunk>
   <chunk x="-16" y="-16" width="16" height="16">
14,14,14,14,3,0,0,0,0,0,1,4,14,14,14,14,
26,14,14,14,14,3,0,0,0,1,4,14,14,14,14,14,
0,13,14,14,14,14,0,0,0,13,14,14,14,14,14,14,
0,13,14,14,14,14,0,0,0,13,14,14,14,14,14,14,
0,13,14,14,14,14,0,0,0,13,14,14,14,14,14,14,
2,14,14,14,14,14,0,0,0,13,14,14,14,14,14,14,
14,14,14,14,14,15,0,0,0,13,14,14,14,14,14,14,
14,14,14,14,14,15,0,0,0,13,14,14,14,14,14,14,
14,14,14,14,14,15,0,0,0,13,14,14,14,14,14,14,
14,14,14,14,14,15,0,0,0,25,16,14,14,14,14,14,
14,14,14,14,14,15,0,0,0,0,25,16,14,14,14,14,
14,14,14,14,14,15,0,0,0,0,0,25,26,26,26,26,
14,14,14,14,14,15,0,0,0,0,0,0,0,0,0,0,
14,14,14,14,14,15,0,0,0,0,0,0,0,0,0,0,
26,26,26,26,26,27,0,0,0,0,0,0,0,0,0,0,
0,0,0,0,0,0,0,0,0,0,0,0,0,0,0,0
</chunk>
   <chunk x="0" y="-16" width="16" height="16">
14,14,14,14,14,14,14,14,14,14,14,14,14,14,14,14,
14,14,14,14,14,14,14,14,14,14,14,14,14,14,14,14,
14,14,14,14,14,14,14,14,14,14,14,14,14,14,14,14,
14,14,14,14,14,14,14,14,14,14,14,14,14,14,14,14,
14,14,14,14,14,14,14,14,14,14,14,14,14,14,14,14,
14,14,14,14,14,14,14,14,14,14,14,14,14,14,14,14,
14,14,14,14,14,14,14,14,14,14,14,14,14,14,14,14,
14,14,14,14,14,14,14,14,14,14,14,14,14,14,14,14,
14,14,14,14,14,14,14,14,14,14,14,14,14,14,14,14,
14,14,14,14,14,14,14,14,14,14,14,14,14,14,14,14,
14,14,14,14,14,14,14,14,14,14,14,14,14,14,14,14,
26,26,26,26,26,26,26,26,26,26,26,26,26,26,26,26,
0,0,0,0,0,0,0,0,0,0,0,0,0,0,0,0,
0,0,0,0,0,0,0,0,0,0,0,0,0,0,0,0,
0,0,0,0,0,0,0,0,0,0,0,0,0,0,0,0,
0,0,0,0,0,0,0,0,0,0,0,0,0,0,0,0
</chunk>
   <chunk x="16" y="-16" width="16" height="16">
14,14,14,14,14,14,14,14,14,14,14,14,14,14,14,14,
14,14,14,14,14,14,14,14,14,14,14,14,14,14,14,14,
14,14,14,14,14,14,14,14,14,14,14,14,14,14,14,14,
14,14,14,14,14,14,14,14,14,14,14,14,14,14,14,14,
14,14,14,14,14,14,14,14,14,14,14,14,14,14,14,14,
14,14,14,14,14,14,14,14,14,14,14,14,14,14,14,14,
14,14,14,14,14,14,14,14,14,14,14,14,14,14,14,14,
14,14,14,14,14,14,14,14,14,14,14,14,14,14,14,14,
14,14,14,14,14,14,14,14,14,14,14,14,14,14,14,14,
14,14,14,14,14,14,14,14,14,14,14,14,14,14,14,14,
14,14,14,14,14,14,14,14,14,14,14,14,14,14,14,14,
26,26,26,26,26,26,26,26,26,26,26,26,26,26,26,26,
0,0,0,0,0,0,0,0,0,0,0,0,0,0,0,0,
0,0,0,0,0,0,0,0,0,0,0,0,0,0,0,0,
0,0,0,0,0,0,0,0,0,0,0,0,0,0,0,0,
0,0,0,0,0,0,0,0,0,0,0,0,0,0,0,0
</chunk>
   <chunk x="32" y="-16" width="16" height="16">
14,14,14,14,14,14,14,14,14,14,14,14,14,14,14,14,
14,14,14,14,14,14,14,14,14,14,14,14,14,14,14,14,
14,14,14,14,14,14,14,14,14,14,14,14,14,14,14,14,
14,14,14,14,14,14,14,14,14,14,14,14,14,14,14,14,
14,14,14,14,14,14,14,14,14,14,14,14,14,14,14,14,
14,14,14,14,14,14,14,14,14,14,14,14,14,14,14,14,
14,14,14,14,14,14,14,14,14,14,14,14,14,14,14,14,
14,14,14,14,14,14,14,14,14,14,14,14,14,14,14,14,
14,14,14,14,14,14,14,14,14,14,14,14,14,14,14,14,
14,14,14,14,14,14,14,14,14,14,14,14,14,14,14,14,
14,14,14,14,14,14,14,14,14,14,14,14,14,14,14,14,
26,26,26,26,26,26,26,26,26,26,26,26,26,26,26,26,
0,0,0,0,0,0,0,0,0,0,0,0,0,0,0,0,
0,0,0,0,0,0,0,0,0,0,0,0,0,0,0,0,
0,0,0,0,0,0,0,0,0,0,0,0,0,0,0,0,
0,0,0,0,0,0,0,0,0,0,0,0,0,0,0,0
</chunk>
   <chunk x="48" y="-16" width="16" height="16">
14,14,14,14,14,14,14,14,14,14,14,14,14,14,14,14,
14,14,14,14,14,14,14,14,14,14,14,14,14,14,14,14,
14,14,14,14,14,14,14,14,14,14,14,14,14,14,14,14,
14,14,14,14,14,14,14,14,14,14,14,14,14,14,14,14,
14,14,14,14,14,14,14,14,14,14,14,14,14,14,14,14,
14,14,14,14,14,14,14,14,14,14,14,14,14,14,14,14,
14,14,14,14,14,14,14,14,14,14,14,14,14,14,14,14,
14,14,14,14,14,14,14,14,14,14,14,14,14,14,14,14,
14,14,14,14,14,14,14,14,14,14,14,14,14,14,14,14,
14,14,14,14,14,14,14,14,14,134,14,14,14,134,14,14,
14,14,14,14,14,14,14,14,14,14,14,14,14,14,14,14,
26,26,26,26,26,26,26,26,26,26,26,26,26,26,26,26,
0,0,0,0,0,0,0,0,0,0,0,0,0,0,0,0,
0,0,0,0,0,0,0,0,0,0,0,0,0,0,0,0,
0,0,0,0,0,0,0,0,0,0,0,0,0,0,0,0,
0,0,0,0,0,0,0,0,0,0,0,0,0,0,0,0
</chunk>
   <chunk x="64" y="-16" width="16" height="16">
14,14,14,14,14,14,14,14,14,14,14,14,14,14,14,15,
14,14,14,14,14,14,14,14,14,14,14,14,14,14,14,15,
14,14,14,14,14,14,14,14,14,14,14,14,14,14,14,15,
14,14,14,14,14,14,14,14,14,14,14,14,14,14,14,15,
14,14,14,14,14,14,14,14,14,14,14,14,14,14,14,15,
14,14,14,14,14,14,14,14,14,14,14,14,14,14,14,15,
14,14,14,14,14,14,14,14,14,14,14,14,14,14,14,15,
14,14,14,14,14,14,134,14,134,14,14,14,14,14,14,15,
14,14,14,14,14,14,14,14,14,14,14,14,14,14,14,15,
14,14,14,14,14,14,14,14,14,14,14,14,14,14,14,27,
14,14,14,14,14,14,14,14,14,14,14,14,14,14,27,0,
26,26,26,26,26,14,14,14,14,14,26,26,26,27,0,0,
0,0,0,0,0,0,0,0,0,0,0,0,0,0,0,0,
0,0,0,0,0,0,0,0,0,0,0,0,0,0,0,0,
0,0,0,0,0,0,0,0,0,0,0,0,0,0,0,0,
0,0,0,0,0,0,0,0,0,0,0,0,0,0,0,0
</chunk>
   <chunk x="-48" y="0" width="16" height="16">
0,0,0,0,0,0,0,0,0,0,0,0,0,0,0,13,
0,0,0,0,0,0,0,0,0,0,0,0,0,0,0,13,
0,0,0,0,0,0,0,0,0,0,0,0,0,0,0,13,
0,0,0,0,0,0,0,0,0,0,0,0,0,0,0,13,
0,0,0,0,0,0,0,0,0,0,1,2,2,2,2,4,
0,0,0,0,0,0,0,0,0,1,4,14,14,14,14,14,
0,0,0,0,0,0,0,0,1,4,14,14,14,14,14,14,
0,0,0,0,0,0,0,0,13,14,14,14,14,14,14,14,
0,0,0,0,0,0,0,0,13,14,14,14,14,14,14,14,
0,0,0,0,0,0,0,0,13,14,14,14,14,14,14,14,
0,0,0,0,0,0,0,0,13,14,14,14,14,14,14,14,
0,0,0,0,0,0,0,0,25,16,14,14,14,14,14,14,
0,0,0,0,0,0,0,0,0,25,16,14,14,14,14,14,
0,0,0,0,0,0,0,0,0,0,25,26,26,26,26,26,
0,0,0,0,0,0,0,0,0,0,0,0,0,0,0,0,
0,0,0,0,0,0,0,0,0,0,0,0,0,0,0,0
</chunk>
   <chunk x="-32" y="0" width="16" height="16">
62,62,62,15,0,0,0,0,0,0,0,0,0,0,0,0,
62,62,62,15,0,0,0,0,0,0,0,0,0,0,0,0,
62,62,62,15,0,0,0,0,0,0,0,0,0,0,0,0,
62,62,62,15,0,0,0,0,0,0,0,0,0,0,0,0,
62,62,62,5,2,2,2,2,2,3,0,0,0,0,0,0,
14,14,14,14,14,14,14,14,14,5,3,0,0,0,0,0,
14,14,14,14,14,14,14,14,14,14,5,3,0,0,0,0,
14,14,14,14,14,14,14,14,14,14,14,15,0,0,0,0,
14,14,14,14,14,14,14,14,14,14,14,15,0,0,0,0,
14,14,14,14,14,14,14,14,14,14,14,15,0,0,0,0,
14,14,14,14,14,14,14,14,14,14,14,15,0,0,0,0,
14,14,14,14,14,14,14,14,14,14,17,27,0,0,0,0,
14,14,14,14,14,14,14,14,14,17,27,0,0,0,0,0,
26,26,26,26,26,26,26,26,26,27,0,0,0,0,0,0,
0,0,0,0,0,0,0,0,0,0,0,0,0,0,0,0,
0,0,0,0,0,0,0,0,0,0,0,0,0,0,0,0
</chunk>
  </data>
 </layer>
 <layer id="7" name="deco" width="30" height="20">
  <data encoding="csv">
   <chunk x="-48" y="-96" width="16" height="16">
0,0,0,0,0,0,0,0,0,0,0,0,0,0,0,0,
0,0,0,0,121,123,0,0,0,0,0,0,0,121,123,1,
0,0,0,0,145,147,0,0,0,0,0,0,0,145,147,25,
0,0,0,0,1,3,0,0,0,0,0,0,0,0,0,37,
0,0,0,0,25,27,0,0,0,1,3,0,0,0,0,0,
0,0,0,0,37,39,0,0,0,25,27,0,0,0,0,0,
0,0,0,0,0,0,0,0,0,37,39,0,0,0,0,0,
0,0,0,0,0,0,0,0,121,112,135,0,0,0,0,0,
0,0,0,0,0,0,0,0,145,146,147,0,0,0,0,0,
121,123,0,121,122,122,122,123,0,0,1,2,2,2,2,2,
145,147,121,112,134,134,134,135,0,0,13,0,0,0,0,0,
0,0,1,3,146,146,146,1,3,0,13,0,0,0,0,0,
0,0,25,27,0,0,0,25,27,0,13,0,0,0,0,0,
0,0,37,39,0,0,0,37,39,0,25,26,26,26,26,26,
0,0,0,0,0,0,0,0,0,0,37,38,38,38,38,38,
0,0,0,0,0,0,0,0,0,0,0,0,0,0,0,0
</chunk>
   <chunk x="-32" y="-96" width="16" height="16">
0,0,0,0,0,0,0,0,0,0,0,0,0,0,0,0,
3,0,0,0,0,0,0,0,0,121,123,1,3,0,0,0,
27,0,0,0,0,0,0,0,0,145,147,25,27,0,0,0,
39,0,0,0,0,0,0,0,0,0,0,37,39,0,0,0,
121,123,0,0,0,0,0,0,1,3,0,0,0,0,0,121,
145,147,1,3,0,0,0,0,25,27,0,0,0,0,0,145,
0,0,25,27,0,0,0,0,37,39,0,0,0,0,0,0,
121,123,37,39,0,0,0,0,0,0,0,121,123,0,0,0,
145,147,0,0,0,0,0,0,0,0,0,145,147,0,0,0,
2,2,2,2,2,2,2,2,2,2,2,2,2,2,2,2,
0,0,0,0,0,0,0,0,0,0,0,0,0,0,0,0,
0,0,0,0,0,0,0,0,0,0,0,0,0,0,0,17,
0,0,0,0,0,0,0,0,0,0,0,0,0,0,17,27,
26,26,26,26,26,26,26,16,0,0,0,0,0,17,27,39,
38,38,38,38,38,38,38,13,0,0,0,0,0,15,39,0,
0,0,0,0,0,0,0,13,0,0,0,0,0,15,0,0
</chunk>
   <chunk x="-16" y="-96" width="16" height="16">
0,0,0,0,0,0,0,0,0,0,0,0,0,0,0,0,
1,3,0,0,0,0,0,0,0,0,0,0,0,0,0,0,
25,27,121,123,0,0,0,0,0,0,0,0,0,0,0,0,
37,39,145,147,0,0,0,0,0,0,0,0,0,0,0,0,
123,0,0,0,0,0,0,0,0,0,0,0,0,0,0,0,
147,1,3,0,0,0,0,0,0,0,0,0,0,0,0,0,
0,25,27,0,0,0,0,0,0,0,0,0,0,0,0,0,
0,37,39,0,0,0,0,0,0,0,0,0,0,0,0,0,
0,0,0,0,0,0,0,0,0,0,0,0,0,0,0,0,
2,3,122,122,122,123,0,0,0,0,0,0,0,0,0,0,
17,27,146,146,146,147,0,0,0,0,0,0,0,0,0,0,
27,39,0,0,0,0,0,0,0,0,0,0,0,0,0,0,
39,0,0,0,0,0,0,0,0,0,0,0,0,0,0,0,
0,0,0,0,0,0,0,0,0,0,0,0,0,0,0,0,
0,0,0,0,0,0,0,0,0,0,0,0,0,0,0,0,
0,0,0,0,0,0,0,0,0,0,0,0,0,0,0,0
</chunk>
   <chunk x="0" y="-96" width="16" height="16">
0,0,0,0,0,0,0,0,0,0,0,0,0,0,0,0,
0,0,0,0,0,0,0,0,0,0,0,0,0,0,0,0,
0,0,0,0,0,0,0,0,0,0,0,0,0,0,0,0,
0,0,0,0,0,0,0,0,0,0,0,0,0,0,0,0,
0,0,0,0,0,0,0,0,0,0,0,0,0,0,0,0,
0,0,0,0,0,0,0,0,0,0,0,1,2,2,2,2,
0,0,0,0,0,0,0,0,0,0,0,13,0,0,0,0,
0,0,0,0,0,0,0,0,0,0,0,13,0,0,0,0,
0,0,0,0,0,0,0,0,0,0,0,13,0,0,0,0,
0,0,0,0,0,0,0,0,0,0,0,13,0,0,0,0,
0,0,0,0,0,0,0,0,0,0,0,13,0,0,0,0,
0,0,0,0,0,0,0,0,0,0,0,13,0,0,0,0,
0,0,0,0,0,0,0,0,0,0,0,13,0,0,0,0,
0,0,0,0,0,0,0,0,0,0,0,13,0,0,0,0,
0,0,0,0,0,0,0,0,0,0,0,13,0,0,0,0,
0,0,0,0,0,0,0,0,0,0,0,13,0,0,0,0
</chunk>
   <chunk x="16" y="-96" width="16" height="16">
0,0,0,0,0,0,0,0,0,0,0,0,0,0,0,0,
0,0,0,0,0,0,0,0,0,0,0,0,0,0,0,0,
0,0,0,0,0,0,0,0,0,0,0,0,0,0,0,0,
0,0,0,0,0,0,0,0,0,0,0,0,0,0,0,0,
0,0,0,0,0,0,0,1,3,0,0,0,0,0,0,0,
3,0,0,0,0,0,0,25,27,0,0,0,0,0,0,0,
15,0,0,0,0,0,0,37,39,121,123,0,0,0,0,0,
15,121,123,0,0,0,0,0,0,145,147,0,0,0,0,0,
15,145,147,0,0,121,123,0,0,0,0,1,3,0,0,121,
15,0,0,0,0,145,147,0,0,0,0,13,15,0,0,145,
15,0,0,1,2,2,2,2,2,2,2,4,5,2,2,2,
15,0,0,25,26,26,26,16,17,26,26,26,26,26,26,26,
15,0,0,37,38,38,38,13,15,38,38,38,38,38,38,38,
15,0,0,0,0,0,0,13,15,0,0,0,0,133,134,135,
15,0,0,0,0,0,0,13,15,0,0,0,0,145,146,147,
5,2,2,2,3,0,0,13,15,0,0,1,3,0,0,0
</chunk>
   <chunk x="32" y="-96" width="16" height="16">
0,0,0,0,0,0,0,0,0,0,0,0,0,0,0,0,
0,0,0,0,0,0,0,0,0,0,0,0,0,0,0,0,
0,0,0,0,0,0,0,0,0,0,0,0,0,0,0,0,
0,0,0,0,0,0,0,0,0,0,0,0,0,0,0,0,
0,1,3,0,0,0,0,0,0,0,1,3,0,0,0,0,
0,25,27,0,0,0,0,0,0,0,13,15,0,0,0,0,
0,37,39,0,0,0,0,0,0,0,13,15,0,0,0,0,
0,0,0,0,0,121,122,123,0,0,13,15,121,122,123,0,
123,0,0,0,0,133,134,135,0,0,13,15,133,134,135,0,
147,0,0,0,0,145,146,147,0,0,13,15,145,146,147,0,
2,2,2,2,3,0,0,0,1,2,4,15,0,0,0,1,
26,16,17,26,27,0,0,0,25,26,16,15,0,0,0,25,
38,13,15,38,39,121,122,123,37,38,13,15,0,0,0,37,
0,25,27,0,0,133,134,135,0,0,13,5,2,3,0,0,
0,37,39,0,0,145,146,147,0,0,13,17,26,27,0,0,
0,0,0,121,122,123,0,0,0,0,13,15,38,39,0,0
</chunk>
   <chunk x="48" y="-96" width="16" height="16">
0,0,0,0,0,0,0,0,0,0,0,0,0,0,0,0,
0,0,0,0,0,0,0,0,0,0,0,0,0,0,0,0,
0,0,0,0,0,0,0,0,0,0,0,0,0,0,0,0,
0,0,0,0,0,0,0,0,0,0,0,0,0,0,0,0,
0,1,3,0,0,0,0,1,3,0,0,0,0,1,3,0,
0,25,27,0,0,0,0,25,27,0,0,0,0,25,27,0,
0,37,39,0,0,0,0,37,39,0,0,121,123,37,39,0,
0,0,0,0,0,0,0,121,123,0,0,133,135,0,0,0,
0,0,0,0,121,122,123,145,147,0,0,145,147,0,0,0,
0,0,0,0,133,134,135,0,0,0,0,0,0,1,3,0,
2,2,3,0,145,146,147,1,3,0,0,0,0,13,15,0,
26,16,15,0,0,0,0,13,15,0,0,0,0,13,15,121,
38,13,5,2,3,0,0,13,15,0,0,0,0,13,15,145,
0,13,17,26,27,0,0,13,15,0,0,0,0,13,15,0,
0,13,15,38,39,121,123,13,15,0,0,0,0,13,15,0,
0,13,15,0,0,145,147,13,15,0,0,121,123,13,15,0
</chunk>
   <chunk x="64" y="-96" width="16" height="16">
0,0,0,0,0,0,0,0,0,0,0,0,0,0,0,0,
0,0,0,0,0,0,0,0,0,0,0,0,0,0,0,0,
0,0,0,0,0,0,0,0,0,0,0,0,0,0,0,0,
0,0,0,0,0,0,0,0,0,0,0,0,0,0,0,0,
0,0,0,0,0,0,0,0,0,0,0,0,0,0,0,0,
0,0,0,0,0,0,0,0,0,0,0,0,0,0,0,0,
0,1,3,121,123,0,0,0,0,0,0,1,3,0,0,0,
0,25,27,145,147,0,0,0,0,0,0,25,27,0,0,0,
0,37,39,0,0,0,0,0,0,121,123,37,39,0,0,0,
0,0,0,0,0,1,3,121,123,133,135,0,0,0,0,0,
0,0,0,0,0,25,27,145,147,145,147,0,0,0,0,0,
123,1,3,0,0,37,39,0,121,123,1,3,0,0,0,0,
147,25,27,0,0,0,121,123,145,147,25,27,0,0,0,0,
0,37,39,121,123,1,3,147,0,0,37,39,123,0,0,0,
0,0,0,145,147,25,27,0,0,0,0,133,135,0,0,0,
0,0,0,0,0,37,39,0,0,0,0,145,1,3,0,0
</chunk>
   <chunk x="-48" y="-80" width="16" height="16">
0,0,0,0,0,0,0,0,0,0,0,0,0,0,0,0,
0,0,0,0,0,0,0,0,0,0,0,0,0,0,0,0,
0,0,0,0,0,0,0,0,0,0,0,0,0,0,0,0,
0,0,0,0,0,0,0,0,0,0,0,0,0,0,0,0,
0,0,0,0,0,0,0,0,0,0,0,0,0,0,0,0,
0,0,0,0,0,0,0,0,0,0,0,0,0,0,0,0,
0,0,0,0,0,0,0,0,0,0,0,0,0,0,0,0,
0,0,0,0,0,0,0,0,0,0,0,0,0,0,0,0,
0,0,0,0,0,0,0,0,0,0,0,0,0,0,0,0,
0,0,0,0,0,0,0,0,0,0,0,0,0,0,0,0,
0,0,0,0,0,0,0,0,0,0,0,0,0,0,0,0,
0,0,0,0,0,0,0,0,0,0,0,0,0,0,0,121,
1,2,2,2,2,2,2,2,2,2,2,2,2,2,2,3,
25,26,26,26,26,26,26,26,26,26,26,26,26,26,26,27,
37,38,38,38,38,38,38,38,38,38,38,38,38,38,38,39,
0,0,0,121,123,0,0,0,0,0,0,0,0,0,0,0
</chunk>
   <chunk x="-32" y="-80" width="16" height="16">
0,0,0,0,0,0,0,13,0,0,0,0,0,15,0,0,
0,0,0,0,0,0,0,13,0,0,0,0,0,15,0,0,
0,0,0,0,0,0,0,13,0,0,0,0,0,15,0,0,
0,0,0,0,0,0,0,13,0,0,0,0,0,15,0,0,
0,0,0,0,0,0,0,13,0,0,0,0,0,15,0,0,
0,0,0,0,0,0,0,13,0,0,0,0,0,15,0,0,
0,0,0,0,0,0,0,13,0,0,0,0,0,15,0,0,
0,0,0,0,0,0,0,13,0,0,0,0,0,15,0,0,
0,0,0,0,0,0,0,13,0,0,0,0,0,15,0,0,
0,0,0,0,0,0,0,13,0,0,0,0,0,15,0,0,
0,0,0,0,0,0,0,25,16,0,0,0,0,15,0,0,
122,122,122,122,122,122,123,37,25,16,0,0,0,5,3,0,
146,146,1,3,146,124,135,0,37,25,16,0,0,0,5,3,
0,0,25,27,0,145,147,0,0,37,25,16,0,0,0,15,
0,0,37,39,0,0,0,0,0,0,37,25,26,16,0,15,
0,0,0,0,0,0,0,0,0,0,0,37,38,25,16,5
</chunk>
   <chunk x="-16" y="-80" width="16" height="16">
0,0,0,0,0,0,0,0,0,0,0,0,121,123,0,0,
0,0,0,0,0,0,0,0,0,0,0,0,133,113,123,0,
0,0,0,0,0,0,0,0,0,0,0,0,145,124,135,0,
0,0,0,0,0,0,0,0,0,0,0,0,0,133,135,0,
0,0,0,0,0,0,0,0,0,0,0,0,0,133,135,0,
0,0,0,0,0,0,0,0,0,0,0,0,121,112,135,0,
0,0,0,0,0,0,0,0,0,0,0,0,133,125,147,0,
0,0,0,0,0,0,0,0,0,0,0,0,145,147,0,0,
0,0,0,0,0,0,0,0,0,0,0,0,0,0,0,0,
0,0,0,0,0,0,0,0,0,0,0,0,0,0,0,0,
0,0,0,0,0,0,0,0,0,0,0,0,121,123,0,0,
0,0,0,0,0,0,0,0,0,0,0,0,133,113,123,0,
0,0,0,0,0,0,0,0,0,0,0,0,145,124,135,0,
0,0,0,0,0,0,0,0,0,0,0,0,0,133,135,0,
0,0,0,0,0,0,0,0,0,0,0,0,0,133,135,0,
3,0,0,0,0,0,0,0,0,0,0,0,121,112,135,0
</chunk>
   <chunk x="0" y="-80" width="16" height="16">
0,0,0,0,0,0,0,0,0,0,0,13,0,0,0,0,
0,0,0,0,0,0,0,0,0,0,0,13,0,0,0,0,
0,0,0,0,0,0,0,0,0,0,0,13,0,0,0,0,
0,0,0,0,0,0,0,0,0,0,0,13,0,0,0,0,
0,0,0,0,0,0,0,0,0,0,0,13,0,0,0,0,
0,0,0,0,0,0,0,0,0,0,0,13,0,0,0,0,
0,0,0,0,0,0,0,0,0,0,0,13,0,0,0,0,
0,0,0,0,0,0,0,0,0,0,0,13,0,0,0,0,
0,0,0,0,0,0,0,0,0,0,0,13,0,0,0,0,
0,0,0,0,0,0,0,0,0,0,0,13,0,0,0,0,
0,0,0,0,0,0,0,0,0,0,0,13,0,0,0,0,
0,0,0,0,0,0,0,0,0,0,0,13,0,0,0,0,
0,0,0,0,0,0,0,0,0,0,0,13,0,0,0,0,
0,0,0,0,0,0,0,0,0,0,0,13,0,0,0,0,
0,0,0,0,0,0,0,0,0,0,0,13,0,0,0,0,
0,0,0,0,0,0,0,0,0,0,0,13,0,0,0,0
</chunk>
   <chunk x="16" y="-80" width="16" height="16">
17,26,26,26,27,0,0,13,15,0,0,13,15,121,122,123,
15,38,38,38,39,0,0,13,15,0,0,13,15,133,134,135,
15,0,0,145,147,121,122,13,15,0,0,13,15,145,146,147,
15,0,0,0,0,133,134,13,15,121,123,13,5,2,3,0,
5,2,3,0,0,1,2,4,15,145,147,25,26,26,27,0,
17,26,27,0,0,25,26,16,15,0,0,37,38,38,39,0,
15,38,39,0,0,37,38,13,15,0,0,133,135,0,0,0,
15,0,121,123,0,0,0,13,5,2,2,2,2,2,2,2,
15,0,145,147,0,121,123,25,26,16,17,26,26,26,26,26,
15,0,0,0,0,145,147,37,38,25,27,38,38,38,38,38,
15,0,0,0,0,0,0,0,0,37,39,0,0,0,0,0,
15,122,122,122,123,0,0,0,121,112,113,123,0,0,0,0,
15,134,134,134,135,0,0,1,2,2,2,2,3,0,0,0,
15,134,134,134,135,0,0,13,17,26,26,26,27,0,0,0,
15,146,146,146,147,0,0,13,15,38,38,38,39,0,0,0,
15,0,0,0,0,0,0,13,15,0,0,0,0,0,0,0
</chunk>
   <chunk x="32" y="-80" width="16" height="16">
0,0,0,133,134,135,0,0,0,0,13,15,0,0,0,1,
0,0,0,145,146,147,0,121,122,123,13,15,0,0,0,25,
0,1,3,0,0,0,0,133,134,135,13,15,0,0,121,37,
0,13,15,0,0,0,0,145,146,147,13,5,2,3,133,134,
0,13,15,0,0,0,0,0,0,0,13,17,26,27,145,146,
0,13,15,0,121,122,123,0,0,0,13,15,38,39,0,0,
0,13,15,0,133,134,135,0,0,0,13,15,0,0,0,1,
2,4,15,0,145,146,147,121,122,123,13,15,0,0,0,25,
26,16,5,2,3,0,0,133,1,2,4,15,0,0,0,37,
38,13,17,26,27,0,0,145,25,26,16,5,2,3,0,0,
0,13,15,38,39,0,0,0,37,38,25,26,26,27,0,0,
0,13,15,0,0,0,0,0,0,0,37,38,38,39,0,0,
0,13,15,0,121,123,0,0,0,0,145,147,0,0,0,0,
0,13,15,0,145,147,0,121,123,0,0,0,0,121,123,0,
0,13,15,0,0,0,0,145,147,0,1,3,0,145,147,0,
0,13,15,0,0,0,0,0,0,0,13,15,0,0,0,0
</chunk>
   <chunk x="48" y="-80" width="16" height="16">
2,4,15,0,0,1,2,4,15,0,0,145,147,13,15,0,
26,16,15,0,0,25,26,16,15,0,121,123,0,25,27,0,
38,13,15,0,0,37,38,13,15,0,133,135,0,37,39,0,
135,13,15,0,0,0,0,13,15,0,145,147,0,0,0,0,
147,13,5,2,3,0,0,13,15,0,0,0,0,0,0,0,
0,13,17,26,27,0,0,13,5,2,2,2,2,2,2,2,
2,4,15,38,39,0,0,13,17,26,26,26,26,26,26,26,
26,16,15,0,0,0,0,25,27,38,38,38,38,38,38,38,
38,13,15,0,121,122,123,37,39,0,0,0,145,147,0,0,
0,13,15,0,145,146,147,0,0,0,0,0,0,1,3,0,
0,13,5,2,2,2,2,2,2,2,2,2,2,4,5,2,
0,25,26,26,26,26,26,16,17,26,26,26,26,26,26,16,
0,37,38,38,38,38,38,13,15,38,38,38,38,38,38,13,
0,0,0,121,122,123,0,25,27,0,0,0,0,0,0,13,
0,1,3,133,134,135,0,37,39,0,0,1,3,0,0,13,
0,13,15,145,146,147,0,0,0,0,0,13,15,0,0,13
</chunk>
   <chunk x="64" y="-80" width="16" height="16">
0,1,3,0,0,0,0,0,0,0,0,0,25,27,0,0,
0,25,27,0,0,0,0,0,1,3,0,0,37,39,0,0,
0,37,39,0,0,0,0,0,25,27,0,0,0,0,0,0,
121,123,0,0,0,0,121,123,37,39,0,0,0,0,0,0,
145,147,0,0,0,0,145,147,0,0,0,0,0,0,0,0,
2,2,2,2,2,2,2,2,2,2,2,2,3,0,0,0,
26,26,26,16,17,26,26,26,26,26,26,16,15,0,0,0,
38,38,38,13,15,38,38,38,38,38,38,13,15,0,0,0,
0,0,0,13,15,0,0,0,0,0,0,13,15,0,0,0,
0,0,0,13,15,0,0,0,0,0,0,13,15,121,122,123,
3,0,0,13,15,0,0,0,0,0,0,13,15,145,146,147,
15,0,0,13,15,0,0,0,0,0,0,13,15,0,0,0,
15,0,0,13,5,2,2,2,3,0,0,13,15,0,0,0,
15,0,0,25,26,26,26,26,27,0,0,13,15,0,0,0,
15,0,0,37,38,38,38,38,39,0,0,13,15,0,0,0,
15,0,0,0,0,0,0,0,0,0,0,13,15,0,0,0
</chunk>
   <chunk x="-48" y="-64" width="16" height="16">
0,0,0,133,135,0,0,0,0,0,0,0,0,121,122,123,
0,0,0,145,147,0,0,121,123,0,0,0,0,145,146,147,
0,0,0,0,0,0,0,133,135,0,0,0,121,122,123,0,
0,0,0,0,0,0,0,145,147,0,0,0,145,146,147,0,
0,0,0,0,1,2,2,2,2,2,2,2,2,3,0,0,
0,0,0,0,25,16,0,0,0,0,0,0,0,5,3,0,
0,121,123,0,37,25,16,0,0,0,0,0,0,0,5,3,
0,145,147,0,0,37,25,16,0,0,0,0,0,0,0,5,
0,0,0,0,0,0,37,25,16,0,0,0,0,0,0,0,
0,0,0,0,0,121,123,37,25,16,0,0,0,0,0,0,
0,0,0,0,0,145,147,0,37,25,16,0,0,0,0,0,
0,0,0,0,0,0,0,0,0,37,25,16,0,0,0,0,
0,0,0,121,123,0,0,0,121,123,37,25,16,0,0,0,
0,0,0,145,147,0,0,0,145,147,0,37,25,16,0,0,
0,0,0,0,0,0,0,0,0,0,0,0,37,25,16,0,
0,0,0,0,0,0,121,123,0,0,0,121,123,37,25,16
</chunk>
   <chunk x="-32" y="-64" width="16" height="16">
0,0,0,0,0,0,0,1,3,0,0,0,0,37,25,16,
0,0,0,0,0,0,0,25,27,0,0,0,0,0,37,25,
1,3,0,0,0,0,0,37,39,0,0,0,0,0,0,37,
25,27,0,0,0,0,0,0,0,0,0,1,3,122,122,123,
37,39,0,0,0,0,0,0,0,0,0,25,27,146,124,135,
0,0,0,0,0,0,1,3,0,0,0,37,39,0,145,147,
0,0,0,0,0,0,25,27,0,0,0,0,0,0,1,3,
2,3,0,0,121,122,37,39,0,0,0,0,0,0,25,27,
0,5,3,0,133,134,134,113,122,123,0,0,0,0,37,39,
0,0,5,3,145,146,146,146,146,147,0,0,0,0,133,135,
0,0,0,5,2,3,0,0,0,0,0,1,3,0,133,135,
0,0,0,0,0,5,2,3,0,0,0,25,27,0,133,135,
0,0,0,0,0,0,0,5,3,0,0,37,39,0,133,135,
0,0,0,0,0,0,0,0,5,3,0,0,0,0,133,113,
0,0,0,0,0,0,0,0,0,5,3,0,0,0,145,146,
0,0,0,0,0,0,0,0,0,0,5,3,0,0,0,0
</chunk>
   <chunk x="-16" y="-64" width="16" height="16">
5,2,2,0,0,0,0,0,0,0,0,0,133,125,147,0,
16,0,0,5,0,0,0,0,0,0,0,0,145,147,0,0,
25,16,0,0,5,2,3,0,0,0,0,0,0,0,0,0,
37,25,16,0,0,14,15,0,0,0,0,0,0,0,0,0,
0,37,25,16,0,14,15,0,0,0,0,0,0,0,0,0,
0,0,37,25,16,14,15,0,0,0,0,0,0,0,0,0,
0,0,0,37,25,16,15,0,0,0,0,0,0,0,0,0,
0,0,0,0,37,25,27,0,0,0,0,0,0,0,0,0,
0,0,0,0,0,37,39,0,0,1,2,2,3,0,0,1,
0,0,0,0,0,0,0,0,0,25,26,26,27,0,0,25,
0,0,0,0,0,0,0,0,0,37,38,38,39,0,0,37,
0,0,0,0,0,0,0,0,0,0,0,0,0,0,0,0,
0,0,1,3,0,0,0,0,0,0,0,0,0,0,0,0,
123,0,25,27,0,0,0,0,0,0,0,0,0,0,0,0,
147,0,37,39,0,0,0,0,0,0,0,0,0,0,0,0,
0,0,0,121,123,0,0,0,0,0,0,0,0,0,0,0
</chunk>
   <chunk x="0" y="-64" width="16" height="16">
0,0,0,0,0,0,0,0,0,0,0,13,0,0,0,0,
0,0,0,0,0,0,0,0,0,0,0,13,0,0,0,0,
0,0,0,0,0,0,0,0,0,0,0,13,0,0,0,0,
0,0,0,0,0,0,0,0,0,0,0,13,0,0,0,0,
0,0,0,0,0,0,0,0,0,0,0,13,0,0,0,0,
0,0,0,0,0,0,0,0,0,0,0,13,0,0,0,0,
0,0,0,0,0,0,0,0,0,0,0,13,0,0,0,0,
0,0,0,0,0,0,0,0,0,0,0,13,0,0,0,0,
2,2,2,2,2,2,2,2,2,2,2,4,14,14,14,14,
26,26,26,26,26,26,26,26,26,26,26,26,26,26,26,26,
38,38,38,38,38,38,38,38,38,38,38,38,38,38,38,38,
0,0,0,0,0,0,0,0,0,0,0,121,123,0,0,0,
0,0,0,0,0,0,0,0,0,0,0,145,147,0,0,0,
0,0,0,0,0,0,0,0,0,0,0,0,0,0,0,0,
0,0,0,0,0,0,0,0,0,0,0,0,0,0,0,0,
0,0,0,0,0,0,0,0,0,0,0,0,0,0,0,0
</chunk>
   <chunk x="16" y="-64" width="16" height="16">
15,0,0,1,2,2,2,4,5,2,3,0,0,1,2,2,
15,0,0,25,26,26,26,16,17,26,27,0,0,25,26,26,
15,0,0,37,38,38,38,13,15,38,39,0,0,37,38,38,
15,0,0,0,0,0,0,13,15,0,0,0,0,0,0,0,
5,2,2,2,3,0,0,13,15,0,0,0,0,0,0,0,
17,26,26,26,27,0,0,13,15,0,0,121,123,0,0,0,
15,38,38,38,39,0,0,13,15,0,0,133,113,123,0,0,
15,0,0,133,135,0,0,13,5,2,2,2,3,113,123,0,
5,2,3,133,135,1,2,4,17,26,26,26,27,146,147,0,
26,26,27,145,147,25,26,16,15,38,38,38,39,0,0,0,
38,38,39,0,0,37,38,13,15,0,0,0,0,0,0,0,
0,0,0,0,0,0,0,25,27,0,0,121,122,122,123,0,
0,0,0,0,0,0,0,37,39,0,0,145,146,146,147,0,
0,0,0,0,0,0,0,0,0,0,0,0,0,0,0,0,
0,0,0,0,0,0,0,0,0,0,0,0,0,0,0,0,
0,0,0,0,0,0,0,0,0,0,0,0,0,0,0,0
</chunk>
   <chunk x="32" y="-64" width="16" height="16">
2,4,5,2,2,2,2,2,2,2,4,5,2,2,2,2,
26,26,26,16,17,26,26,26,26,16,17,26,26,26,26,26,
38,38,38,13,15,38,38,38,38,13,15,38,38,38,38,38,
121,122,123,25,27,0,0,0,0,13,15,0,0,121,122,123,
133,134,135,37,39,0,0,0,0,13,15,0,0,133,134,135,
145,146,147,0,0,0,0,0,0,13,15,0,0,145,146,147,
0,0,0,0,0,0,121,122,123,25,27,0,0,0,0,0,
0,1,3,0,0,0,133,134,135,37,39,0,0,0,0,0,
0,13,15,0,0,0,145,146,147,0,0,0,0,0,0,0,
0,13,15,0,0,0,1,3,0,0,121,122,123,1,2,2,
0,13,15,0,0,0,13,15,0,0,133,134,135,25,26,26,
0,25,27,0,0,0,25,27,0,0,145,146,147,37,38,38,
0,37,39,0,0,0,37,39,0,0,0,0,0,0,0,0,
0,0,0,0,0,0,0,0,0,0,0,0,0,0,0,0,
0,0,0,0,0,0,0,0,0,0,0,0,0,0,0,0,
0,0,0,0,0,0,0,0,0,0,0,0,0,0,0,0
</chunk>
   <chunk x="48" y="-64" width="16" height="16">
2,4,5,2,2,2,2,2,2,2,2,4,5,2,2,4,
26,26,26,26,26,16,17,26,26,26,26,26,26,26,26,16,
38,38,38,38,38,13,15,38,38,38,38,38,38,38,38,13,
0,0,0,0,0,13,15,0,0,0,0,0,0,0,0,13,
0,0,0,0,0,25,27,121,122,123,0,0,0,0,0,13,
0,0,0,0,0,38,38,133,134,135,0,0,0,0,0,13,
0,0,0,0,0,0,0,145,146,147,0,0,0,0,0,13,
0,1,3,0,0,0,0,0,0,1,3,0,0,0,0,13,
0,13,15,0,0,0,0,0,0,13,15,0,0,0,0,13,
2,4,15,0,0,121,122,123,0,13,15,0,0,0,0,13,
26,16,15,0,0,133,134,135,0,13,15,0,0,0,0,13,
38,25,27,0,0,145,146,147,0,25,27,0,0,0,0,25,
0,37,39,0,0,0,0,0,0,37,39,0,0,0,0,37,
0,0,0,0,0,0,0,0,0,0,0,0,0,0,0,0,
0,0,0,0,0,0,0,0,0,0,0,0,0,0,0,0,
0,0,0,0,0,0,0,0,0,0,0,0,0,0,0,0
</chunk>
   <chunk x="64" y="-64" width="16" height="16">
5,2,2,2,2,2,2,2,2,2,2,4,15,121,122,123,
17,26,26,26,26,26,26,26,26,26,26,26,27,145,146,147,
15,38,38,38,38,38,38,38,38,38,38,38,39,0,0,0,
15,0,0,0,0,0,0,0,0,0,0,0,0,0,0,0,
15,0,0,0,1,2,2,2,2,3,0,0,0,0,0,0,
15,0,0,0,13,17,26,26,26,27,0,0,0,0,0,0,
15,0,0,0,13,15,38,38,38,39,0,0,0,0,0,0,
15,0,0,0,13,15,0,0,0,121,123,0,49,50,51,0,
15,0,0,0,13,15,0,0,0,145,147,0,61,98,63,0,
15,0,0,0,13,5,2,2,2,3,0,0,73,74,75,0,
15,0,0,0,25,26,26,26,26,27,0,0,0,0,0,0,
27,0,0,0,37,38,38,38,38,39,0,0,0,0,0,0,
39,0,0,0,0,0,0,0,0,0,0,0,0,0,0,0,
0,0,0,0,0,0,0,0,0,0,0,0,0,0,0,0,
0,0,0,0,0,0,0,0,0,0,0,0,0,0,0,0,
0,0,0,0,0,0,0,0,0,0,0,0,0,0,0,0
</chunk>
   <chunk x="-48" y="-48" width="16" height="16">
0,0,0,0,0,0,145,147,0,0,0,145,147,0,37,25,
0,0,0,0,0,0,0,0,0,0,0,0,0,0,0,37,
0,0,0,0,0,0,0,0,0,0,121,123,0,0,0,0,
0,0,0,0,0,0,0,0,0,0,145,147,0,0,0,0,
0,0,0,0,0,0,0,0,0,0,0,0,0,0,121,123,
0,0,0,0,0,0,0,0,0,0,0,0,0,0,145,147,
0,0,0,0,0,0,0,0,0,0,0,0,0,0,0,0,
0,0,0,0,0,0,0,0,0,0,0,0,0,0,0,0,
0,0,0,0,0,0,0,0,0,0,0,0,0,0,0,121,
0,0,0,0,0,0,0,0,0,0,0,0,0,0,0,133,
0,0,0,0,0,0,0,0,0,0,0,0,0,0,0,133,
0,0,0,0,0,0,0,0,0,0,0,0,0,0,0,145,
0,0,0,0,0,0,0,0,0,0,0,0,0,0,0,0,
0,0,0,0,0,0,0,0,0,0,0,0,0,0,0,0,
0,0,0,0,0,0,0,0,0,0,0,0,0,0,0,0,
0,0,0,0,0,0,0,0,0,0,0,0,0,0,0,0
</chunk>
   <chunk x="-32" y="-48" width="16" height="16">
16,0,0,0,0,0,0,0,0,0,0,5,2,3,0,0,
25,16,0,0,0,0,0,0,0,0,0,0,14,15,0,0,
37,25,16,0,0,0,0,0,0,0,0,0,0,5,3,0,
0,37,25,16,0,0,0,0,0,0,0,0,0,0,15,0,
0,0,37,25,16,0,0,0,0,0,0,0,0,0,5,3,
0,0,121,37,25,16,0,0,0,0,0,0,0,0,0,15,
0,0,133,134,37,25,16,0,0,0,0,0,0,0,0,5,
121,122,112,125,146,37,25,16,0,0,0,0,0,0,0,0,
112,134,134,135,0,0,37,25,16,0,0,0,0,0,0,0,
125,146,146,147,0,0,0,37,25,16,0,0,0,0,0,0,
135,0,0,0,0,0,0,0,37,25,16,0,0,0,0,0,
147,0,0,0,0,0,0,0,0,37,25,26,26,26,26,26,
0,0,0,0,0,0,0,0,0,0,37,38,38,38,38,38,
0,0,0,0,0,0,0,0,0,0,0,0,0,0,0,145,
0,0,0,0,0,0,0,0,0,0,0,0,0,0,0,0,
0,0,0,0,0,0,0,0,0,0,0,0,0,0,0,0
</chunk>
   <chunk x="-16" y="-48" width="16" height="16">
0,0,0,133,135,0,0,0,0,0,0,0,0,0,0,0,
1,3,0,133,135,0,0,0,0,0,0,0,0,0,0,0,
25,27,0,133,135,0,0,0,0,0,0,0,0,0,0,0,
37,39,0,145,147,0,0,0,0,0,0,0,0,0,0,0,
112,135,0,0,0,0,0,0,0,0,0,0,0,0,0,0,
146,147,0,0,0,0,0,0,0,0,0,0,0,0,0,0,
3,0,0,0,0,0,0,0,0,0,0,0,0,0,0,0,
15,0,1,3,0,0,0,0,0,0,0,0,0,0,0,0,
15,0,25,27,0,0,0,0,0,0,0,0,0,0,0,0,
15,0,37,39,0,0,0,0,0,0,0,0,0,0,0,0,
15,0,0,0,0,0,0,0,0,0,0,0,0,0,0,0,
27,0,0,0,0,0,0,0,0,0,0,0,0,0,0,0,
39,122,123,0,0,0,0,0,0,0,0,0,0,0,0,0,
124,134,113,122,123,0,0,0,0,0,0,0,0,0,0,0,
145,146,146,146,147,0,0,0,0,0,0,0,0,0,0,0,
0,0,0,0,0,0,0,0,0,0,0,0,121,123,0,0
</chunk>
   <chunk x="0" y="-48" width="16" height="16">
0,0,0,0,0,0,0,0,0,0,0,0,0,0,0,0,
0,0,0,0,0,0,0,0,0,0,0,0,0,0,0,0,
0,0,0,0,0,0,0,0,0,0,0,0,0,0,0,0,
0,0,0,0,0,0,0,0,0,0,0,0,0,0,0,0,
0,0,0,0,0,0,0,0,0,0,0,0,0,0,0,0,
0,0,0,0,0,0,0,0,0,0,0,0,0,0,0,0,
0,0,0,0,0,0,0,0,0,0,0,0,0,0,0,0,
0,0,0,0,0,0,0,0,0,0,0,0,0,0,0,0,
0,0,0,0,1,2,2,2,2,3,0,0,0,0,0,0,
0,0,0,0,13,0,0,0,0,15,0,0,0,0,0,0,
0,0,0,0,13,0,0,0,0,15,0,0,0,0,0,0,
0,0,0,0,13,0,0,0,0,15,0,0,0,0,0,0,
0,0,0,0,13,0,0,0,0,15,0,0,0,0,0,0,
0,0,0,0,13,0,0,0,0,15,0,0,0,0,0,0,
0,0,0,0,13,0,0,0,0,15,0,0,0,0,0,0,
0,0,0,0,13,0,0,0,0,15,0,0,0,0,0,0
</chunk>
   <chunk x="16" y="-48" width="16" height="16">
0,0,0,0,0,0,0,0,0,0,0,0,0,0,0,0,
0,0,0,0,0,0,0,0,0,0,0,0,0,0,0,0,
0,0,0,0,0,0,0,0,0,0,0,0,0,0,0,0,
0,0,0,0,0,0,0,0,0,0,0,0,0,0,0,0,
0,0,0,0,0,0,0,0,0,0,0,0,0,0,0,0,
0,0,0,0,0,0,0,0,121,123,0,0,0,0,0,0,
0,121,123,0,0,0,0,0,145,147,0,0,0,0,121,123,
1,2,2,2,2,2,2,2,2,2,2,2,2,2,2,2,
25,26,26,26,26,26,26,26,26,26,26,26,26,26,26,26,
37,38,38,38,38,38,38,38,38,38,38,38,38,38,38,38,
0,0,0,0,0,0,0,121,112,135,0,0,0,0,0,0,
0,121,123,0,0,0,121,112,125,147,0,0,0,0,0,121,
0,133,113,123,0,0,145,146,147,0,0,0,0,121,122,112,
0,145,124,113,122,123,0,0,0,0,0,121,122,112,125,146,
0,0,145,146,124,113,122,123,0,0,0,145,146,146,147,0,
0,0,0,0,145,146,124,113,123,0,0,0,0,0,0,0
</chunk>
   <chunk x="32" y="-48" width="16" height="16">
0,0,0,0,0,0,0,0,0,0,0,0,0,0,0,0,
0,0,0,0,0,0,0,0,0,0,0,0,0,0,0,0,
0,0,0,0,0,0,0,0,0,0,0,0,0,0,0,0,
0,0,0,0,0,0,0,0,0,0,0,0,0,0,0,0,
0,0,0,0,0,0,0,0,0,0,0,0,0,0,0,0,
0,0,0,0,121,123,0,0,0,0,0,0,0,0,0,0,
0,0,0,0,145,147,0,0,0,1,3,0,0,121,123,0,
2,3,0,0,0,0,0,0,0,25,27,0,0,145,147,0,
26,27,0,0,0,0,0,0,0,37,39,0,0,0,0,0,
38,39,123,0,0,0,0,0,0,0,0,0,1,3,0,0,
133,125,147,0,0,0,0,0,0,0,0,0,25,27,0,0,
112,135,0,0,0,0,0,0,0,0,0,0,37,39,0,0,
125,147,0,0,0,0,0,0,0,0,121,123,0,0,0,0,
147,0,0,0,0,0,0,1,3,0,145,147,0,0,0,0,
0,0,0,0,0,0,0,25,27,0,0,0,0,0,1,3,
0,0,0,0,0,0,0,37,39,0,0,0,0,0,25,27
</chunk>
   <chunk x="48" y="-48" width="16" height="16">
0,0,0,0,0,0,0,0,0,0,0,0,0,0,0,0,
0,0,0,0,0,0,0,0,0,0,0,0,0,0,0,0,
0,0,0,0,0,0,0,0,0,0,0,0,0,0,0,0,
0,0,0,0,0,0,0,0,0,0,0,0,0,0,0,0,
0,0,0,0,0,0,0,0,0,0,0,0,0,0,0,0,
0,0,0,0,0,0,0,1,3,0,0,0,0,0,0,0,
0,0,0,0,0,0,0,25,27,122,122,123,0,0,0,0,
0,0,1,3,0,0,0,37,39,146,146,147,0,0,0,0,
0,0,25,27,0,0,0,133,135,0,0,0,0,0,0,0,
0,0,37,39,0,0,0,0,0,0,0,0,0,0,0,0,
0,0,0,0,121,123,0,0,0,0,0,0,0,0,0,0,
0,0,0,0,133,113,123,0,0,0,0,0,0,1,3,0,
0,0,0,0,145,124,135,0,0,0,0,0,0,25,27,123,
0,0,0,0,0,145,1,3,0,0,0,0,0,37,39,147,
0,133,135,0,0,0,25,27,0,0,0,0,121,112,135,0,
122,112,135,0,0,0,37,39,0,0,0,121,112,125,147,0
</chunk>
   <chunk x="64" y="-48" width="16" height="16">
0,0,0,0,0,0,0,0,0,0,0,0,0,0,0,0,
0,0,0,0,0,0,0,0,0,0,0,0,0,0,0,0,
0,0,0,0,0,0,0,0,0,0,0,0,0,0,0,0,
0,0,0,0,0,0,0,0,0,0,0,0,0,0,0,0,
0,0,0,0,0,0,0,0,0,0,0,0,0,0,0,0,
0,0,0,0,0,0,0,0,0,0,0,0,0,0,0,0,
1,3,0,0,0,0,0,121,122,122,123,0,0,0,0,0,
25,27,122,123,0,0,0,133,125,146,147,0,1,3,0,0,
37,39,124,113,123,0,0,145,147,0,0,0,25,27,0,0,
0,0,133,125,147,0,0,0,0,0,0,0,37,39,0,0,
0,0,133,135,0,0,1,3,0,0,121,122,122,123,0,0,
0,121,112,135,0,0,25,27,0,0,145,146,124,135,0,0,
0,145,146,147,0,0,37,39,0,0,0,0,1,3,123,0,
0,0,0,0,0,0,0,0,0,0,0,0,25,27,147,0,
0,0,0,0,1,3,0,0,0,0,0,0,37,39,0,0,
0,0,0,0,25,27,122,122,123,0,0,0,0,0,0,0
</chunk>
   <chunk x="-48" y="-32" width="16" height="16">
0,0,0,0,0,0,0,0,0,0,0,0,0,0,0,0,
0,0,0,0,0,0,0,0,0,0,0,0,0,0,0,0,
0,0,0,0,0,0,0,0,0,0,0,0,0,0,0,0,
0,0,0,0,0,0,0,0,0,0,0,0,0,0,0,0,
0,0,0,0,0,0,0,0,0,0,0,0,0,0,0,0,
0,0,0,0,0,0,0,0,0,0,0,0,0,0,0,0,
0,0,0,0,0,0,0,0,0,0,0,0,0,0,0,0,
0,0,0,0,0,0,0,0,0,0,0,0,0,0,0,0,
0,0,0,0,0,0,0,0,0,0,0,0,0,0,0,0,
0,0,0,0,0,0,0,0,0,0,0,1,3,0,0,0,
0,0,0,0,0,0,0,1,3,0,0,25,27,122,122,1,
0,0,0,0,0,0,0,25,27,0,0,37,39,146,146,25,
0,0,0,0,0,0,0,37,39,0,0,0,0,0,0,37,
0,0,0,0,0,0,0,121,123,0,0,0,0,0,0,0,
0,0,1,3,0,0,0,145,147,0,0,0,1,3,0,0,
0,0,25,27,0,0,0,1,3,0,0,0,25,27,0,0
</chunk>
   <chunk x="-32" y="-32" width="16" height="16">
0,0,0,0,0,0,0,0,0,0,0,0,0,0,0,0,
0,0,0,0,0,0,0,0,0,0,0,0,0,0,0,0,
0,0,0,0,0,0,0,0,0,0,0,0,0,0,0,0,
0,0,0,0,0,0,1,3,0,0,0,0,1,3,0,0,
0,0,0,0,0,0,25,27,122,122,122,122,25,27,0,0,
0,0,0,0,0,0,37,39,146,146,146,146,37,39,0,0,
0,1,3,0,0,0,0,0,0,0,0,0,0,0,0,0,
0,25,27,122,122,123,0,0,1,3,0,0,0,0,0,1,
0,37,39,146,292,135,0,0,25,27,0,0,0,0,0,25,
0,0,0,0,133,135,0,0,37,39,0,0,1,3,122,37,
3,0,0,0,1,3,0,0,0,0,121,122,25,27,146,147,
27,0,0,0,25,27,0,0,0,0,133,125,37,39,0,0,
39,0,0,0,37,39,0,0,0,1,3,147,0,0,0,0,
0,0,0,0,0,0,0,0,0,25,27,0,0,0,0,1,
1,3,0,0,1,3,0,0,0,37,39,0,0,0,0,25,
25,27,122,122,25,27,0,0,0,133,135,0,0,0,0,37
</chunk>
   <chunk x="-16" y="-32" width="16" height="16">
0,0,0,0,0,0,0,0,0,0,0,0,133,113,123,0,
0,0,0,0,0,0,0,0,0,0,0,0,145,124,135,0,
0,0,0,0,0,0,0,0,0,0,0,0,0,133,135,0,
0,0,0,0,0,0,0,0,0,0,0,0,0,133,135,0,
0,0,0,0,0,0,0,0,0,0,0,0,121,112,135,0,
0,0,0,0,0,0,0,0,0,0,0,0,133,125,147,0,
0,0,0,0,0,0,0,0,0,0,0,0,145,147,0,0,
3,0,0,0,0,0,0,0,0,0,0,0,0,0,0,0,
27,122,122,123,0,0,0,0,0,0,0,0,0,0,0,0,
39,146,146,147,0,0,0,0,0,0,0,0,121,123,0,0,
0,0,0,0,0,0,0,0,0,0,0,0,133,113,123,0,
0,0,0,0,0,0,0,0,0,0,0,0,145,124,135,0,
0,0,0,0,0,0,0,0,0,0,0,0,0,133,135,0,
3,123,0,0,0,0,0,0,0,0,0,0,0,133,135,0,
27,135,0,0,0,0,0,0,0,0,0,0,121,112,135,0,
39,147,0,0,0,0,0,0,0,0,0,0,133,125,147,0
</chunk>
   <chunk x="0" y="-32" width="16" height="16">
0,0,0,0,13,0,0,0,0,15,0,0,0,0,0,0,
0,0,0,0,13,0,0,0,0,15,0,0,0,0,0,0,
0,0,0,0,13,0,0,0,0,15,0,0,0,0,0,0,
0,0,0,0,13,0,0,0,0,15,0,0,0,0,0,0,
0,0,0,0,13,0,0,0,0,15,0,0,0,0,0,0,
0,0,0,0,13,0,0,0,0,15,0,0,0,0,0,0,
0,0,0,0,13,0,0,0,0,15,0,0,0,0,0,0,
0,0,0,0,13,0,0,0,0,15,0,0,0,0,0,0,
0,0,0,0,13,0,0,0,0,15,0,0,0,0,0,0,
0,0,0,0,13,0,0,0,0,15,0,0,0,0,0,0,
0,0,0,0,13,0,0,0,0,15,0,0,0,0,0,0,
0,0,0,0,13,0,0,0,0,15,0,0,0,0,0,0,
0,0,0,0,13,0,0,0,0,15,0,0,0,0,0,0,
0,0,0,0,13,0,0,0,0,15,0,0,0,0,0,0,
0,0,0,0,13,0,0,0,0,15,0,0,0,0,0,0,
0,0,0,0,13,0,0,0,0,15,0,0,0,0,0,0
</chunk>
   <chunk x="16" y="-32" width="16" height="16">
0,0,0,0,0,0,145,124,135,0,0,0,0,0,0,0,
1,2,2,2,2,2,2,2,2,2,2,2,2,2,2,2,
13,17,26,26,26,26,26,26,26,26,26,26,26,26,26,26,
13,15,38,38,38,38,38,38,38,38,38,38,38,38,38,38,
13,15,0,0,0,0,0,0,0,0,0,0,0,0,0,0,
13,15,0,0,0,0,0,0,0,0,0,0,0,0,0,0,
13,15,0,0,0,0,0,0,0,0,0,0,0,0,0,0,
13,15,0,0,0,0,0,0,0,0,0,0,0,0,0,0,
13,15,0,0,0,0,0,0,0,0,0,0,0,0,0,0,
13,15,0,0,0,0,0,0,0,0,0,0,0,0,0,0,
13,15,0,0,0,0,0,0,0,0,0,0,0,0,0,0,
13,15,0,0,0,0,0,0,0,0,0,0,0,0,0,0,
13,15,0,0,1,2,2,2,2,2,2,2,2,2,2,2,
25,27,0,0,25,26,26,26,26,26,26,26,26,26,26,26,
37,39,0,0,37,38,38,38,38,38,38,38,38,38,38,38,
0,0,0,0,0,0,0,0,0,0,0,0,0,0,0,0
</chunk>
   <chunk x="32" y="-32" width="16" height="16">
0,0,0,0,0,0,0,0,0,0,0,0,0,0,37,39,
2,2,2,2,2,2,2,2,2,2,2,2,2,2,2,2,
26,26,26,26,26,26,26,26,26,26,26,26,26,26,26,26,
38,38,38,38,38,38,38,38,38,38,38,38,38,38,38,38,
0,0,0,0,0,0,0,0,0,0,0,0,0,0,0,0,
0,0,0,0,0,0,0,0,0,0,0,0,0,0,0,0,
0,0,0,0,0,0,0,0,0,0,0,0,0,0,0,0,
0,0,0,0,0,0,0,0,0,0,0,0,0,0,0,0,
0,0,0,0,0,0,0,0,0,0,0,0,0,0,0,0,
0,0,0,0,0,0,0,0,0,0,0,0,0,0,0,0,
0,0,0,0,0,0,0,0,0,0,0,0,0,0,0,0,
0,0,0,0,0,0,0,0,0,0,0,0,0,0,0,0,
2,2,2,2,2,2,2,2,2,2,2,2,2,2,2,2,
26,26,26,26,26,26,26,26,26,26,26,26,26,26,26,16,
38,38,38,38,38,38,38,38,38,38,38,38,38,38,38,25,
0,0,133,134,135,0,0,0,0,0,0,0,0,0,0,37
</chunk>
   <chunk x="48" y="-32" width="16" height="16">
134,125,147,0,0,0,0,0,0,0,0,133,134,135,0,0,
2,2,2,2,2,2,2,2,2,2,2,2,2,2,2,2,
26,26,26,26,26,26,26,26,26,26,26,26,26,26,26,26,
38,38,38,38,38,38,38,38,38,38,38,38,38,38,38,38,
0,0,0,0,0,0,0,0,0,0,0,0,0,0,0,0,
0,0,0,0,0,0,0,0,0,0,0,0,0,0,0,0,
0,0,0,0,0,0,0,0,0,0,0,0,0,0,0,0,
0,0,0,0,0,0,0,0,0,0,0,0,0,0,0,0,
0,0,0,0,0,0,0,0,0,0,0,0,0,0,0,0,
0,0,0,0,0,0,0,0,0,0,0,0,0,0,0,0,
0,0,0,0,0,0,0,0,0,0,0,0,0,0,0,0,
0,0,0,0,0,0,0,0,0,0,0,0,0,0,0,0,
2,2,2,2,2,2,2,2,2,2,2,2,2,2,2,2,
0,0,0,17,26,26,26,26,26,26,26,26,26,26,26,26,
16,0,0,15,38,38,38,38,38,38,38,38,38,38,38,38,
25,16,0,15,0,0,0,0,0,0,0,0,0,0,0,0
</chunk>
   <chunk x="64" y="-32" width="16" height="16">
0,0,121,122,37,39,146,124,113,123,0,0,0,0,0,0,
2,2,2,3,147,0,0,145,146,147,0,0,0,0,0,0,
26,26,16,15,0,0,0,0,0,0,0,0,0,0,0,0,
38,38,13,15,0,0,0,0,0,0,0,0,0,0,0,0,
0,0,13,5,2,2,3,0,0,0,0,0,0,1,2,3,
0,0,13,17,26,26,27,0,0,0,0,0,0,25,26,27,
0,0,13,15,38,38,39,0,0,1,2,3,0,37,38,39,
0,0,13,15,0,121,122,123,0,25,26,27,0,0,0,0,
0,0,13,15,0,145,146,147,0,37,38,39,0,0,0,0,
0,0,13,15,0,0,0,0,0,0,0,0,0,0,0,0,
0,0,13,15,0,0,0,0,0,0,0,0,0,0,0,0,
0,0,13,15,0,1,2,3,0,0,0,0,121,122,123,0,
2,2,4,15,0,25,26,27,0,0,0,0,145,146,147,0,
26,26,16,15,0,37,38,39,0,0,0,0,0,0,0,0,
38,38,13,15,0,0,0,0,0,0,0,0,1,2,3,0,
0,0,13,15,0,121,122,123,0,0,0,0,25,26,27,0
</chunk>
   <chunk x="-64" y="-16" width="16" height="16">
0,0,0,0,0,0,0,0,0,0,0,0,0,0,0,0,
0,0,0,0,0,0,0,0,0,0,0,0,0,0,0,0,
0,0,0,0,0,0,0,0,0,0,0,0,0,0,0,1,
0,0,0,0,0,0,0,0,0,0,0,0,0,0,0,0,
0,0,0,0,0,0,0,0,0,0,0,0,0,0,0,25,
0,0,0,0,0,0,0,0,0,0,0,0,0,0,0,37,
0,0,0,0,0,0,0,0,0,0,0,0,0,0,0,0,
0,0,0,0,0,0,0,0,0,0,0,0,0,0,0,0,
0,0,0,0,0,0,0,0,0,0,0,0,0,0,0,0,
0,0,0,0,0,0,0,0,0,0,0,0,0,0,0,0,
0,0,0,0,0,0,0,0,0,0,0,0,0,0,0,0,
0,0,0,0,0,0,0,0,0,0,0,0,0,0,0,0,
0,0,0,0,0,0,0,0,0,0,0,0,0,0,0,0,
0,0,0,0,0,0,0,0,0,0,0,0,0,0,0,0,
0,0,0,0,0,0,0,0,0,0,0,0,0,0,0,0,
0,0,0,0,0,0,0,0,0,0,0,0,0,0,0,0
</chunk>
   <chunk x="-48" y="-16" width="16" height="16">
0,0,37,39,0,0,0,25,27,0,0,0,37,39,0,0,
0,0,0,0,0,0,0,37,39,0,0,0,0,0,0,0,
3,121,122,123,1,3,0,0,0,0,0,0,0,0,0,0,
15,112,134,113,13,15,0,0,0,0,0,0,0,0,0,0,
27,124,134,125,25,27,0,0,0,0,0,0,0,0,0,0,
39,145,146,147,37,39,0,0,0,0,0,0,0,0,0,0,
0,0,0,0,0,121,123,0,0,0,0,1,3,0,0,0,
0,1,3,0,0,145,147,0,0,121,123,25,27,0,0,0,
0,25,27,0,0,0,0,0,0,145,147,37,39,0,0,0,
0,37,39,0,0,0,0,1,3,0,0,0,0,0,0,0,
0,0,0,0,0,0,0,25,27,0,0,0,0,0,0,0,
0,0,0,1,3,121,122,37,39,0,0,0,0,0,0,0,
0,0,0,25,27,133,134,113,122,123,0,1,3,0,121,122,
0,0,0,37,39,145,146,124,134,135,0,25,27,121,112,125,
0,0,0,0,0,0,0,145,146,147,0,37,39,145,146,147,
0,0,0,0,0,0,0,0,0,0,0,0,0,0,0,0
</chunk>
   <chunk x="-32" y="-16" width="16" height="16">
37,39,124,125,37,39,0,0,0,133,135,0,0,0,0,0,
0,0,145,147,0,0,0,0,0,145,147,0,0,0,0,0,
0,0,0,0,0,0,0,0,0,0,0,0,0,0,0,0,
0,0,0,0,0,0,0,0,0,0,0,0,0,0,0,0,
0,0,0,0,0,0,0,0,0,0,0,0,0,0,0,0,
0,0,0,0,0,0,0,0,0,0,0,0,0,0,0,0,
0,0,0,0,0,121,123,0,0,1,3,0,0,0,0,0,
0,0,0,0,0,133,135,0,0,25,27,121,123,0,0,0,
0,0,0,0,0,145,147,0,0,37,39,145,147,0,0,0,
0,0,0,0,0,0,1,3,0,0,0,0,0,1,3,0,
0,0,0,0,0,0,25,27,121,123,0,0,0,25,27,0,
0,0,0,0,0,0,37,39,145,147,0,0,0,37,39,0,
122,122,122,122,123,0,0,0,0,1,3,0,0,0,121,123,
146,146,146,124,113,123,0,0,0,25,27,0,0,0,145,147,
0,0,0,145,146,147,0,0,0,37,39,0,0,0,0,0,
0,0,0,0,0,0,0,0,0,0,0,0,0,0,0,0
</chunk>
   <chunk x="-16" y="-16" width="16" height="16">
0,0,0,0,0,0,0,0,0,0,0,0,145,147,0,0,
0,0,0,0,0,0,0,0,0,0,0,0,0,0,0,0,
1,3,121,122,123,1,3,0,0,0,0,0,0,0,0,0,
13,15,133,134,135,13,15,0,0,0,0,0,0,0,0,0,
25,27,133,134,135,25,27,0,0,0,0,0,0,0,0,0,
37,39,145,146,147,37,39,0,0,0,0,0,0,0,0,0,
0,0,0,0,0,0,0,0,0,0,0,0,0,0,0,0,
0,0,0,0,0,0,0,0,0,0,0,0,0,0,0,0,
0,0,0,0,0,0,0,0,0,0,0,0,0,0,0,0,
0,0,0,0,0,0,0,0,0,0,0,0,0,0,0,0,
0,0,0,0,0,0,0,0,0,0,0,0,0,0,0,0,
0,0,0,0,0,0,0,0,0,0,0,0,0,0,0,0,
0,0,0,0,0,0,0,0,0,0,0,0,0,0,0,0,
0,0,0,0,121,123,0,0,0,0,0,0,0,0,0,0,
0,0,0,0,145,147,0,0,0,0,0,0,0,0,0,0,
0,0,0,0,0,0,0,0,0,0,0,0,0,0,0,0
</chunk>
   <chunk x="0" y="-16" width="16" height="16">
0,0,0,0,13,0,0,0,0,15,0,0,0,0,0,0,
0,0,0,0,13,0,0,0,0,15,0,0,0,0,0,0,
0,0,0,0,13,0,0,0,0,15,0,0,0,0,0,0,
0,0,0,0,13,0,0,0,0,15,0,0,0,0,0,0,
0,0,0,0,13,0,0,0,0,15,0,0,0,0,0,0,
0,0,0,0,13,0,0,0,0,15,0,0,0,0,0,0,
0,0,0,0,13,0,0,0,0,15,0,0,0,0,0,0,
0,0,0,0,25,26,26,26,26,27,0,0,0,0,0,0,
0,0,0,0,37,38,38,38,38,39,0,0,0,0,0,0,
0,0,0,0,0,0,0,0,0,0,0,0,0,0,0,0,
0,0,0,0,0,0,0,0,0,0,0,0,0,0,0,0,
0,0,0,0,0,0,0,0,0,0,0,0,0,0,0,0,
0,0,0,0,0,0,0,0,0,0,0,0,0,0,0,0,
0,0,0,0,0,0,0,0,0,0,0,0,0,0,0,0,
0,0,0,0,0,0,0,0,0,0,0,0,0,0,0,0,
0,0,0,0,0,0,0,0,0,0,0,0,0,0,0,0
</chunk>
   <chunk x="16" y="-16" width="16" height="16">
0,121,122,122,122,123,0,0,0,0,0,0,0,0,0,0,
0,145,146,146,124,113,122,123,0,0,0,0,0,0,0,0,
0,0,0,0,145,146,124,113,122,123,0,0,0,0,0,0,
0,0,0,0,0,0,145,124,134,113,122,123,0,0,0,0,
0,0,0,0,0,0,0,145,146,124,134,113,123,0,0,0,
0,0,0,0,0,0,0,0,0,145,124,134,113,122,123,0,
1,2,2,2,2,2,2,2,2,2,2,2,2,2,2,2,
25,26,26,26,26,26,26,26,26,26,26,26,26,26,26,26,
37,38,38,38,38,38,38,38,38,38,38,38,38,38,38,38,
121,123,0,0,0,0,0,0,0,0,0,0,0,0,0,0,
145,147,0,0,0,0,0,0,121,123,0,0,0,0,0,0,
0,0,0,0,0,0,0,0,145,147,0,0,0,0,0,0,
0,0,0,0,0,0,0,0,0,0,0,0,0,0,0,0,
0,0,0,0,0,0,0,0,0,0,0,0,0,0,0,0,
0,0,0,0,0,0,0,0,0,0,0,0,0,0,0,0,
0,0,0,0,0,0,0,0,0,0,0,0,0,0,0,0
</chunk>
   <chunk x="32" y="-16" width="16" height="16">
0,0,133,134,135,0,0,0,121,122,122,122,122,123,0,0,
0,0,133,134,135,0,0,0,145,146,146,146,124,113,123,0,
0,0,133,134,135,0,0,0,0,0,0,0,145,124,135,0,
0,121,112,134,113,123,0,0,0,0,0,0,0,133,113,123,
121,112,125,146,124,135,0,0,0,0,0,0,0,133,134,135,
145,146,147,0,145,147,0,0,0,0,0,0,0,133,134,135,
2,3,0,0,0,0,0,0,0,0,0,0,121,112,134,135,
26,27,0,0,0,0,0,0,0,0,0,121,112,134,134,135,
38,39,0,0,0,0,0,0,0,0,0,133,125,146,146,147,
121,123,0,0,0,0,0,0,0,0,0,145,147,0,0,0,
145,147,0,0,0,0,0,121,123,0,0,0,0,0,0,0,
0,0,0,0,0,0,0,145,147,0,0,0,0,0,0,0,
0,0,0,0,0,0,0,0,0,0,0,0,0,0,0,0,
0,0,0,0,0,0,0,0,0,0,0,0,0,0,0,0,
0,0,0,0,0,0,0,0,0,0,0,0,0,0,0,0,
0,0,0,0,0,0,0,0,0,0,0,0,0,0,0,0
</chunk>
   <chunk x="48" y="-16" width="16" height="16">
37,25,16,5,3,0,0,0,0,0,0,0,0,0,0,0,
0,37,25,16,5,3,0,0,0,0,0,0,0,0,0,0,
0,0,37,25,16,5,3,0,0,0,0,0,0,0,0,0,
0,0,0,37,25,16,5,3,0,0,0,0,0,0,0,0,
0,0,0,0,37,25,16,5,3,0,0,0,0,0,0,0,
0,0,0,0,0,37,25,16,5,3,0,0,0,0,0,0,
0,0,0,0,0,0,37,25,16,5,3,0,0,0,0,0,
0,0,0,0,0,0,0,37,25,16,5,2,2,3,0,0,
0,0,0,0,0,0,0,0,37,25,26,26,26,27,0,0,
0,0,0,0,0,0,0,0,121,37,38,38,38,39,123,0,
0,0,0,0,0,0,0,0,133,134,134,134,134,134,135,0,
0,0,0,0,0,0,0,0,145,146,146,146,146,146,147,0,
0,0,0,0,0,0,0,0,0,0,0,0,0,0,0,0,
0,0,0,0,0,0,0,0,0,0,0,0,0,0,0,0,
0,0,0,0,0,0,0,0,0,0,0,0,0,0,0,0,
0,0,0,0,0,0,0,0,0,0,0,0,0,0,0,0
</chunk>
   <chunk x="64" y="-16" width="16" height="16">
0,0,13,15,0,145,146,147,0,0,0,0,37,38,39,0,
0,0,13,15,0,0,0,0,0,0,0,0,0,0,0,0,
0,0,13,15,0,0,0,1,2,3,0,0,121,122,123,0,
0,0,13,15,0,0,0,25,26,27,0,0,145,146,147,0,
0,0,13,15,0,0,0,37,38,39,0,0,0,0,0,0,
0,0,13,15,0,0,121,112,135,0,0,0,0,0,0,0,
0,0,13,15,122,122,112,134,113,123,0,1,2,3,0,0,
0,0,13,15,134,134,1,2,3,113,122,25,26,27,134,0,
0,0,13,15,146,146,25,26,27,146,146,37,38,39,134,0,
0,0,13,15,0,0,37,38,39,0,0,0,0,0,134,0,
0,0,25,27,0,0,0,0,0,0,0,0,0,0,0,0,
0,0,37,39,0,0,0,0,0,0,0,0,0,0,0,0,
0,0,0,0,0,0,0,0,0,0,0,0,0,0,0,0,
0,0,0,0,0,0,0,0,0,0,0,0,0,0,0,0,
0,0,0,0,0,0,0,0,0,0,0,0,0,0,0,0,
0,0,0,0,0,0,0,0,0,0,0,0,0,0,0,0
</chunk>
   <chunk x="-32" y="0" width="16" height="16">
0,0,0,0,0,0,0,0,0,0,0,0,0,0,0,0,
0,0,0,0,0,0,0,0,0,0,0,0,0,0,0,0,
0,0,0,0,0,0,0,0,0,0,0,0,0,0,0,0,
0,0,0,0,0,0,0,0,0,0,0,0,0,0,0,0,
0,0,0,0,0,0,0,0,0,0,0,0,0,0,0,0,
0,0,0,0,0,0,0,0,0,0,0,0,0,0,0,0,
0,0,0,0,0,0,0,0,0,0,0,0,0,0,0,0,
0,0,0,0,0,0,0,49,50,50,51,0,0,0,0,0,
0,0,0,0,0,0,0,61,98,98,63,0,0,0,0,0,
0,0,0,0,0,0,0,61,98,98,63,0,0,0,0,0,
0,0,0,0,0,0,0,73,74,74,75,0,0,0,0,0,
0,0,0,0,0,0,0,0,0,0,0,0,0,0,0,0,
0,0,0,0,0,0,0,0,0,0,0,0,0,0,0,0,
0,0,0,0,0,0,0,0,0,0,0,0,0,0,0,0,
0,0,0,0,0,0,0,0,0,0,0,0,0,0,0,0,
0,0,0,0,0,0,0,0,0,0,0,0,0,0,0,0
</chunk>
  </data>
 </layer>
 <layer id="6" name="objects" width="30" height="20">
  <data encoding="csv">
   <chunk x="-48" y="-80" width="16" height="16">
0,0,0,0,0,0,0,0,0,0,0,0,0,0,0,0,
0,0,0,0,0,0,0,0,0,0,0,0,0,0,0,0,
0,0,0,0,0,0,0,0,0,0,0,0,0,0,0,0,
0,0,0,0,0,0,0,0,0,0,0,0,0,0,0,0,
0,0,0,0,0,0,0,0,0,0,0,0,0,0,0,0,
0,0,0,0,0,0,0,0,0,0,0,0,0,0,0,0,
0,0,0,0,0,0,0,0,0,0,0,0,0,0,0,0,
0,0,0,0,0,0,0,0,0,0,0,0,0,0,0,0,
0,0,0,0,0,0,0,0,0,0,0,0,0,0,0,0,
0,0,0,0,0,0,0,0,0,0,0,0,0,0,0,0,
0,0,0,0,0,0,0,0,0,0,0,0,0,0,0,0,
0,0,0,0,0,0,0,0,0,0,0,0,0,0,0,0,
0,0,0,0,0,0,0,0,0,0,0,0,0,0,0,0,
0,0,0,0,0,0,0,0,0,0,0,0,0,0,0,0,
0,0,0,0,0,0,0,0,0,0,0,0,0,0,0,0,
0,0,0,0,0,0,0,0,0,0,32,33,0,0,0,0
</chunk>
   <chunk x="64" y="-80" width="16" height="16">
0,0,0,0,0,0,0,0,0,0,0,0,0,0,0,0,
0,0,0,0,0,0,0,0,0,0,0,0,0,0,0,0,
0,0,0,0,0,0,0,0,0,0,0,0,0,0,0,0,
0,0,0,0,0,0,0,0,0,0,0,0,0,0,0,0,
0,0,0,0,0,0,0,0,0,0,0,0,0,0,0,0,
0,0,0,0,0,0,0,0,0,0,0,0,0,0,0,0,
0,0,0,0,0,0,0,0,0,0,0,0,0,0,0,0,
0,0,0,0,0,0,0,0,0,0,0,0,0,0,0,0,
0,0,0,0,0,0,0,9,9,0,0,0,0,0,0,0,
0,0,0,0,0,0,0,21,21,0,0,0,0,0,0,0,
0,0,0,0,0,0,0,9,9,0,0,0,0,0,0,0,
0,0,0,0,0,0,0,21,21,0,0,0,0,0,0,0,
0,0,0,0,0,0,0,0,0,0,0,0,0,0,0,0,
0,0,0,0,0,0,0,0,0,0,0,0,0,0,0,0,
0,0,0,0,0,0,0,0,0,0,0,0,0,0,0,0,
0,0,0,0,0,0,0,0,0,0,0,0,0,0,0,0
</chunk>
   <chunk x="-48" y="-64" width="16" height="16">
0,0,0,0,0,0,0,0,0,0,44,45,0,0,0,0,
0,0,0,0,0,0,0,0,0,0,56,57,0,0,0,0,
0,0,0,0,0,0,0,0,0,0,0,0,0,0,0,0,
0,0,0,0,0,0,0,0,0,0,0,0,0,0,0,0,
0,0,0,0,0,0,0,0,0,0,0,0,0,0,0,0,
0,0,0,0,0,0,0,0,0,0,0,0,0,0,0,0,
0,0,0,0,0,0,0,0,0,0,0,0,0,0,0,0,
0,0,0,0,0,0,0,0,0,0,0,0,0,0,0,0,
0,0,0,0,0,0,0,0,0,0,0,0,0,0,0,0,
0,0,93,94,0,0,0,0,0,0,0,0,0,0,0,0,
0,0,105,106,0,0,0,0,0,0,0,0,0,0,0,0,
0,0,117,118,0,0,93,94,0,0,0,0,0,0,0,0,
0,0,0,0,0,0,105,106,0,0,0,0,0,0,0,0,
0,0,0,0,0,0,117,118,0,0,0,0,0,0,0,0,
0,0,0,0,0,0,0,0,0,0,0,0,0,0,0,0,
0,0,0,0,0,0,0,0,0,0,0,0,0,0,0,0
</chunk>
   <chunk x="-32" y="-64" width="16" height="16">
0,0,0,0,0,0,0,0,0,0,0,0,0,0,0,0,
0,0,0,0,0,0,0,0,0,0,0,0,0,0,0,0,
0,0,0,0,0,0,0,0,0,0,0,0,0,0,0,0,
0,0,0,0,0,0,0,0,0,0,0,0,0,0,0,0,
0,0,0,0,0,0,0,0,0,0,0,0,0,0,0,0,
0,0,0,0,0,0,0,0,0,0,0,0,0,0,0,0,
0,0,0,0,0,0,0,0,0,0,0,0,0,0,0,0,
0,0,0,0,0,0,0,0,0,0,0,32,33,0,0,0,
0,0,0,0,0,0,0,0,0,0,0,44,45,0,0,0,
0,0,0,0,0,0,0,0,0,0,0,56,57,0,0,0,
0,0,0,0,0,0,0,0,0,0,0,0,0,0,0,0,
0,0,0,0,0,0,0,0,0,0,0,0,0,0,0,0,
0,0,0,0,0,0,0,0,0,0,0,0,0,0,0,0,
0,0,0,0,0,0,0,0,0,0,0,0,0,0,0,0,
0,0,0,0,0,0,0,0,0,0,0,0,0,0,0,0,
0,0,0,0,0,0,0,0,0,0,0,0,0,0,0,0
</chunk>
   <chunk x="-16" y="-64" width="16" height="16">
0,0,0,0,0,0,0,0,0,0,0,0,0,0,0,0,
0,0,0,0,0,0,0,0,0,0,0,0,0,0,0,0,
0,0,0,0,0,0,0,0,0,0,0,0,0,0,0,93,
0,0,0,0,0,0,0,0,0,0,0,0,0,0,0,105,
0,0,0,0,0,0,0,0,0,0,0,0,0,0,0,117,
0,0,0,0,0,0,0,0,0,66,67,68,69,70,88,89,
0,0,0,0,0,0,0,0,0,78,79,80,81,82,100,101,
0,0,0,0,0,0,0,0,0,0,0,0,0,0,0,0,
0,0,0,0,0,0,0,0,0,0,0,0,0,0,0,0,
0,0,0,0,0,0,0,0,0,0,0,0,0,0,0,0,
0,88,89,90,91,92,0,0,0,0,0,0,0,0,0,0,
0,100,101,102,103,104,0,0,0,0,0,0,9,0,0,0,
0,0,0,0,0,0,0,0,0,0,0,0,21,0,0,0,
0,0,0,0,0,0,0,0,0,0,0,0,0,0,0,0,
0,0,0,0,0,0,0,0,0,0,0,0,0,0,0,0,
0,0,0,0,0,0,0,0,0,0,0,0,0,0,0,0
</chunk>
   <chunk x="0" y="-64" width="16" height="16">
0,0,0,0,0,0,0,0,0,0,0,0,0,0,0,0,
0,0,0,0,0,0,0,0,0,0,0,0,0,0,0,0,
94,95,96,93,94,95,96,0,0,0,0,0,0,0,0,0,
106,107,108,105,106,107,108,0,0,0,0,0,0,0,0,0,
118,119,120,117,118,119,120,0,0,0,0,0,0,0,0,0,
90,91,92,66,67,68,69,70,0,0,0,0,0,0,0,0,
102,103,104,78,79,80,81,82,0,0,0,0,0,0,0,0,
0,0,0,0,0,0,0,0,0,0,0,0,0,0,0,0,
0,0,0,0,0,0,0,0,0,0,0,0,0,0,0,0,
0,0,0,0,0,0,0,0,0,0,0,0,0,0,0,0,
0,0,0,0,0,0,0,0,0,0,0,0,0,0,0,0,
0,0,0,0,0,0,0,0,0,0,0,0,0,0,0,0,
0,0,0,0,0,0,0,0,0,0,0,0,0,0,0,0,
0,0,0,0,0,0,0,0,0,0,0,0,0,0,0,0,
0,0,0,0,0,0,0,0,0,0,0,0,0,0,0,0,
0,0,0,0,0,0,0,0,0,0,0,0,0,0,0,0
</chunk>
   <chunk x="16" y="-64" width="16" height="16">
0,0,0,0,0,0,0,0,0,0,0,0,0,0,0,0,
0,0,0,0,0,0,0,0,0,0,0,0,0,0,0,0,
0,0,0,0,0,0,0,0,0,0,0,0,0,0,0,0,
0,0,0,0,0,0,0,0,0,0,0,0,0,0,0,0,
0,0,0,0,0,0,0,0,0,0,0,0,0,0,0,9,
0,0,0,0,0,0,0,0,0,0,0,0,0,0,0,21,
0,0,0,0,0,0,0,0,0,0,0,0,0,0,0,0,
0,0,0,0,0,0,0,0,0,0,0,0,0,0,0,0,
0,0,0,0,0,0,0,0,0,0,0,0,0,0,0,0,
0,0,0,0,0,0,0,0,0,0,0,0,0,0,0,0,
0,0,0,0,0,0,0,0,0,0,0,0,0,0,0,9,
0,0,0,0,0,0,0,0,0,0,0,0,0,0,0,21,
0,0,0,0,0,0,0,0,0,0,0,0,0,0,0,0,
0,0,0,0,0,0,0,0,0,0,0,0,0,0,0,0,
0,0,0,0,0,0,0,0,0,0,0,0,0,0,0,0,
0,0,0,0,0,0,0,0,0,0,0,0,0,0,0,0
</chunk>
   <chunk x="32" y="-64" width="16" height="16">
0,0,0,0,0,0,0,0,0,0,0,0,0,0,0,0,
0,0,0,0,0,0,0,0,0,0,0,0,0,0,0,0,
0,0,0,0,0,0,0,0,0,0,0,0,0,0,0,0,
0,0,0,0,0,0,0,0,0,0,0,0,0,0,0,0,
0,0,0,0,0,0,0,0,0,0,0,0,0,0,0,0,
0,0,0,0,0,0,0,0,0,0,0,0,0,0,0,0,
0,0,0,0,0,0,0,0,0,0,0,0,0,0,0,0,
0,0,0,0,0,0,0,0,0,0,0,0,0,0,9,0,
0,0,0,0,0,0,0,0,0,0,0,0,0,0,21,0,
0,0,0,0,0,0,0,0,0,0,0,0,0,0,0,0,
0,0,0,0,0,0,0,0,0,0,0,0,0,0,0,0,
0,0,0,0,0,0,0,0,0,0,0,0,0,0,0,0,
0,0,0,0,0,0,0,0,0,0,0,0,0,0,0,0,
0,0,0,0,0,0,0,0,0,0,0,0,0,0,0,0,
0,0,0,0,0,0,0,0,0,0,0,0,0,0,0,0,
0,0,0,0,0,0,0,0,0,0,0,0,0,0,0,0
</chunk>
   <chunk x="48" y="-64" width="16" height="16">
0,0,0,0,0,0,0,0,0,0,0,0,0,0,0,0,
0,0,0,0,0,0,0,0,0,0,0,0,0,0,0,0,
0,0,0,0,0,0,0,0,0,0,0,0,0,0,0,0,
0,0,0,0,0,0,0,0,0,0,0,0,0,0,0,0,
0,0,0,0,0,0,0,0,0,0,0,0,0,0,0,0,
0,0,0,0,0,0,0,0,0,0,0,0,0,0,0,0,
0,0,0,0,0,9,0,0,0,0,0,0,0,0,0,0,
0,0,0,0,0,21,0,0,0,0,0,0,0,0,0,0,
0,0,0,0,0,0,0,0,0,0,0,0,0,0,0,0,
0,0,0,0,0,0,0,0,0,0,0,0,0,0,0,0,
0,0,0,0,0,0,0,0,0,0,0,0,0,0,0,0,
0,0,0,0,0,0,0,0,0,0,0,0,0,0,0,0,
0,0,0,0,0,0,0,0,0,0,0,0,0,0,0,0,
0,0,0,0,0,0,0,0,0,0,0,0,0,0,0,0,
0,0,0,0,0,0,0,0,0,0,0,0,0,0,0,0,
0,0,0,0,0,0,0,0,0,0,0,0,0,0,0,0
</chunk>
   <chunk x="64" y="-64" width="16" height="16">
0,0,0,0,0,0,0,0,0,0,0,0,0,0,0,0,
0,0,0,0,0,0,0,0,0,0,0,0,0,0,0,0,
0,0,0,0,0,0,0,0,0,0,0,0,0,0,0,0,
0,0,0,0,0,0,0,0,0,0,0,0,0,0,0,0,
0,0,0,0,0,0,0,0,0,0,0,0,0,0,0,0,
0,0,32,33,0,0,0,0,0,0,0,0,0,0,0,0,
0,0,44,45,0,0,0,0,0,0,0,0,0,0,0,0,
0,0,56,57,0,0,0,0,0,0,0,0,0,0,0,0,
0,0,32,33,0,0,0,0,0,0,0,0,0,0,0,0,
0,0,44,45,0,0,0,0,0,0,0,0,0,0,0,0,
0,0,56,57,0,0,0,0,0,0,0,0,0,0,0,0,
0,0,0,0,0,0,0,0,0,0,0,0,0,0,0,0,
0,0,0,0,0,0,0,0,0,0,0,0,0,0,0,0,
0,0,0,0,0,0,0,0,0,0,0,0,0,0,0,0,
0,0,0,0,0,0,0,0,0,0,0,0,0,0,0,0,
0,0,0,0,0,0,0,0,0,0,0,0,0,0,0,0
</chunk>
   <chunk x="-48" y="-48" width="16" height="16">
0,0,0,0,0,0,0,0,0,0,0,0,0,0,0,0,
0,0,0,0,0,0,0,0,0,0,0,0,0,0,0,0,
0,0,0,0,0,0,0,0,0,0,0,0,0,0,0,0,
0,0,0,0,0,0,0,0,0,0,0,0,0,0,0,0,
0,0,0,0,0,0,0,0,0,0,0,93,94,0,0,0,
0,0,0,0,0,0,0,0,0,0,0,105,106,0,0,0,
0,0,0,0,0,0,0,0,0,0,0,117,118,0,0,0,
0,0,0,0,0,0,0,0,0,0,0,0,0,0,0,0,
0,0,0,0,0,0,0,0,0,0,0,0,0,0,0,0,
0,0,0,0,0,0,0,0,0,0,0,0,0,0,0,0,
0,0,0,0,0,0,0,0,0,0,0,0,0,0,0,0,
0,0,0,0,0,0,0,0,0,0,0,0,0,0,0,0,
0,0,0,0,0,0,0,0,0,0,0,0,0,0,0,0,
0,0,0,0,0,0,0,0,0,0,0,0,0,0,0,0,
0,0,0,0,0,0,0,0,0,0,0,0,0,0,0,0,
0,0,0,0,0,0,0,0,0,0,0,0,0,0,0,0
</chunk>
   <chunk x="-32" y="-48" width="16" height="16">
0,0,0,0,0,0,0,0,0,0,0,0,0,0,0,0,
0,0,0,0,0,0,0,0,0,0,0,0,0,0,0,0,
0,0,0,0,0,0,0,0,0,0,0,0,0,0,0,0,
0,0,0,0,0,0,0,0,0,0,0,0,0,0,0,0,
0,0,0,0,0,0,0,0,0,0,0,0,0,0,0,0,
0,0,0,0,0,0,0,0,0,0,0,0,0,0,0,0,
0,0,0,0,0,0,0,0,0,0,0,0,0,0,0,0,
0,0,0,0,0,0,0,0,0,0,0,0,0,0,0,0,
0,0,0,0,0,0,0,0,0,0,0,0,0,0,0,0,
0,0,0,0,0,93,94,0,0,0,0,0,0,0,0,0,
0,0,0,0,0,105,106,0,0,0,0,0,0,0,0,0,
0,95,96,0,0,117,118,0,0,0,0,0,0,0,0,0,
0,107,108,0,0,0,0,0,0,0,0,0,0,0,0,0,
0,119,120,0,0,0,0,0,0,0,0,0,0,0,0,0,
0,0,0,0,0,0,0,0,0,0,0,0,0,0,0,0,
0,0,0,0,0,0,0,0,0,0,0,0,0,0,0,0
</chunk>
   <chunk x="-16" y="-48" width="16" height="16">
0,0,0,0,0,0,0,0,0,0,0,0,0,0,0,0,
0,0,0,0,0,0,0,0,0,0,0,0,0,0,0,0,
0,0,0,0,0,0,0,0,0,0,0,0,0,0,0,0,
0,0,0,0,0,0,0,0,0,0,0,0,0,0,0,0,
0,0,0,0,0,0,0,0,0,0,0,0,0,0,0,0,
0,0,0,0,0,0,0,0,0,0,0,0,0,0,0,0,
0,0,0,0,0,0,0,0,0,0,0,0,0,0,0,0,
0,0,0,0,0,0,0,0,0,0,0,0,0,0,0,0,
0,0,0,0,0,0,0,0,0,0,0,0,0,0,0,9,
0,0,0,0,0,0,0,0,0,0,0,0,0,0,0,21,
0,0,0,0,0,0,0,0,0,0,0,0,0,0,0,0,
0,0,0,0,0,0,0,0,0,0,0,0,9,0,0,0,
0,0,0,0,0,0,0,0,0,0,0,0,21,0,0,0,
0,0,0,0,0,0,0,0,0,0,0,0,0,0,0,0,
0,0,0,0,0,0,0,0,0,0,0,0,0,0,0,0,
0,0,0,0,0,0,0,0,0,0,0,0,0,0,0,0
</chunk>
   <chunk x="0" y="-48" width="16" height="16">
0,0,0,0,0,0,0,0,0,0,0,0,0,0,0,0,
0,0,0,0,0,0,0,0,0,0,0,0,0,0,0,0,
0,0,0,0,0,0,0,0,0,0,0,0,0,0,0,0,
0,0,0,0,0,0,0,0,0,0,0,0,0,0,0,0,
0,0,0,0,0,0,0,0,0,0,0,0,0,0,0,0,
0,32,33,0,0,0,0,0,0,0,0,0,0,0,0,0,
0,44,45,0,0,0,0,0,0,0,0,0,0,0,0,0,
0,56,57,0,0,0,0,0,0,0,0,0,0,0,0,0,
0,0,0,0,0,0,0,0,0,0,0,0,0,0,0,0,
0,0,0,0,0,0,0,0,0,0,0,0,0,0,0,0,
0,0,0,0,0,0,0,0,0,0,0,0,0,0,0,0,
0,0,0,0,0,0,0,0,0,0,0,0,0,0,0,0,
0,9,0,0,0,0,0,0,0,0,0,0,0,0,0,0,
0,21,0,0,0,0,0,0,0,0,0,0,0,0,0,0,
0,0,0,0,0,0,0,0,0,0,0,0,0,0,0,0,
0,0,0,0,0,0,0,0,0,0,0,0,0,0,0,0
</chunk>
   <chunk x="32" y="-48" width="16" height="16">
0,0,0,0,0,0,0,0,0,0,0,0,0,0,0,0,
0,0,0,0,0,0,0,0,0,0,0,0,0,0,0,0,
0,0,0,0,0,0,0,0,0,0,0,0,0,0,0,0,
0,0,0,0,0,0,0,0,0,0,0,0,0,0,0,0,
0,0,0,0,0,0,0,0,0,0,0,0,0,0,0,0,
0,0,0,0,0,0,0,0,0,0,0,0,0,0,0,0,
0,0,0,0,0,0,0,0,0,0,0,0,0,0,0,0,
0,0,0,0,93,94,0,0,0,0,0,0,0,0,0,0,
0,0,0,0,105,106,0,0,93,94,0,0,0,0,0,0,
0,0,0,0,117,118,0,0,105,106,0,0,0,0,0,0,
0,0,0,0,0,0,0,0,117,118,0,0,0,0,0,0,
0,0,0,0,0,0,0,0,0,0,0,0,0,0,0,0,
0,0,0,0,0,0,0,0,0,0,0,0,0,0,0,0,
0,0,0,0,0,0,0,0,0,0,0,0,0,0,0,0,
93,94,0,0,0,0,0,0,0,0,0,0,0,0,0,0,
105,106,0,0,0,0,0,0,0,0,0,0,0,0,0,0
</chunk>
   <chunk x="48" y="-48" width="16" height="16">
0,0,0,0,0,0,0,0,0,0,0,0,0,0,0,0,
0,0,0,0,0,0,0,0,0,0,0,0,0,0,0,0,
0,0,0,0,0,0,0,0,0,0,0,0,0,0,0,0,
0,0,0,0,0,0,0,0,0,0,0,0,0,0,0,0,
0,0,0,0,0,0,0,0,0,0,0,0,0,0,0,0,
0,0,0,0,0,0,0,0,0,0,0,0,0,0,0,0,
0,0,0,0,0,0,0,0,0,0,0,0,0,0,0,0,
0,0,0,0,0,0,0,0,0,0,0,0,0,0,0,0,
0,0,0,0,0,0,0,0,0,0,0,0,0,0,93,94,
0,0,0,0,0,0,0,93,94,0,0,0,0,0,105,106,
0,0,0,0,0,0,0,105,106,0,0,0,0,0,117,118,
0,93,94,0,0,0,0,117,118,0,0,0,0,0,0,0,
0,105,106,0,0,0,0,0,0,0,0,0,0,0,0,0,
0,117,118,0,0,0,0,0,0,0,0,0,0,0,0,0,
0,0,0,0,0,0,0,0,0,0,0,0,0,0,0,0,
0,0,0,0,0,0,0,0,0,0,0,0,0,0,0,0
</chunk>
   <chunk x="64" y="-48" width="16" height="16">
0,0,0,0,0,0,0,0,0,0,0,0,0,0,0,0,
0,0,0,0,0,0,0,0,0,0,0,0,0,0,0,0,
0,0,0,0,0,0,0,0,0,0,0,0,0,0,0,0,
0,0,0,0,0,0,0,0,0,0,0,0,0,0,0,0,
0,0,0,0,93,94,0,0,0,0,0,0,0,0,0,0,
0,0,0,0,105,106,0,0,0,0,0,0,0,0,0,0,
0,0,0,0,117,118,0,0,0,0,0,0,0,0,0,0,
0,0,0,0,0,0,0,0,0,0,0,0,0,0,0,0,
0,0,0,0,0,0,0,0,0,0,0,0,0,0,0,0,
0,0,0,0,0,0,0,0,0,0,0,0,0,0,0,0,
0,0,0,0,0,0,0,0,0,0,0,0,0,0,0,0,
0,0,0,0,0,0,0,0,0,0,0,0,0,0,0,0,
0,0,0,0,0,0,0,0,0,0,0,0,0,0,0,0,
0,0,0,0,0,0,0,0,0,0,0,0,0,0,0,0,
0,0,0,0,0,0,0,0,0,0,0,0,0,0,0,0,
0,0,0,0,0,0,0,0,0,0,0,95,96,0,0,0
</chunk>
   <chunk x="16" y="-32" width="16" height="16">
0,0,0,0,0,0,0,0,0,0,0,0,0,0,0,0,
0,0,0,0,0,0,0,0,0,0,0,0,0,0,0,0,
0,0,93,94,0,0,93,94,95,96,0,0,95,96,95,96,
0,0,105,106,0,0,105,106,107,108,0,0,107,108,107,108,
0,0,117,118,0,0,117,118,119,120,0,0,119,120,119,120,
0,0,0,0,0,0,0,0,0,0,0,0,0,0,0,0,
0,0,95,96,0,0,93,94,95,96,0,0,93,94,95,96,
0,0,107,108,0,0,105,106,107,108,0,0,105,106,107,108,
0,0,119,120,0,0,117,118,119,120,0,0,117,118,119,120,
0,0,0,0,0,0,0,0,0,0,0,0,0,0,0,0,
0,0,0,0,14,14,14,14,14,14,14,14,14,14,14,14,
0,0,0,0,0,0,0,0,0,0,0,0,0,0,0,0,
0,0,0,0,0,0,0,0,0,0,0,0,0,0,0,0,
0,0,0,0,0,0,0,0,0,0,0,0,0,0,0,0,
0,0,0,0,0,0,0,0,0,0,0,0,0,0,0,0,
0,0,0,0,0,0,0,0,0,0,0,0,0,0,9,0
</chunk>
   <chunk x="32" y="-32" width="16" height="16">
117,118,0,0,0,0,0,0,0,0,0,0,0,0,0,0,
0,0,0,0,0,0,0,0,0,0,0,0,0,0,0,0,
0,0,95,96,95,96,0,0,93,94,93,94,0,0,95,96,
0,0,107,108,107,108,0,0,105,106,105,106,0,0,107,108,
0,0,119,120,119,120,0,0,117,118,117,118,0,0,119,120,
0,0,0,0,0,0,0,0,0,0,0,0,0,0,0,0,
0,0,95,96,93,94,0,0,95,96,95,96,0,0,93,94,
0,0,107,108,105,106,0,0,107,108,107,108,0,0,105,106,
0,0,119,120,117,118,0,0,119,120,119,120,0,0,117,118,
0,0,0,0,0,0,0,0,0,0,0,0,0,0,0,0,
14,14,14,14,14,14,14,14,14,14,14,14,14,14,14,14,
0,0,0,0,0,0,0,0,0,0,0,0,0,0,0,0,
0,0,0,0,0,0,0,0,0,0,0,0,0,0,0,0,
0,0,0,0,0,0,0,0,0,0,0,0,0,0,0,0,
0,0,0,0,0,0,0,0,0,0,0,0,0,0,0,0,
0,0,0,0,0,0,0,0,0,0,0,0,0,0,0,0
</chunk>
   <chunk x="48" y="-32" width="16" height="16">
0,0,0,0,0,0,0,0,0,0,0,0,0,0,0,0,
0,0,0,0,0,0,0,0,0,0,0,0,0,0,0,0,
93,94,0,0,95,96,95,96,0,0,95,96,95,96,0,0,
105,106,0,0,107,108,107,108,0,0,107,108,107,108,0,0,
117,118,0,0,119,120,119,120,0,0,119,120,119,120,0,0,
0,0,0,0,0,0,0,0,0,0,0,0,0,0,0,14,
95,96,0,0,95,96,93,94,0,0,95,96,95,96,0,14,
107,108,0,0,107,108,105,106,0,0,107,108,107,108,0,14,
119,120,0,0,119,120,117,118,0,0,119,120,119,120,0,14,
0,0,0,0,0,0,0,0,0,0,0,0,0,0,0,14,
14,14,14,14,14,14,14,14,14,14,14,14,14,14,14,14,
0,0,0,0,0,0,0,0,0,0,0,0,0,0,0,0,
0,0,0,0,0,0,0,0,0,0,0,0,0,0,0,0,
0,0,0,0,0,0,0,0,0,0,0,0,0,0,0,0,
0,0,0,0,0,0,0,0,0,0,0,0,0,0,0,0,
0,0,0,0,0,0,0,0,0,0,0,0,9,0,0,0
</chunk>
   <chunk x="64" y="-32" width="16" height="16">
0,0,0,0,0,0,0,0,0,0,0,107,108,9,95,96,
0,0,0,0,0,0,0,0,0,0,0,119,120,21,107,108,
0,0,0,0,0,0,0,0,0,0,0,0,0,0,119,120,
0,0,0,0,0,0,0,0,0,0,0,0,0,0,0,0,
0,0,0,0,0,0,0,0,0,0,0,0,0,0,0,0,
14,0,0,0,0,0,0,9,0,0,0,0,0,0,0,0,
14,0,0,0,0,0,0,21,0,0,0,0,0,9,0,0,
14,0,0,0,0,0,0,0,0,0,0,0,0,21,0,0,
14,0,0,0,0,0,0,0,0,0,0,0,0,0,0,0,
14,0,0,0,0,0,0,0,0,0,9,0,0,0,0,0,
14,0,0,0,0,0,0,0,0,0,21,0,0,0,0,0,
0,0,0,0,0,0,0,0,0,0,9,0,0,0,0,0,
0,0,0,0,0,0,0,0,0,0,21,0,0,0,0,0,
0,0,0,0,0,0,0,0,0,0,0,0,0,0,0,0,
0,0,0,0,0,0,0,0,0,0,0,0,0,0,0,0,
0,0,0,0,0,0,0,0,0,0,0,0,0,0,0,0
</chunk>
   <chunk x="-48" y="-16" width="16" height="16">
0,0,0,0,0,0,0,0,0,0,0,0,0,0,0,0,
0,0,0,0,0,0,0,0,0,0,0,0,0,0,0,0,
0,0,0,0,0,0,0,0,0,0,0,0,0,0,0,0,
0,0,0,0,0,0,0,0,0,0,0,0,0,0,0,0,
0,0,0,0,0,0,0,0,0,0,0,0,0,0,0,0,
0,0,0,0,0,0,0,0,0,0,0,0,0,0,0,0,
0,0,0,0,0,0,0,0,0,0,0,0,0,0,0,0,
0,0,0,0,0,0,0,0,0,0,0,0,0,0,0,0,
0,0,0,9,0,0,0,0,0,0,0,0,0,0,0,0,
0,0,0,21,0,0,0,0,0,9,0,0,0,0,0,0,
0,0,0,0,0,0,0,0,0,21,0,0,0,0,0,0,
0,0,0,0,0,0,0,0,0,0,0,0,0,0,0,0,
0,0,0,0,0,0,0,0,0,0,0,0,0,0,0,0,
0,0,0,0,0,0,0,0,0,0,0,0,0,0,0,0,
0,0,0,0,0,0,0,0,0,0,0,0,0,0,0,0,
0,0,0,0,0,0,0,0,0,0,0,0,0,0,0,0
</chunk>
   <chunk x="-32" y="-16" width="16" height="16">
0,0,0,0,0,0,0,0,0,0,0,0,0,0,0,0,
0,0,0,0,0,0,0,0,0,0,0,0,0,0,0,0,
0,0,0,0,0,0,0,0,0,0,0,0,0,0,0,0,
0,0,0,0,0,0,0,0,0,0,0,0,0,0,0,0,
0,0,0,0,0,0,0,0,0,0,0,0,0,0,0,0,
0,0,0,0,0,0,0,0,0,0,0,0,0,0,0,0,
0,0,0,0,0,0,0,0,0,0,0,0,0,0,0,0,
0,0,0,0,0,0,0,0,0,0,0,0,0,0,0,0,
0,0,0,0,0,0,0,0,0,0,0,0,0,0,0,0,
0,0,0,0,0,0,0,0,0,0,0,0,0,0,0,0,
0,0,0,0,0,0,0,0,0,0,0,0,9,0,0,0,
0,0,0,0,0,0,0,0,0,0,0,0,21,0,0,0,
0,0,0,0,0,0,0,0,0,0,0,0,0,0,0,0,
0,0,0,0,0,0,0,0,0,0,0,0,0,0,0,0,
0,0,0,0,0,0,0,0,0,0,0,0,0,0,0,0,
0,0,0,0,0,0,0,0,0,0,0,0,0,0,0,0
</chunk>
   <chunk x="-16" y="-16" width="16" height="16">
0,0,0,0,0,0,0,0,0,0,0,0,0,0,0,0,
0,0,0,0,0,0,0,0,0,0,0,0,0,0,0,9,
0,0,0,0,0,0,0,0,0,0,0,0,0,0,0,21,
0,0,0,0,0,0,0,0,0,0,0,0,0,0,0,0,
0,0,0,0,0,0,0,0,0,0,0,0,9,0,0,0,
0,0,0,0,0,0,0,0,0,0,0,0,21,0,0,0,
32,33,0,0,0,0,0,0,0,0,0,0,0,0,0,0,
44,45,0,0,0,0,0,0,0,95,96,0,0,0,0,0,
56,57,0,0,0,0,0,0,0,107,108,95,96,0,0,0,
0,0,0,0,0,0,0,0,0,119,120,107,108,0,0,0,
0,0,0,0,95,96,0,0,0,0,0,119,120,0,0,0,
0,0,0,0,107,108,0,0,0,0,0,0,0,0,0,0,
0,0,95,96,119,120,0,0,0,0,0,0,0,0,0,0,
0,0,107,108,0,0,0,0,0,0,0,0,0,0,0,0,
0,0,119,120,0,0,0,0,0,0,0,0,0,0,0,0,
0,0,0,0,0,0,0,0,0,0,0,0,0,0,0,0
</chunk>
   <chunk x="0" y="-16" width="16" height="16">
0,0,0,0,0,0,0,0,0,0,0,0,0,0,9,0,
0,0,0,0,0,0,0,0,0,0,0,0,0,0,21,0,
0,0,0,0,0,0,0,0,0,0,0,0,0,0,0,0,
0,0,0,0,0,0,0,0,0,0,0,0,0,0,0,0,
0,9,0,0,0,0,0,0,0,0,0,0,0,0,0,0,
0,21,0,0,0,0,0,0,0,0,0,0,0,0,0,0,
0,0,0,0,0,0,0,0,0,0,0,0,0,0,0,0,
0,0,95,96,0,0,0,0,0,0,0,0,0,0,0,0,
95,96,107,108,0,0,0,0,0,0,0,0,0,0,0,0,
107,108,119,120,0,0,0,0,0,0,0,0,0,0,0,0,
119,120,0,0,0,0,0,0,0,0,0,0,0,0,9,0,
0,0,0,0,0,0,0,0,0,0,0,0,0,0,21,0,
0,0,0,0,0,0,0,0,0,0,0,0,0,0,0,0,
0,0,0,0,0,0,0,0,0,0,0,0,0,0,0,0,
0,0,0,0,0,0,0,0,0,0,0,0,0,0,0,0,
0,0,0,0,0,0,0,0,0,0,0,0,0,0,0,0
</chunk>
   <chunk x="16" y="-16" width="16" height="16">
0,0,0,0,0,0,0,0,0,0,0,0,0,0,21,0,
0,0,0,0,0,0,0,0,0,0,0,0,0,0,0,0,
0,0,0,0,0,0,0,0,0,0,0,0,0,0,0,0,
0,9,0,0,0,0,0,0,0,0,0,0,0,0,0,0,
0,21,0,0,0,0,0,0,0,0,0,0,0,0,0,0,
0,0,0,0,0,0,0,0,0,0,0,0,0,0,0,0,
0,0,0,0,0,0,0,0,0,0,0,0,0,0,0,0,
0,0,0,0,0,0,0,0,0,0,0,0,0,0,0,0,
0,0,0,0,0,0,0,0,0,0,0,0,0,0,0,0,
0,0,0,0,0,9,0,0,0,0,0,0,0,0,0,0,
0,0,0,0,0,21,0,0,0,0,0,0,0,0,0,0,
0,0,0,0,0,0,0,0,0,0,0,0,0,0,0,0,
0,0,0,0,0,0,0,0,0,0,0,0,0,0,0,0,
0,0,0,0,0,0,0,0,0,0,0,0,0,0,0,0,
0,0,0,0,0,0,0,0,0,0,0,0,0,0,0,0,
0,0,0,0,0,0,0,0,0,0,0,0,0,0,0,0
</chunk>
   <chunk x="32" y="-16" width="16" height="16">
0,0,0,0,0,0,0,9,0,0,0,0,0,0,0,0,
0,0,0,0,0,0,0,21,0,0,0,0,0,0,0,0,
0,0,0,0,0,0,0,0,0,0,0,0,0,0,0,0,
9,0,0,0,0,0,0,0,0,0,0,0,0,0,0,0,
21,0,0,0,0,0,0,0,0,0,0,0,0,0,0,0,
0,0,0,0,0,0,0,0,0,0,0,0,0,0,0,0,
0,0,0,0,0,0,0,0,0,0,0,0,0,0,0,0,
0,0,0,0,0,0,0,0,0,0,0,0,0,0,0,0,
0,0,0,0,0,0,0,0,0,0,0,0,0,0,0,0,
0,0,0,0,0,0,0,0,0,0,9,0,0,0,0,0,
0,0,0,0,0,0,0,0,0,0,21,0,0,0,0,0,
0,0,0,0,0,0,0,0,0,0,0,0,0,0,0,0,
0,0,0,0,0,0,0,0,0,0,0,0,0,0,0,0,
0,0,0,0,0,0,0,0,0,0,0,0,0,0,0,0,
0,0,0,0,0,0,0,0,0,0,0,0,0,0,0,0,
0,0,0,0,0,0,0,0,0,0,0,0,0,0,0,0
</chunk>
   <chunk x="48" y="-16" width="16" height="16">
0,0,0,0,0,0,0,0,0,0,0,0,21,0,0,0,
0,0,0,0,0,0,0,0,0,9,0,0,0,0,0,0,
0,0,0,0,0,0,0,0,0,21,0,0,0,0,0,0,
0,0,0,0,0,0,0,0,0,0,0,0,0,0,9,0,
0,0,0,0,0,0,0,0,0,0,0,0,0,0,21,0,
0,0,9,0,0,0,0,0,0,0,0,0,0,0,0,0,
0,0,21,0,0,0,0,0,0,0,0,0,0,0,0,0,
0,0,0,0,0,0,0,0,0,0,0,0,0,0,0,0,
0,0,0,0,0,0,0,0,0,0,0,0,0,0,0,0,
0,0,0,9,0,0,0,0,0,0,0,0,0,0,0,0,
0,0,0,21,0,0,0,0,0,0,0,0,0,0,0,0,
0,0,0,0,0,0,0,0,0,0,0,0,0,0,0,0,
0,0,0,0,0,0,0,0,0,0,0,0,0,0,0,0,
0,0,0,0,0,0,0,0,0,0,0,0,0,0,0,0,
0,0,0,0,0,0,0,0,0,0,0,0,0,0,0,0,
0,0,0,0,0,0,0,0,0,0,0,0,0,0,0,0
</chunk>
   <chunk x="64" y="-16" width="16" height="16">
0,9,0,0,0,0,0,0,0,9,0,0,0,0,0,0,
0,21,0,0,0,0,0,0,0,21,0,0,0,0,0,0,
0,0,0,0,0,0,0,0,0,0,9,0,0,0,0,0,
0,0,0,0,0,0,0,0,0,0,21,0,0,0,0,0,
0,0,0,0,0,0,0,0,0,0,0,0,0,0,0,0,
0,0,0,0,0,0,0,0,0,0,0,0,0,0,0,0,
0,0,0,0,0,0,0,0,0,0,0,0,0,0,0,0,
0,0,0,0,0,0,0,0,0,0,0,0,0,0,0,0,
0,0,0,0,0,0,0,0,0,0,0,0,0,0,0,0,
0,0,0,0,0,0,0,0,0,0,0,0,0,0,0,0,
0,0,0,0,0,66,67,68,69,70,0,0,0,0,0,0,
0,0,0,0,0,78,79,80,81,82,0,0,0,0,0,0,
0,0,0,0,0,0,0,0,0,0,0,0,0,0,0,0,
0,0,0,0,0,0,0,0,0,0,0,0,0,0,0,0,
0,0,0,0,0,0,0,0,0,0,0,0,0,0,0,0,
0,0,0,0,0,0,0,0,0,0,0,0,0,0,0,0
</chunk>
  </data>
 </layer>
 <objectgroup id="11" name="audio_zone_leaves">
  <object id="1451" x="-464.091" y="-396" width="43.8182" height="23.5455"/>
  <object id="1452" x="-443.636" y="-373.182" width="22.9091" height="21.2727"/>
  <object id="1453" x="-560" y="-347.25" width="32" height="22.875"/>
  <object id="1454" x="-479.75" y="-267" width="31.75" height="22.75"/>
  <object id="1455" x="-475" y="-245.75" width="21" height="15"/>
  <object id="1456" x="-650.25" y="-300" width="21.25" height="22.75"/>
  <object id="1457" x="-745" y="-218.75" width="34.25" height="53.25"/>
  <object id="1458" x="-752.25" y="-204" width="48.25" height="22.75"/>
  <object id="1459" x="-681.5" y="-154.75" width="18.5" height="21"/>
  <object id="1460" x="-620" y="-140.25" width="23.5" height="25.25"/>
  <object id="1461" x="-682" y="-75" width="38.75" height="36.5"/>
  <object id="1462" x="-649.5" y="-59" width="36" height="37.5"/>
  <object id="1463" x="-538.25" y="-58.5" width="100" height="21.75"/>
  <object id="1464" x="-556.25" y="-41.25" width="37.75" height="20"/>
  <object id="1465" x="-458.75" y="-43" width="36.25" height="21.5"/>
  <object id="1466" x="-377.75" y="-90.75" width="20.25" height="21.5"/>
  <object id="1468" x="-427.375" y="-155.75" width="22.75" height="37.75"/>
  <object id="1469" x="-329.625" y="-140.75" width="20.625" height="23.375"/>
  <object id="1470" x="-282.875" y="-60.125" width="22.625" height="23.625"/>
  <object id="1472" x="-187.75" y="-42.875" width="24.25" height="22.5"/>
  <object id="1475" x="-218.273" y="-218.364" width="36.3636" height="51.7273"/>
  <object id="1476" x="-240" y="-299" width="10.875" height="37.625"/>
  <object id="1477" x="-240.125" y="-379.125" width="40.5" height="22.125"/>
  <object id="1478" x="-288.75" y="-363" width="16.875" height="22.25"/>
  <object id="1479" x="-274.375" y="-351.375" width="12" height="9.375"/>
  <object id="1480" x="-346.5" y="-345.375" width="21.75" height="25.5"/>
  <object id="1481" x="-340.375" y="-347.25" width="20.375" height="22.5"/>
  <object id="1482" x="-336" y="-321.5" width="10.875" height="13.125"/>
  <object id="1483" x="-363.75" y="-272.625" width="22.5" height="43.125"/>
  <object id="1484" x="-384.25" y="-443.5" width="64" height="23"/>
  <object id="1485" x="-268.25" y="-560.25" width="57.75" height="12.75"/>
  <object id="1486" x="-252.25" y="-554.5" width="69.75" height="20.75"/>
  <object id="1487" x="-240" y="-572.25" width="26.5" height="14.75"/>
  <object id="1488" x="-250.5" y="-705.25" width="21.5" height="27.75"/>
  <object id="1489" x="-256.75" y="-699.75" width="7.75" height="22"/>
  <object id="1490" x="-208" y="-784" width="26.75" height="74.75"/>
  <object id="1491" x="-283.25" y="-880.5" width="21.5" height="92.25"/>
  <object id="1492" x="-267.25" y="-811.5" width="22.5" height="20.75"/>
  <object id="1493" x="-303.5" y="-971" width="42.25" height="22.75"/>
  <object id="1494" x="-284" y="-955.25" width="21.25" height="22.75"/>
  <object id="1495" x="-443.5" y="-904.75" width="28.25" height="35.5"/>
  <object id="1496" x="-417.75" y="-896.25" width="58" height="26.75"/>
  <object id="1497" x="-522" y="-636.333" width="21.6667" height="53"/>
  <object id="1498" x="-507" y="-652.333" width="53" height="38.6667"/>
  <object id="1499" x="-475" y="-681" width="12.6667" height="29"/>
  <object id="1500" x="-465.333" y="-672.667" width="17.3333" height="29.6667"/>
  <object id="1501" x="-454" y="-658" width="22" height="14"/>
  <object id="1502" x="-542.333" y="-701.333" width="27.3333" height="26"/>
  <object id="1503" x="-603.333" y="-733" width="25.6667" height="27.6667"/>
  <object id="1504" x="-587.333" y="-778.667" width="24" height="21.3333"/>
  <object id="1505" x="-667" y="-780.667" width="21.3333" height="23"/>
  <object id="1506" x="-682" y="-875" width="21.3333" height="22.3333"/>
  <object id="1507" x="-715" y="-827.667" width="22.6667" height="23.3333"/>
  <object id="1508" x="-635" y="-827" width="23" height="22.6667"/>
  <object id="1509" x="-748.667" y="-924.667" width="25.3333" height="23"/>
  <object id="1511" x="-650.667" y="-1004.67" width="21.6667" height="40"/>
  <object id="1512" x="-714.333" y="-1035.33" width="21" height="37.3333"/>
  <object id="1513" x="-555.333" y="-1020.67" width="39.3333" height="23.6667"/>
  <object id="1514" x="-571.667" y="-989" width="39.6667" height="25"/>
  <object id="1515" x="-523" y="-1101.67" width="117.667" height="16"/>
  <object id="1516" x="-511.667" y="-1087.67" width="32.6667" height="11.6667"/>
  <object id="1517" x="-449.667" y="-1088" width="45.3333" height="11.6667"/>
  <object id="1518" x="-431.333" y="-1079.33" width="27.6667" height="19.6667"/>
  <object id="1519" x="-762.25" y="-1389.38" width="21.125" height="25.25"/>
  <object id="1520" x="-714.75" y="-1389.38" width="70.375" height="29.25"/>
  <object id="1521" x="-730.25" y="-1371.25" width="22.625" height="11"/>
  <object id="1522" x="-704.5" y="-1362.63" width="48.75" height="14"/>
  <object id="1523" x="-619.375" y="-1424.25" width="22.625" height="27.5"/>
  <object id="1524" x="-633.5" y="-1419.38" width="30" height="23.875"/>
  <object id="1525" x="-697.625" y="-1514.25" width="21.75" height="20.125"/>
  <object id="1526" x="-555.25" y="-1515.75" width="22.75" height="23.25"/>
  <object id="1527" x="-507" y="-1468.5" width="23.75" height="23.5"/>
  <object id="1528" x="-506" y="-1418.5" width="21.25" height="22.25"/>
  <object id="1529" x="-361.75" y="-1515.25" width="20.75" height="22"/>
  <object id="1530" x="-329.5" y="-1420" width="20.25" height="24.25"/>
  <object id="1531" x="-268" y="-1468.5" width="24.5" height="24.75"/>
  <object id="1532" x="-218.25" y="-1500" width="21.75" height="24"/>
  <object id="1533" x="-224.75" y="-1388" width="60.25" height="24"/>
  <object id="1534" x="-58.7273" y="-1276" width="22.5455" height="40.7273"/>
  <object id="1535" x="-45.2727" y="-1262.73" width="24" height="89.2727"/>
  <object id="1536" x="-57.8182" y="-1194.36" width="20" height="37.6364"/>
  <object id="1537" x="-60" y="-1116.91" width="22.1818" height="39.6364"/>
  <object id="1538" x="-43.6364" y="-1102.18" width="22.7273" height="88.5455"/>
  <object id="1539" x="-58.3636" y="-1033.82" width="20.5455" height="35.0909"/>
  <object id="1540" x="-60" y="-524.5" width="24.5" height="40.75"/>
  <object id="1541" x="-43.25" y="-506.5" width="21.25" height="85.25"/>
  <object id="1542" x="-55.75" y="-443.25" width="18.5" height="35"/>
  <object id="1543" x="-60.25" y="-365.25" width="24.75" height="41.25"/>
  <object id="1544" x="-43.75" y="-349.5" width="23.5" height="90"/>
  <object id="1545" x="-58.5" y="-282.5" width="20" height="36.25"/>
  <object id="1546" x="277" y="-1422.5" width="23.5" height="27.5"/>
  <object id="1547" x="342.5" y="-1404" width="20.5" height="23.5"/>
  <object id="1548" x="404" y="-1437.5" width="23.5" height="25.5"/>
  <object id="1549" x="501" y="-1404" width="22" height="24"/>
  <object id="1550" x="594" y="-1422.5" width="43.5" height="41.5"/>
  <object id="1551" x="469" y="-1329.5" width="40" height="29.5"/>
  <object id="1552" x="470.5" y="-1276" width="36" height="39"/>
  <object id="1553" x="308" y="-1249" width="23.5" height="10.5"/>
  <object id="1554" x="343" y="-1242.5" width="25.5" height="27"/>
  <object id="1555" x="293" y="-1162.5" width="24" height="21.5"/>
  <object id="1556" x="340" y="-1148.5" width="22.5" height="25"/>
  <object id="1557" x="270.5" y="-1101" width="60.5" height="55.5"/>
  <object id="1558" x="392" y="-1098.5" width="49.5" height="10.5"/>
  <object id="1559" x="404.125" y="-1104.5" width="26" height="6.375"/>
  <object id="1560" x="181.625" y="-843.25" width="21.875" height="23.5"/>
  <object id="1561" x="308.625" y="-912" width="23.875" height="43.75"/>
  <object id="1562" x="405" y="-1229.67" width="22.6667" height="26.6667"/>
  <object id="1563" x="435.667" y="-1184.33" width="24.6667" height="15"/>
  <object id="1564" x="436.333" y="-940.667" width="25" height="30"/>
  <object id="1566" x="461.667" y="-925" width="19.3333" height="40.3333"/>
  <object id="1567" x="475" y="-907.333" width="16.6667" height="23"/>
  <object id="1568" x="516.667" y="-971.333" width="38.3333" height="37.3333"/>
  <object id="1569" x="437" y="-844.667" width="55.3333" height="24"/>
  <object id="1570" x="612.667" y="-925" width="40.3333" height="42.6667"/>
  <object id="1571" x="679" y="-875.333" width="36" height="40.6667"/>
  <object id="1572" x="724.667" y="-971.667" width="38.6667" height="41.6667"/>
  <object id="1573" x="886" y="-953.333" width="35.6667" height="36.3333"/>
  <object id="1574" x="852.333" y="-876.667" width="40" height="41"/>
  <object id="1575" x="1176" y="-907.667" width="20" height="23"/>
  <object id="1576" x="1237.33" y="-1020.67" width="37" height="23.6667"/>
  <object id="1577" x="1237.67" y="-1133.33" width="38.3333" height="27.6667"/>
  <object id="1578" x="1128.67" y="-1227.67" width="16.6667" height="22.3333"/>
  <object id="1579" x="1030" y="-1227.33" width="21.6667" height="23.6667"/>
  <object id="1580" x="963.667" y="-1152.67" width="25.3333" height="13"/>
  <object id="1581" x="932.667" y="-1261.33" width="24.6667" height="43"/>
  <object id="1582" x="948.333" y="-1293.33" width="23" height="25.3333"/>
  <object id="1583" x="852.333" y="-1309.33" width="25.3333" height="24.3333"/>
  <object id="1584" x="837.333" y="-1404.33" width="38" height="40"/>
  <object id="1585" x="885.667" y="-1418.67" width="20.3333" height="21.6667"/>
  <object id="1586" x="949" y="-1438.67" width="23.6667" height="42.6667"/>
  <object id="1587" x="1014.33" y="-1354.33" width="19.6667" height="20.3333"/>
  <object id="1588" x="1077" y="-1323.67" width="21" height="23"/>
  <object id="1589" x="1079.67" y="-1435.33" width="18.6667" height="21.6667"/>
  <object id="1590" x="1141.33" y="-1390" width="20.6667" height="27"/>
  <object id="1591" x="1175" y="-1402.33" width="18" height="36.3333"/>
  <object id="1592" x="1159" y="-1357" width="19" height="24"/>
  <object id="1593" x="1135" y="-1340" width="12.3333" height="22.3333"/>
  <object id="1594" x="1125.67" y="-1340" width="10.6667" height="10.3333"/>
  <object id="1597" x="1207.67" y="-1321" width="19.6667" height="35"/>
  <object id="1598" x="741" y="-1242.33" width="38" height="36.6667"/>
  <object id="1599" x="630" y="-1260" width="36.6667" height="38.6667"/>
  <object id="1600" x="630" y="-1163.67" width="39" height="38.6667"/>
  <object id="1601" x="580.333" y="-1194" width="39" height="36.6667"/>
  <object id="1602" x="567.667" y="-1291.33" width="35.3333" height="39.3333"/>
  <object id="1603" x="598" y="-1340" width="37" height="39.3333"/>
  <object id="1604" x="711.333" y="-1418.67" width="34" height="36"/>
  <object id="1605" x="838" y="-1150.67" width="37.3333" height="26"/>
  <object id="1606" x="822.667" y="-1066" width="36" height="38"/>
  <object id="1607" x="726" y="-1069.33" width="22" height="24"/>
  <object id="1608" x="677.333" y="-1090" width="23.3333" height="12.6667"/>
  <object id="1609" x="579.333" y="-1084.67" width="26.6667" height="24"/>
  <object id="1610" x="628.667" y="-1068.67" width="24" height="26.6667"/>
  <object id="1611" x="276.667" y="-668.667" width="24.6667" height="16.3333"/>
  <object id="1612" x="387" y="-685" width="25" height="25.3333"/>
  <object id="1613" x="486.667" y="-667.333" width="19" height="17.6667"/>
  <object id="1614" x="388.333" y="-608" width="22.3333" height="25.3333"/>
  <object id="1615" x="374" y="-602" width="21" height="36.3333"/>
  <object id="1616" x="357.333" y="-587.333" width="25.6667" height="20.3333"/>
  <object id="1617" x="277.333" y="-586.333" width="22" height="37"/>
  <object id="1618" x="295" y="-573.333" width="20.3333" height="40.3333"/>
  <object id="1619" x="311.333" y="-554.667" width="35" height="22.3333"/>
  <object id="1620" x="325" y="-540.667" width="52.3333" height="24.3333"/>
  <object id="1621" x="353.333" y="-524.333" width="42.3333" height="21"/>
  <object id="1622" x="371.333" y="-505.667" width="23.6667" height="9.33333"/>
  <object id="1623" x="518" y="-617" width="35" height="19.6667"/>
  <object id="1624" x="517.333" y="-607.333" width="19" height="42"/>
  <object id="1625" x="502" y="-586.667" width="20" height="38.3333"/>
  <object id="1626" x="471" y="-571.667" width="34.3333" height="24.6667"/>
  <object id="1627" x="437" y="-556.333" width="53.6667" height="22.3333"/>
  <object id="1628" x="578.75" y="-684.75" width="25" height="23"/>
  <object id="1629" x="723.75" y="-669.25" width="25" height="25"/>
  <object id="1630" x="678" y="-571.25" width="21" height="21.75"/>
  <object id="1631" x="788.25" y="-542.75" width="23" height="41.75"/>
  <object id="1632" x="767.75" y="-522.5" width="28" height="26.75"/>
  <object id="1633" x="836.75" y="-604" width="23.25" height="39.5"/>
  <object id="1634" x="851" y="-590.75" width="23.25" height="42.25"/>
  <object id="1635" x="884.75" y="-641.25" width="22.5" height="18.5"/>
  <object id="1636" x="908.75" y="-668" width="45.25" height="22.25"/>
  <object id="1638" x="1054.67" y="-653.333" width="27.6667" height="25.6667"/>
  <object id="1639" x="1060.67" y="-636.667" width="36.6667" height="24"/>
  <object id="1640" x="1061" y="-626" width="22" height="57.6667"/>
  <object id="1641" x="1047" y="-586" width="33" height="20.6667"/>
  <object id="1642" x="1005" y="-569" width="12.3333" height="20"/>
  <object id="1643" x="980.333" y="-547" width="22.6667" height="28.3333"/>
  <object id="1644" x="965.667" y="-537.667" width="22" height="42"/>
  <object id="1645" x="949.333" y="-523" width="21" height="27.3333"/>
  <object id="1646" x="1061" y="-507.667" width="36" height="21.6667"/>
  <object id="1647" x="1114" y="-523.667" width="50.6667" height="22.3333"/>
  <object id="1648" x="1135" y="-506.667" width="43.6667" height="20.6667"/>
  <object id="1649" x="1142.33" y="-667.333" width="20" height="36.3333"/>
  <object id="1650" x="1155.67" y="-666" width="38.6667" height="19.6667"/>
  <object id="1651" x="1188.67" y="-605.333" width="54.3333" height="25.3333"/>
  <object id="1652" x="1218.33" y="-593.667" width="25" height="19.3333"/>
  <object id="1653" x="1240.33" y="-572.667" width="19" height="24.3333"/>
  <object id="1654" x="1106.67" y="-396.333" width="42.6667" height="26.6667"/>
  <object id="1655" x="1222.67" y="-333.333" width="37" height="26.3333"/>
  <object id="1656" x="1110.33" y="-267.667" width="37" height="22"/>
  <object id="1657" x="1221" y="-220" width="39.6667" height="23"/>
  <object id="1658" x="1087.67" y="-156.333" width="89.6667" height="40"/>
  <object id="1659" x="1127" y="-169.333" width="35.6667" height="20"/>
  <object id="1660" x="1140.33" y="-179.333" width="22" height="10.6667"/>
  <object id="1662" x="1174.33" y="-140.333" width="37" height="24.3333"/>
  <object id="1663" x="1249.33" y="-144.333" width="14.6667" height="49"/>
  <object id="1664" x="900.667" y="-106" width="102" height="37"/>
  <object id="1665" x="644.333" y="-252.667" width="87" height="24.6667"/>
  <object id="1666" x="706.333" y="-236" width="40.6667" height="24.6667"/>
  <object id="1667" x="726.333" y="-216.333" width="37" height="100.667"/>
  <object id="1668" x="710" y="-152.667" width="20" height="36"/>
  <object id="1669" x="692.333" y="-138.333" width="23.6667" height="39"/>
  <object id="1670" x="629" y="-91.6667" width="21.3333" height="23"/>
  <object id="1671" x="518" y="-108" width="21" height="23.3333"/>
  <object id="1672" x="583.333" y="-204" width="17.6667" height="37.3333"/>
  <object id="1673" x="533" y="-201.667" width="70.3333" height="21.6667"/>
  <object id="1674" x="517" y="-187.667" width="38.3333" height="23.6667"/>
  <object id="1675" x="548" y="-273.667" width="40" height="73.3333"/>
  <object id="1676" x="278.333" y="-252.333" width="69.6667" height="23"/>
  <object id="1677" x="325.667" y="-237.667" width="54.6667" height="25"/>
  <object id="1678" x="357.667" y="-218.667" width="53.6667" height="21.3333"/>
  <object id="1679" x="373.667" y="-200.667" width="68.3333" height="20"/>
  <object id="1680" x="403.667" y="-185" width="53.3333" height="18"/>
  <object id="1681" x="418.333" y="-171" width="71.6667" height="11"/>
  <object id="1682" x="259" y="-107.333" width="25.3333" height="22.6667"/>
  <object id="1683" x="389.667" y="-90" width="19.6667" height="21"/>
 </objectgroup>
 <objectgroup id="12" name="audio_zone_metal">
  <object id="1450" x="1216.45" y="-911.727" width="47.1818" height="47.4545"/>
 </objectgroup>
 <objectgroup id="3" name="collision">
  <object id="714" x="63.5" y="-639.5" width="95" height="526"/>
  <object id="715" x="-734.5" y="-1360.5" width="29" height="47.6667"/>
  <object id="716" x="-654.5" y="-1357.5" width="29" height="44.3333"/>
  <object id="717" x="-703.5" y="-1487.83" width="32" height="46.8333"/>
  <object id="718" x="-624" y="-1473.33" width="32" height="49.3333"/>
  <object id="719" x="-527" y="-1519.5" width="31" height="47.5"/>
  <object id="720" x="-479" y="-1456.5" width="31" height="49"/>
  <object id="721" x="-384" y="-1472" width="32" height="48"/>
  <object id="722" x="-337" y="-1519.5" width="33" height="48"/>
  <object id="723" x="-256" y="-1518.5" width="31.5" height="45.5"/>
  <object id="724" x="-239" y="-1456" width="31" height="48"/>
  <object id="727" x="-767.5" y="-1087" width="254" height="45.5"/>
  <object id="728" x="-479.5" y="-1089" width="30" height="49"/>
  <object id="729" x="-511" y="-991.5" width="31.5" height="46.6667"/>
  <object id="730" x="-399" y="-1022.5" width="29" height="46.25"/>
  <object id="731" x="-334.5" y="-978" width="29" height="49.5"/>
  <object id="732" x="-414.5" y="-945" width="29" height="48.25"/>
  <object id="733" x="-287" y="-930" width="29" height="49.5"/>
  <object id="734" x="-334.5" y="-864.5" width="29" height="47.3333"/>
  <object id="735" x="-224.5" y="-832" width="31" height="47.5"/>
  <object id="736" x="-255" y="-752" width="29" height="46.3333"/>
  <object id="737" x="-224.333" y="-657" width="32.6667" height="50"/>
  <object id="738" x="-415.5" y="-464" width="31.6667" height="47"/>
  <object id="739" x="-320.5" y="-463.667" width="32.3333" height="47.6667"/>
  <object id="740" x="-271.5" y="-304.167" width="32" height="47"/>
  <object id="741" x="-271.5" y="-399.333" width="29" height="48.3333"/>
  <object id="742" x="-384.167" y="-399.333" width="30.6667" height="47"/>
  <object id="743" x="-494" y="-416" width="29" height="49"/>
  <object id="744" x="-448" y="-353" width="31.5" height="49"/>
  <object id="745" x="-368.833" y="-319.333" width="33.6667" height="45.3333"/>
  <object id="746" x="-318.5" y="-367.667" width="29" height="46.6667"/>
  <object id="747" x="-446.5" y="-287.5" width="29" height="48"/>
  <object id="748" x="-529" y="-352" width="32" height="47"/>
  <object id="749" x="-591" y="-367.5" width="29" height="47"/>
  <object id="750" x="-574" y="-287" width="29" height="46.3333"/>
  <object id="751" x="-512" y="-287.667" width="32.3333" height="47.6667"/>
  <object id="752" x="-654" y="-272.5" width="29" height="46"/>
  <object id="753" x="-655" y="-350.75" width="29" height="46.25"/>
  <object id="754" x="-734.5" y="-288" width="29" height="48"/>
  <object id="755" x="-785.5" y="-225.5" width="34.25" height="67"/>
  <object id="756" x="-705.75" y="-224.5" width="32.75" height="65"/>
  <object id="757" x="-719.875" y="-125" width="14.75" height="29.5"/>
  <object id="758" x="-623.875" y="-108.5" width="14.75" height="29.5"/>
  <object id="759" x="-319.099" y="-92.5" width="14.0313" height="27"/>
  <object id="760" x="-65" y="-188" width="16" height="29.5"/>
  <object id="761" x="-16" y="-236.5" width="16" height="28.5"/>
  <object id="762" x="15.5" y="-188.5" width="16" height="28"/>
  <object id="763" x="16.5" y="-571.5" width="14" height="28"/>
  <object id="764" x="-15.625" y="-637" width="14.25" height="28.5"/>
  <object id="765" x="-63" y="-587.5" width="14" height="28"/>
  <object id="786" x="1232.63" y="-509.5" width="14.75" height="29.5"/>
  <object id="787" x="1136" y="-1152.5" width="14.5" height="31"/>
  <object id="788" x="1150.5" y="-1152.5" width="16" height="32"/>
  <object id="789" x="1136" y="-1120" width="14.5" height="30.5"/>
  <object id="790" x="1150.5" y="-1120.5" width="16" height="32"/>
  <object id="791" x="848" y="-929" width="16" height="32"/>
  <object id="792" x="735.5" y="-909" width="18" height="29.5"/>
  <object id="793" x="495.5" y="-861" width="16" height="28"/>
  <object id="794" x="495.5" y="-957" width="15" height="30"/>
  <object id="796" x="-64.5" y="-848.5" width="16" height="32"/>
  <object id="797" x="-607" y="-1038" width="29" height="46"/>
  <object id="798" x="-335" y="-912" width="29" height="46"/>
  <object id="799" x="-255" y="-159" width="29" height="46"/>
  <object id="800" x="17" y="-686" width="29" height="46"/>
  <object id="802" x="1055.32" y="-943.682" width="64.6818" height="95.6364"/>
  <object id="803" x="-110.5" y="-945.5" width="236" height="32"/>
  <object id="804" x="-16.5" y="-992.5" width="127" height="47"/>
  <object id="805" x="1103.5" y="-96.5" width="78" height="30"/>
  <object id="806" x="1248.5" y="-511.5" width="31" height="46"/>
  <object id="807" x="1200.5" y="-527" width="31" height="46"/>
  <object id="808" x="1089" y="-705.5" width="31" height="50"/>
  <object id="809" x="991" y="-639.5" width="31" height="46"/>
  <object id="810" x="880" y="-622.5" width="31" height="46"/>
  <object id="811" x="784.333" y="-592.167" width="31" height="46"/>
  <object id="812" x="640" y="-641.5" width="31" height="50.3333"/>
  <object id="813" x="575.5" y="-654.5" width="31" height="46"/>
  <object id="814" x="511.5" y="-544" width="31" height="46"/>
  <object id="815" x="-192" y="-94" width="31" height="46"/>
  <object id="816" x="-223" y="-63" width="31" height="46"/>
  <object id="817" x="-113" y="-142.5" width="31" height="46"/>
  <object id="818" x="-78.5" y="-126.5" width="31" height="46"/>
  <object id="819" x="0" y="-126.5" width="31" height="46"/>
  <object id="820" x="32" y="-143.5" width="31" height="46"/>
  <object id="821" x="-432" y="-625.5" width="31" height="46"/>
  <object id="822" x="-495.75" y="-591" width="31" height="46"/>
  <object id="823" x="-593" y="-704.5" width="31" height="46"/>
  <object id="824" x="-672" y="-847.5" width="31" height="46"/>
  <object id="825" x="-738" y="-878.5" width="31" height="46"/>
  <object id="826" x="-240.5" y="-864.5" width="78" height="32"/>
  <object id="827" x="175" y="-1461.83" width="97" height="577"/>
  <object id="828" x="-15" y="-896" width="318" height="47.5"/>
  <object id="829" x="336.5" y="-895.5" width="62.3333" height="47"/>
  <object id="830" x="368.5" y="-1071.5" width="30" height="260"/>
  <object id="831" x="304" y="-1024.17" width="129" height="47.4167"/>
  <object id="832" x="373" y="-912.5" width="91" height="48"/>
  <object id="833" x="266.667" y="-958.667" width="68.3333" height="46.6667"/>
  <object id="834" x="264.5" y="-1215.25" width="38" height="46"/>
  <object id="835" x="335.625" y="-1215.63" width="60.125" height="47.375"/>
  <object id="836" x="257.5" y="-1294" width="78.5" height="45"/>
  <object id="837" x="367.5" y="-1472.17" width="32" height="49.6667"/>
  <object id="838" x="527.5" y="-1469.17" width="31" height="44.6667"/>
  <object id="839" x="368.531" y="-1087" width="94.4688" height="46.6667"/>
  <object id="840" x="528" y="-911.5" width="32" height="102"/>
  <object id="841" x="609.5" y="-877.5" width="31" height="65"/>
  <object id="842" x="720.5" y="-880.5" width="95" height="48.5"/>
  <object id="843" x="784.5" y="-910.5" width="31" height="96"/>
  <object id="844" x="912" y="-912.25" width="32.5" height="97.75"/>
  <object id="845" x="1088" y="-959" width="95.3333" height="47"/>
  <object id="846" x="1087.45" y="-879.5" width="96.5455" height="47.5"/>
  <object id="848" x="783.5" y="-1471.5" width="32.7273" height="47.8182"/>
  <object id="849" x="879.625" y="-1472.13" width="32.5" height="48.25"/>
  <object id="850" x="975.625" y="-1471.88" width="32" height="48.5"/>
  <object id="851" x="1040.14" y="-1440.09" width="31.7273" height="47.9545"/>
  <object id="852" x="1201" y="-1440.5" width="31" height="50"/>
  <object id="853" x="1183.88" y="-1359.88" width="32.375" height="48.125"/>
  <object id="854" x="1104" y="-1392" width="32.125" height="47.5"/>
  <object id="855" x="1039.75" y="-1359.88" width="32.125" height="48"/>
  <object id="856" x="1041" y="-1280.5" width="31" height="47"/>
  <object id="857" x="1104" y="-1328.13" width="32" height="48"/>
  <object id="858" x="1151.38" y="-1264.5" width="32.875" height="48.875"/>
  <object id="859" x="1215.75" y="-1295.88" width="32.5" height="48.25"/>
  <object id="860" x="254.5" y="-656" width="289" height="48"/>
  <object id="861" x="655.5" y="-671" width="33" height="46.3333"/>
  <object id="862" x="623.5" y="-561.5" width="32" height="49"/>
  <object id="863" x="704" y="-623" width="30" height="47.3333"/>
  <object id="864" x="735.5" y="-543.5" width="33" height="46"/>
  <object id="865" x="801.5" y="-655.5" width="30" height="47"/>
  <object id="866" x="880" y="-688.5" width="32.5" height="48"/>
  <object id="867" x="862.5" y="-558.5" width="34" height="45.6667"/>
  <object id="868" x="976.5" y="-589.5" width="31" height="45"/>
  <object id="869" x="1024" y="-670" width="31" height="45"/>
  <object id="870" x="1214.5" y="-655.5" width="33" height="47.3333"/>
  <object id="871" x="1120.5" y="-605.5" width="32" height="45.6667"/>
  <object id="872" x="1088.5" y="-541.5" width="30" height="45.6667"/>
  <object id="873" x="1215.5" y="-575" width="31" height="46"/>
  <object id="874" x="1082" y="-447.75" width="54" height="48"/>
  <object id="875" x="1231.5" y="-447.5" width="47" height="47.25"/>
  <object id="876" x="1169" y="-415.5" width="47.25" height="46.5"/>
  <object id="877" x="1103.5" y="-337" width="47" height="48.3333"/>
  <object id="878" x="1215" y="-287" width="49" height="46.6667"/>
  <object id="879" x="1136.33" y="-222.5" width="45.6667" height="45.6667"/>
  <object id="880" x="1199.5" y="-159.5" width="48" height="47"/>
  <object id="881" x="1120" y="-142.833" width="48" height="47.3333"/>
  <object id="882" x="-451.5" y="-19.5" width="305.667" height="86.3333"/>
  <object id="883" x="-108.5" y="-894.5" width="59" height="45"/>
  <object id="884" x="304.5" y="-1376.5" width="288" height="48"/>
  <object id="885" x="432" y="-1408.5" width="31.6667" height="65"/>
  <object id="886" x="527" y="-1360.25" width="33.3333" height="64.0833"/>
  <object id="887" x="367.909" y="-1361.25" width="31.7273" height="223.75"/>
  <object id="888" x="432.043" y="-1295.75" width="31.7065" height="94.25"/>
  <object id="889" x="432.022" y="-1232" width="63.4783" height="48"/>
  <object id="890" x="399.455" y="-1162" width="32.7273" height="58.1364"/>
  <object id="891" x="367.807" y="-1167.5" width="191.193" height="47.3333"/>
  <object id="892" x="528.5" y="-1248" width="32" height="270.5"/>
  <object id="893" x="545.682" y="-1151.75" width="45.8182" height="48.25"/>
  <object id="894" x="464.25" y="-1023.83" width="744.917" height="47"/>
  <object id="895" x="560" y="-991.25" width="31" height="46.25"/>
  <object id="897" x="671.5" y="-1055.17" width="31.3333" height="57.6667"/>
  <object id="898" x="656.5" y="-997.5" width="31" height="101"/>
  <object id="899" x="784.167" y="-1055.5" width="31.3333" height="61"/>
  <object id="900" x="848.5" y="-1015.5" width="31.6667" height="88"/>
  <object id="901" x="671" y="-1472.17" width="33" height="382.667"/>
  <object id="902" x="696.5" y="-1135.83" width="38" height="46.3333"/>
  <object id="903" x="639.5" y="-1151.82" width="36.5455" height="47.5455"/>
  <object id="904" x="639.875" y="-1375.67" width="59" height="48.0417"/>
  <object id="905" x="686.167" y="-1327.5" width="49.9583" height="47.75"/>
  <object id="906" x="752.833" y="-1375.5" width="62.6667" height="48"/>
  <object id="907" x="785.5" y="-1366" width="30" height="292"/>
  <object id="908" x="789.166" y="-1341.5" width="57.3334" height="45.6667"/>
  <object id="909" x="684.75" y="-1231.33" width="51.25" height="46.6667"/>
  <object id="910" x="752.833" y="-1279.5" width="60" height="46.6667"/>
  <object id="911" x="790.166" y="-1215.17" width="58.6667" height="45.3333"/>
  <object id="912" x="753.167" y="-1184.5" width="36.3333" height="48"/>
  <object id="913" x="881.5" y="-1374.5" width="29" height="240"/>
  <object id="914" x="849.5" y="-1281.5" width="58" height="50"/>
  <object id="915" x="975.5" y="-1392.25" width="33" height="160.5"/>
  <object id="916" x="880.5" y="-1200.17" width="351" height="32.6667"/>
  <object id="917" x="1198" y="-1199.19" width="33.5758" height="222.322"/>
  <object id="920" x="784.167" y="-1119.5" width="255.833" height="46"/>
  <object id="921" x="976.833" y="-1135.5" width="31" height="34"/>
  <object id="922" x="879.833" y="-1102.5" width="32.3333" height="62.3333"/>
  <object id="923" x="944.167" y="-1056" width="31.6666" height="59"/>
  <object id="924" x="1070.5" y="-1195.5" width="32" height="153"/>
  <object id="925" x="1070.5" y="-1088.5" width="97.5" height="47"/>
  <object id="926" x="1007.5" y="-1090.83" width="32" height="278.333"/>
  <object id="927" x="-647.333" y="61.8333" width="42.1667" height="21.6667"/>
  <object id="929" x="-660" y="97.1667" width="22.5" height="104.833"/>
  <object id="933" x="-354.333" y="205.666" width="30.8333" height="48.6667"/>
  <object id="934" x="-337.333" y="188.834" width="37" height="23.8333"/>
  <object id="935" x="-355.5" y="64.3333" width="86.5" height="19.1667"/>
  <object id="936" x="-337.833" y="79.3333" width="70.5" height="18.6667"/>
  <object id="937" x="-323" y="88.5" width="26.5" height="101.333"/>
  <object id="938" x="255.5" y="-496.5" width="32.6667" height="225"/>
  <object id="939" x="752.167" y="-280.5" width="61.3333" height="23"/>
  <object id="940" x="767.5" y="-284.5" width="63" height="46"/>
  <object id="941" x="784.5" y="-256.5" width="61" height="30"/>
  <object id="942" x="799.5" y="-229.5" width="62" height="19"/>
  <object id="943" x="814.5" y="-242.5" width="49" height="50"/>
  <object id="944" x="832.5" y="-209.5" width="58" height="35"/>
  <object id="945" x="849.5" y="-229.5" width="27" height="23"/>
  <object id="946" x="845.5" y="-210.5" width="48" height="50"/>
  <object id="947" x="862.5" y="-188.5" width="49" height="40"/>
  <object id="948" x="881.5" y="-178.5" width="43" height="50"/>
  <object id="949" x="894.5" y="-159.5" width="50" height="45"/>
  <object id="951" x="913" y="-143.25" width="77.5" height="46.25"/>
  <object id="956" x="-781.75" y="-300.75" width="32.3333" height="32"/>
  <object id="957" x="-765.5" y="-306.5" width="50.3333" height="22.3333"/>
  <object id="958" x="-739.5" y="-339.833" width="51" height="23.3333"/>
  <object id="959" x="-707.5" y="-355.167" width="38.3333" height="22.6667"/>
  <object id="960" x="-691.5" y="-370.833" width="53" height="21.3333"/>
  <object id="961" x="-659.5" y="-387.5" width="69.6667" height="24"/>
  <object id="962" x="-611.833" y="-403.5" width="71" height="22"/>
  <object id="963" x="-563.167" y="-419.167" width="54.3333" height="23"/>
  <object id="964" x="-531.167" y="-435.833" width="54" height="22.5"/>
  <object id="965" x="-514.833" y="-445.583" width="53.6667" height="17.4167"/>
  <object id="966" x="-514.841" y="-467.417" width="69.4239" height="22.6667"/>
  <object id="967" x="-255.833" y="-222.5" width="31.3333" height="62"/>
  <object id="968" x="-174.833" y="-223.5" width="30.3333" height="63"/>
  <object id="969" x="-367" y="-159" width="30.5" height="48.5"/>
  <object id="970" x="-416" y="-111.5" width="33.5" height="47"/>
  <object id="971" x="-368" y="-66" width="32.5" height="51.5"/>
  <object id="973" x="-163.5" y="-225.5" width="53" height="210"/>
  <object id="974" x="-161.5" y="-241.5" width="51" height="16"/>
  <object id="975" x="-177.5" y="-257" width="82.5" height="19.5"/>
  <object id="976" x="-192.5" y="-273" width="113" height="18"/>
  <object id="977" x="-209.5" y="-302.5" width="36" height="32"/>
  <object id="978" x="-96.5" y="-303" width="34" height="33.5"/>
  <object id="979" x="-111.5" y="-286" width="23" height="11.5"/>
  <object id="980" x="-172" y="-284.5" width="0.5"/>
  <object id="981" x="-177.5" y="-286" width="19" height="13"/>
  <object id="982" x="-211" y="-352" width="37.5" height="31"/>
  <object id="983" x="-194" y="-368.5" width="34" height="37"/>
  <object id="985" x="-116" y="-368.5" width="38.5" height="36"/>
  <object id="986" x="-98" y="-351.5" width="35" height="31.5"/>
  <object id="987" x="-112.273" y="-97.9091" width="17.5455" height="31.4091"/>
  <object id="988" x="-102" y="-81.5909" width="23.3636" height="46.0909"/>
  <object id="993" x="1245.67" y="-83" width="50.3333" height="109"/>
  <object id="994" x="1260.83" y="-98.5" width="44.1667" height="63"/>
  <object id="996" x="-80" y="-66" width="1325" height="55.5"/>
  <object id="1001" x="1278" y="-675.091" width="61" height="580.091"/>
  <object id="1002" x="1262" y="-694.5" width="27.5" height="26.6364"/>
  <object id="1003" x="1245.18" y="-716.5" width="28.3182" height="30.8636"/>
  <object id="1007" x="-77.5" y="-768" width="1324.17" height="67"/>
  <object id="1008" x="-106.5" y="-711.5" width="29.5" height="26.75"/>
  <object id="1009" x="-125.833" y="-685.5" width="31.5" height="17"/>
  <object id="1010" x="-161.5" y="-994.833" width="52.25" height="464.333"/>
  <object id="1011" x="-179" y="-544.5" width="81.5" height="33"/>
  <object id="1012" x="-193" y="-527" width="111" height="13.5"/>
  <object id="1013" x="-209" y="-513.5" width="50.5" height="20.5"/>
  <object id="1014" x="-210" y="-494.75" width="36" height="14.25"/>
  <object id="1015" x="-112.5" y="-512" width="50.5" height="17.5"/>
  <object id="1016" x="-98.5" y="-494.5" width="37.5" height="13.5"/>
  <object id="1017" x="-97" y="-463.5" width="33.5" height="33"/>
  <object id="1018" x="-208.5" y="-463.5" width="34" height="33.5"/>
  <object id="1019" x="-192.5" y="-448" width="32" height="33"/>
  <object id="1020" x="-114" y="-447" width="34.5" height="33"/>
  <object id="1021" x="-176.5" y="-433.5" width="83.5" height="81.25"/>
  <object id="1023" x="-651" y="190" width="28.3333" height="31.5"/>
  <object id="1024" x="-630" y="205.167" width="25.5" height="21"/>
  <object id="1025" x="-611" y="221.5" width="256.5" height="56.5"/>
  <object id="1026" x="-659.5" y="74.3333" width="39" height="24.3333"/>
  <object id="1029" x="-672.5" y="-225.5" width="431" height="51"/>
  <object id="1030" x="-821" y="-798" width="56" height="544"/>
  <object id="1031" x="-822.5" y="-835.5" width="87.25" height="37.75"/>
  <object id="1032" x="-738.667" y="-818.458" width="21.75" height="37.875"/>
  <object id="1033" x="-723" y="-803" width="20.5" height="37.75"/>
  <object id="1034" x="-704" y="-786.083" width="17.75" height="33.25"/>
  <object id="1035" x="-706" y="-771.167" width="34.5" height="21.375"/>
  <object id="1036" x="-672.833" y="-754.917" width="19.5" height="53.75"/>
  <object id="1037" x="-658.25" y="-723.667" width="20.75" height="54.75"/>
  <object id="1038" x="-641" y="-691.75" width="20" height="20.125"/>
  <object id="1039" x="-641.958" y="-676" width="41.125" height="21.875"/>
  <object id="1040" x="-609" y="-676.083" width="18.5" height="39"/>
  <object id="1041" x="-592.833" y="-657.333" width="19.75" height="36.25"/>
  <object id="1042" x="-578" y="-641.432" width="20.25" height="36.8864"/>
  <object id="1043" x="-563" y="-626.75" width="22.25" height="38.25"/>
  <object id="1044" x="-546.167" y="-611.417" width="20.5" height="55"/>
  <object id="1045" x="-531.5" y="-582.333" width="21.25" height="40.8182"/>
  <object id="1046" x="-515.167" y="-564" width="21.75" height="52.5"/>
  <object id="1047" x="-495.5" y="-546.5" width="17.5" height="25.875"/>
  <object id="1048" x="-515.167" y="-531.083" width="70.4167" height="19.75"/>
  <object id="1049" x="-795.75" y="-883.5" width="47" height="66"/>
  <object id="1050" x="-802" y="-1529.33" width="37.5" height="653.333"/>
  <object id="1052" x="-773.375" y="-1563.13" width="24.5" height="62.5"/>
  <object id="1053" x="-756.5" y="-1601.25" width="23" height="86"/>
  <object id="1054" x="-759" y="-1551.5" width="552.5" height="18"/>
  <object id="1056" x="-210.875" y="-1537" width="18.375" height="18.625"/>
  <object id="1057" x="-193.5" y="-1535" width="17.5" height="33.5"/>
  <object id="1058" x="-177" y="-1522" width="16" height="36"/>
  <object id="1059" x="-161" y="-1490" width="49" height="229"/>
  <object id="1060" x="-176" y="-1297.25" width="80.75" height="30"/>
  <object id="1061" x="-193.75" y="-1281" width="115.25" height="19.25"/>
  <object id="1062" x="-114.25" y="-1264.5" width="18.5" height="18.75"/>
  <object id="1063" x="-98.5" y="-1266.25" width="37.5" height="34.5"/>
  <object id="1064" x="-174.5" y="-1264.25" width="17.5" height="18.75"/>
  <object id="1065" x="-210" y="-1265.5" width="36.5" height="33.5"/>
  <object id="1069" x="-208.5" y="-1215.75" width="34" height="33.25"/>
  <object id="1071" x="-192.5" y="-1201.5" width="32" height="34.25"/>
  <object id="1072" x="-175.25" y="-1183" width="79.25" height="80.5"/>
  <object id="1073" x="-113.5" y="-1202" width="33.5" height="36"/>
  <object id="1074" x="-98" y="-1216.25" width="36" height="34"/>
  <object id="1078" x="-192.25" y="-1120.75" width="31.75" height="35.25"/>
  <object id="1079" x="-210" y="-1104.75" width="36.5" height="32.25"/>
  <object id="1080" x="-113" y="-1120.25" width="34.5" height="33.75"/>
  <object id="1082" x="-97.5" y="-1105.5" width="35.5" height="34"/>
  <object id="1083" x="-210.75" y="-1056.25" width="36.25" height="35.75"/>
  <object id="1084" x="-193.75" y="-1042.5" width="36" height="34.5"/>
  <object id="1085" x="-192.5" y="-1026.5" width="34" height="31"/>
  <object id="1086" x="-191.5" y="-1026.5" width="114.25" height="21.75"/>
  <object id="1087" x="-113.25" y="-1042.75" width="17" height="21.5"/>
  <object id="1088" x="-98.5" y="-1055.5" width="36.75" height="35.25"/>
  <object id="1089" x="-176.5" y="-1006.5" width="83.5" height="17.5"/>
  <object id="1090" x="-119" y="-853.5" width="25" height="32"/>
  <object id="1091" x="-98" y="-835" width="21" height="52.5"/>
  <object id="1092" x="-703.333" y="-960.833" width="158.333" height="47.8333"/>
  <object id="1093" x="-688.5" y="-944.5" width="19.6667" height="49.5"/>
  <object id="1094" x="-673" y="-929" width="160" height="48.5"/>
  <object id="1095" x="-545.5" y="-943" width="17.5" height="191.667"/>
  <object id="1096" x="-770.167" y="-19.1667" width="244.666" height="86"/>
  <object id="1097" x="-816.167" y="-253.833" width="35.3334" height="204.667"/>
  <object id="1098" x="-794.167" y="-51.1667" width="28" height="40"/>
  <object id="1103" x="-335.75" y="-1088.08" width="78.5833" height="63.5833"/>
  <object id="1104" x="-305.5" y="-1040.5" width="65.3334" height="33.3333"/>
  <object id="1106" x="-288.833" y="-1025.83" width="80.6667" height="32.6667"/>
  <object id="1107" x="-271.5" y="-1008.5" width="97.3333" height="32.3333"/>
  <object id="1108" x="-256.75" y="-978.5" width="95.3333" height="18"/>
  <object id="1109" x="-192.583" y="-980.667" width="32.6667" height="83.3333"/>
  <object id="1110" x="-176.833" y="-913.833" width="21.6667" height="32.6667"/>
  <object id="1111" x="-239.833" y="-961.833" width="46.3333" height="17.3333"/>
  <object id="1112" x="-225.5" y="-961.167" width="31.3333" height="32"/>
  <object id="1113" x="-209.5" y="-945.167" width="17.3333" height="32.6667"/>
  <object id="1125" x="-128.167" y="-1493.83" width="34" height="70.6667"/>
  <object id="1126" x="-108.167" y="-1499.17" width="29.3333" height="57.3333"/>
  <object id="1127" x="-94.8333" y="-1507.17" width="1346.42" height="52.5"/>
  <object id="1130" x="1243.83" y="-1507.17" width="33.2083" height="69.875"/>
  <object id="1131" x="1260.8" y="-1461.17" width="42.375" height="39.7917"/>
  <object id="1134" x="1276.5" y="-1442.17" width="36" height="611.667"/>
  <object id="1135" x="1261.83" y="-848.5" width="36" height="31.3333"/>
  <object id="1136" x="1246.5" y="-832.5" width="38" height="61.3333"/>
  <object id="1138" x="-80.833" y="-817.666" width="1335.67" height="45.1666"/>
  <object id="1140" x="254.167" y="-161.167" width="289.5" height="50.1667"/>
  <object id="1141" x="-658.833" y="-895.5" width="194.667" height="31"/>
  <object id="1143" x="-511.5" y="-910.5" width="30" height="189.333"/>
  <object id="1144" x="-640.167" y="-864.167" width="223.666" height="17"/>
  <object id="1145" x="-464.833" y="-879.5" width="16" height="203"/>
  <object id="1146" x="-624.167" y="-847.833" width="240" height="16.6666"/>
  <object id="1148" x="-607.5" y="-831.167" width="238.667" height="16"/>
  <object id="1150" x="-592.167" y="-816.5" width="240.666" height="16.6666"/>
  <object id="1151" x="-576.834" y="-800.166" width="241" height="17.6666"/>
  <object id="1152" x="-561.5" y="-783.833" width="241.333" height="16.6667"/>
  <object id="1153" x="-528.833" y="-768.166" width="240" height="32.3333"/>
  <object id="1156" x="-494.833" y="-735.167" width="222.333" height="31.3333"/>
  <object id="1157" x="-480.5" y="-705.5" width="21" height="17.3333"/>
  <object id="1158" x="-464.167" y="-704.167" width="206" height="33"/>
  <object id="1159" x="-447.834" y="-673.166" width="18.5" height="15.3333"/>
  <object id="1160" x="-431.5" y="-672.5" width="18.0837" height="31.3333"/>
  <object id="1161" x="-415.833" y="-640.5" width="19.2503" height="15.3333"/>
  <object id="1162" x="-400.167" y="-626.5" width="18.9997" height="18"/>
  <object id="1163" x="-384.833" y="-611.167" width="21.5837" height="20"/>
  <object id="1164" x="-369.167" y="-595.167" width="20.2497" height="18.6667"/>
  <object id="1165" x="-352.167" y="-671.834" width="112.083" height="111.583"/>
  <object id="1166" x="-751.5" y="-143.5" width="30" height="47"/>
  <object id="1167" x="-720.167" y="-80.5" width="31.6667" height="47"/>
  <object id="1168" x="-656.5" y="-111.5" width="31.5" height="46.5"/>
  <object id="1169" x="-592.5" y="-62.5" width="31" height="42.5"/>
  <object id="1170" x="-591.5" y="-160" width="30.5" height="46"/>
  <object id="1171" x="-305.5" y="-111.5" width="32.5" height="47"/>
  <object id="1448" x="-739.333" y="-321" width="24" height="16.6667"/>
  <object id="1686" x="256" y="-496" width="832" height="48"/>
  <object id="1687" x="320" y="-320" width="768" height="48"/>
  <object id="1688" x="1056" y="-496" width="32" height="432"/>
  <object id="1689" x="288" y="-480" width="32" height="48"/>
  <object id="1690" x="288" y="-416" width="32" height="48"/>
  <object id="1691" x="352" y="-480" width="64" height="48"/>
  <object id="1692" x="352" y="-416" width="64" height="48"/>
  <object id="1693" x="448" y="-480" width="64" height="48"/>
  <object id="1694" x="448" y="-416" width="64" height="48"/>
  <object id="1695" x="544" y="-480" width="64" height="48"/>
  <object id="1696" x="544" y="-416" width="64" height="48"/>
  <object id="1697" x="640" y="-480" width="64" height="48"/>
  <object id="1698" x="640" y="-416" width="64" height="48"/>
  <object id="1699" x="736" y="-480" width="64" height="48"/>
  <object id="1700" x="736" y="-416" width="64" height="48"/>
  <object id="1701" x="832" y="-480" width="64" height="48"/>
  <object id="1702" x="928" y="-480" width="64" height="48"/>
  <object id="1703" x="832" y="-416" width="64" height="48"/>
  <object id="1704" x="928" y="-416" width="64" height="48"/>
  <object id="1705" x="-384" y="-1104" width="112" height="32"/>
  <object id="1706" x="-368" y="-1072" width="32" height="16"/>
  <object id="1707" x="-352" y="-1056" width="16" height="16"/>
  <object id="1708" x="-400" y="-1360" width="112" height="272"/>
  <object id="1709" x="-608" y="-1392" width="384" height="48"/>
  <object id="1711" x="-608" y="-1344" width="336" height="48"/>
  <object id="1712" x="-272" y="-1344" width="16" height="32"/>
  <object id="1713" x="-256" y="-1344" width="16" height="16"/>
  <object id="1714" x="1136.88" y="-428.5" width="14.25" height="28.5"/>
  <object id="1716" x="1233" y="-412" width="14" height="28"/>
  <object id="1718" x="1185.73" y="-365" width="12.5405" height="29"/>
  <object id="1719" x="1184" y="-332.5" width="16" height="28.5"/>
  <object id="1720" x="1169.13" y="-251.5" width="13.75" height="27.5"/>
  <object id="1721" x="1184.88" y="-220.5" width="14.25" height="28.5"/>
  <object id="1722" x="800.875" y="-172.5" width="14.25" height="28.5"/>
  <object id="1723" x="817" y="-108" width="14" height="28"/>
  <object id="1724" x="912.762" y="-236.5" width="14.4762" height="28.5"/>
  <object id="1725" x="960" y="-272" width="16" height="32"/>
  <object id="1726" x="1042.02" y="-252.5" width="12.9545" height="28.5"/>
  <object id="1727" x="993.59" y="-203.5" width="13.3203" height="27.5"/>
  <object id="1728" x="225.212" y="-252" width="13.5758" height="28"/>
  <object id="1729" x="225.348" y="-92.5" width="13.8047" height="28.5"/>
  <object id="1730" x="336" y="-112" width="16" height="32"/>
  <object id="1731" x="273.105" y="-205.5" width="14.2891" height="29.5"/>
  <object id="1732" x="480.875" y="-268.5" width="14.25" height="28.5"/>
  <object id="1733" x="512.731" y="-204.5" width="14.0373" height="28.5"/>
  <object id="1734" x="624.515" y="-252.5" width="14.4692" height="28.5"/>
  <object id="1735" x="672.875" y="-108.5" width="14.25" height="28.5"/>
 </objectgroup>
 <objectgroup id="8" name="triggers">
  <object id="1173" x="-718" y="-831" width="30" height="30"/>
  <object id="1174" x="-691" y="-881" width="34" height="33"/>
  <object id="1175" x="-753" y="-929" width="33" height="32"/>
  <object id="1176" x="-640" y="-832" width="33" height="30"/>
  <object id="1177" x="-672" y="-786" width="32" height="35"/>
  <object id="1178" x="-591" y="-783" width="30" height="31"/>
  <object id="1179" x="-607" y="-737" width="31" height="31"/>
  <object id="1180" x="-543" y="-704" width="32" height="33"/>
  <object id="1182" x="-479" y="-690" width="15" height="81"/>
  <object id="1183" x="-479" y="-677" width="31" height="70"/>
  <object id="1184" x="-513" y="-655" width="80" height="16"/>
  <object id="1185" x="-526" y="-637" width="46" height="28"/>
  <object id="1187" x="-529" y="-614" width="30" height="37"/>
  <object id="1188" x="-273" y="-561" width="95" height="15"/>
  <object id="1189" x="-240" y="-576" width="31" height="46"/>
  <object id="1190" x="-259" y="-548" width="81" height="17"/>
  <object id="1191" x="-721" y="-1041" width="34" height="49"/>
  <object id="1192" x="-655" y="-1009" width="31" height="46"/>
  <object id="1193" x="-573" y="-987" width="40" height="21"/>
  <object id="1194" x="-556" y="-1021" width="39" height="24"/>
  <object id="1195" x="-441.667" y="-913" width="22.6667" height="46"/>
  <object id="1196" x="-443" y="-894" width="87" height="27"/>
  <object id="1197" x="-306" y="-972.25" width="29" height="23.25"/>
  <object id="1198" x="-283.875" y="-971.25" width="22.875" height="37.25"/>
  <object id="1201" x="-288" y="-880" width="26" height="91"/>
  <object id="1202" x="-276" y="-817" width="31" height="29"/>
  <object id="1203" x="-208" y="-785" width="27" height="76"/>
  <object id="1204" x="-258" y="-705" width="29" height="29"/>
  <object id="1205" x="-522" y="-1102" width="40.5" height="29.5"/>
  <object id="1206" x="-515" y="-1102.5" width="84" height="13"/>
  <object id="1207" x="-450" y="-1102.25" width="21" height="26"/>
  <object id="1209" x="-431" y="-1099.5" width="25" height="37.5"/>
  <object id="1210" x="-767.5" y="-1391" width="29.5" height="29.5"/>
  <object id="1211" x="-731.5" y="-1373.5" width="90.5" height="24.75"/>
  <object id="1213" x="-716" y="-1392" width="75.5" height="17.75"/>
  <object id="1215" x="-635.25" y="-1422" width="43.75" height="25"/>
  <object id="1216" x="-703.5" y="-1518.5" width="31.5" height="30.5"/>
  <object id="1217" x="-559.5" y="-1518.5" width="30.5" height="29"/>
  <object id="1218" x="-511" y="-1472.5" width="31" height="32"/>
  <object id="1219" x="-512.5" y="-1424.5" width="32.5" height="31"/>
  <object id="1220" x="-367" y="-1519.5" width="29.5" height="31"/>
  <object id="1221" x="-336" y="-1424" width="31" height="31"/>
  <object id="1222" x="-272.5" y="-1471.5" width="32.5" height="31.5"/>
  <object id="1223" x="-223.5" y="-1503.5" width="31.5" height="32"/>
  <object id="1224" x="-223.5" y="-1393" width="57" height="27"/>
  <object id="1225" x="-383.5" y="-447.5" width="63.5" height="32"/>
  <object id="1227" x="-464" y="-399" width="45.5" height="30.5"/>
  <object id="1228" x="-448.5" y="-399.25" width="31" height="46.75"/>
  <object id="1229" x="-351" y="-351" width="30" height="44.75"/>
  <object id="1230" x="-288.333" y="-368" width="16.8333" height="15"/>
  <object id="1231" x="-288" y="-353.5" width="32" height="17.5"/>
  <object id="1234" x="-241" y="-384" width="46" height="31"/>
  <object id="1237" x="-240.5" y="-305" width="17" height="48"/>
  <object id="1238" x="-368.5" y="-273.5" width="32" height="47.5"/>
  <object id="1239" x="-220.5" y="-218" width="39" height="53.5"/>
  <object id="1240" x="-482" y="-274" width="34" height="47"/>
  <object id="1241" x="-655" y="-304.5" width="31" height="32"/>
  <object id="1243" x="-560.5" y="-352" width="33" height="32"/>
  <object id="1244" x="-748.5" y="-218" width="39.5" height="52.5"/>
  <object id="1245" x="-687.5" y="-158" width="31" height="30"/>
  <object id="1246" x="-620" y="-137.5" width="23" height="19.5"/>
  <object id="1247" x="-682.5" y="-73.5" width="38.3182" height="36"/>
  <object id="1249" x="-648.5" y="-58" width="35.5" height="36"/>
  <object id="1255" x="-187" y="-42.5" width="21.5" height="20.5"/>
  <object id="1258" x="-544.5" y="-64.5" width="111.5" height="30"/>
  <object id="1259" x="-559.5" y="-47.5" width="42.75" height="30"/>
  <object id="1260" x="-460" y="-48.5" width="44.5" height="32"/>
  <object id="1261" x="-433.5" y="-161.5" width="33.5" height="48.5"/>
  <object id="1262" x="-384.5" y="-96" width="33" height="31"/>
  <object id="1263" x="-336" y="-143" width="32" height="30.5"/>
  <object id="1264" x="-287.5" y="-64.5" width="32.5" height="31.5"/>
  <object id="1265" x="271" y="-1103" width="60.5" height="60"/>
  <object id="1266" x="337" y="-1150.5" width="28.5" height="30"/>
  <object id="1267" x="288.5" y="-1167.5" width="28.5" height="31.5"/>
  <object id="1268" x="305" y="-1263" width="29.5" height="30"/>
  <object id="1269" x="335" y="-1249" width="32.5" height="33"/>
  <object id="1270" x="176" y="-849" width="31.5" height="33"/>
  <object id="1271" x="302.5" y="-912.5" width="34" height="48.5"/>
  <object id="1272" x="432" y="-848" width="57.5" height="27"/>
  <object id="1273" x="432" y="-943.5" width="32.5" height="30.5"/>
  <object id="1274" x="462.5" y="-924.5" width="13" height="14"/>
  <object id="1275" x="464" y="-912.5" width="25" height="28.5"/>
  <object id="1276" x="516.5" y="-968.5" width="37.5" height="35"/>
  <object id="1277" x="614" y="-921" width="36.5" height="34.5"/>
  <object id="1278" x="677" y="-874.5" width="37" height="37.5"/>
  <object id="1279" x="726" y="-970" width="35" height="37"/>
  <object id="1280" x="1169" y="-912.5" width="31" height="31"/>
  <object id="1281" x="885" y="-954" width="37" height="37.5"/>
  <object id="1282" x="851" y="-878" width="41.5" height="40"/>
  <object id="1283" x="819.5" y="-1065" width="40" height="36"/>
  <object id="1284" x="626.5" y="-1072.5" width="29" height="32"/>
  <object id="1285" x="671" y="-1105" width="33" height="33.5"/>
  <object id="1286" x="720.5" y="-1073" width="31" height="33"/>
  <object id="1287" x="575.5" y="-1088.5" width="33.5" height="32"/>
  <object id="1288" x="386.818" y="-1106.5" width="56.5" height="35.5"/>
  <object id="1289" x="272" y="-1423" width="31" height="29"/>
  <object id="1290" x="337" y="-1405.5" width="30.5" height="28.5"/>
  <object id="1291" x="399" y="-1440" width="33" height="31"/>
  <object id="1292" x="496.5" y="-1406.5" width="32" height="30.5"/>
  <object id="1293" x="598" y="-1420.5" width="37" height="40"/>
  <object id="1294" x="597.5" y="-1337" width="36.5" height="35.5"/>
  <object id="1295" x="566" y="-1289" width="36.5" height="36"/>
  <object id="1296" x="469" y="-1338.5" width="38" height="37.5"/>
  <object id="1297" x="468" y="-1274.5" width="39.5" height="35.5"/>
  <object id="1298" x="400" y="-1231.5" width="30" height="30.5"/>
  <object id="1299" x="431" y="-1198.5" width="34" height="30"/>
  <object id="1300" x="629" y="-1257.5" width="37.5" height="37"/>
  <object id="1301" x="580" y="-1194.5" width="39.5" height="38"/>
  <object id="1302" x="627.5" y="-1160.5" width="40" height="33.5"/>
  <object id="1303" x="742" y="-1241.5" width="37" height="36"/>
  <object id="1304" x="711" y="-1417.5" width="35" height="36.5"/>
  <object id="1306" x="835" y="-1148" width="40" height="22"/>
  <object id="1307" x="850" y="-1312" width="29" height="31"/>
  <object id="1308" x="835" y="-1401" width="40" height="35"/>
  <object id="1309" x="880" y="-1424.5" width="32.5" height="32"/>
  <object id="1310" x="946" y="-1434.5" width="26" height="37"/>
  <object id="1311" x="943.5" y="-1297" width="31.5" height="33"/>
  <object id="1312" x="932" y="-1258.5" width="23" height="39"/>
  <object id="1313" x="959.5" y="-1168" width="33" height="33.5"/>
  <object id="1314" x="1023.5" y="-1232" width="32" height="31"/>
  <object id="1315" x="1007.5" y="-1359" width="33.5" height="29.5"/>
  <object id="1316" x="1072" y="-1327.5" width="34" height="32"/>
  <object id="1317" x="1073.5" y="-1438" width="30" height="31"/>
  <object id="1318" x="1136" y="-1393.5" width="32.5" height="35.5"/>
  <object id="1319" x="1172" y="-1404" width="23" height="38"/>
  <object id="1320" x="1153" y="-1361.5" width="31.5" height="34"/>
  <object id="1321" x="1120" y="-1342.5" width="33" height="30"/>
  <object id="1322" x="1121" y="-1231" width="30.5" height="31.5"/>
  <object id="1323" x="1199.5" y="-1311" width="32.5" height="30.5"/>
  <object id="1324" x="1235" y="-1130.5" width="39.5" height="21"/>
  <object id="1325" x="1236" y="-1020.5" width="39" height="23.5"/>
  <object id="1326" x="-59.8333" y="-1275.5" width="25" height="38.3333"/>
  <object id="1327" x="-51" y="-1261.5" width="29.5" height="88"/>
  <object id="1328" x="-59.3333" y="-1195.67" width="22.8333" height="38.3333"/>
  <object id="1329" x="-60.5" y="-1115.17" width="24.5" height="37.3333"/>
  <object id="1330" x="-51" y="-1101" width="29.5" height="87.5"/>
  <object id="1331" x="-59.3333" y="-1035.5" width="21.3333" height="39.5"/>
  <object id="1332" x="-59.75" y="-524.5" width="23.25" height="40.25"/>
  <object id="1333" x="-49" y="-508.5" width="29" height="87"/>
  <object id="1334" x="-59.75" y="-444.75" width="23" height="39.75"/>
  <object id="1335" x="-62" y="-364.5" width="27.25" height="39.75"/>
  <object id="1336" x="-53" y="-352" width="34" height="93.5"/>
  <object id="1337" x="-62.5" y="-284" width="27.25" height="40.5"/>
  <object id="1338" x="256.5" y="-110.5" width="32" height="30"/>
  <object id="1339" x="384.5" y="-95" width="32.5" height="32"/>
  <object id="1340" x="511.5" y="-111.5" width="33" height="32"/>
  <object id="1341" x="628" y="-92.5" width="23" height="23"/>
  <object id="1342" x="275.5" y="-258" width="72.5" height="28.5"/>
  <object id="1345" x="325.25" y="-235.5" width="53.75" height="22"/>
  <object id="1347" x="357.5" y="-219" width="52.5" height="22.5"/>
  <object id="1349" x="374.25" y="-203" width="67.75" height="22.5"/>
  <object id="1352" x="405.25" y="-187.5" width="52.75" height="24"/>
  <object id="1354" x="420.75" y="-171.5" width="70.75" height="14.5"/>
  <object id="1356" x="546.5" y="-274.5" width="42.1818" height="92.4091"/>
  <object id="1358" x="528.5" y="-180.5" width="0.5" height="1.5"/>
  <object id="1359" x="517.182" y="-186.818" width="37.1364" height="22.1364"/>
  <object id="1362" x="531.955" y="-203.091" width="71.4545" height="21.9091"/>
  <object id="1365" x="579.955" y="-203.591" width="23.5455" height="38.9091"/>
  <object id="1366" x="644.25" y="-251.25" width="86.75" height="22"/>
  <object id="1368" x="709" y="-236" width="38" height="23.5"/>
  <object id="1369" x="724.25" y="-218.5" width="22.5" height="101.75"/>
  <object id="1370" x="747" y="-203" width="16" height="86.25"/>
  <object id="1371" x="709.5" y="-155.5" width="21.5" height="37.75"/>
  <object id="1374" x="693.5" y="-139.25" width="21.25" height="37.75"/>
  <object id="1376" x="898" y="-108.5" width="106" height="44"/>
  <object id="1378" x="1248" y="-143" width="16" height="47"/>
  <object id="1379" x="1087" y="-157.5" width="92.75" height="40.5"/>
  <object id="1380" x="1125.5" y="-177.5" width="36.5" height="28"/>
  <object id="1383" x="1168.5" y="-140.5" width="32" height="23.25"/>
  <object id="1385" x="1108.5" y="-273" width="39" height="26.5"/>
  <object id="1386" x="1219.5" y="-225" width="39.5" height="27"/>
  <object id="1387" x="1219.5" y="-336.5" width="41" height="28"/>
  <object id="1388" x="1108.5" y="-399" width="38.5" height="25.5"/>
  <object id="1389" x="1119.75" y="-525.25" width="49.5" height="23.75"/>
  <object id="1390" x="1139" y="-508.75" width="40.5" height="24.5"/>
  <object id="1391" x="1056.5" y="-513.5" width="46.5" height="17.5"/>
  <object id="1392" x="1087.5" y="-512.5" width="15.5" height="30.5"/>
  <object id="1393" x="1187.75" y="-605.5" width="56.25" height="30"/>
  <object id="1395" x="1247.5" y="-572" width="12.25" height="24"/>
  <object id="1396" x="1140.5" y="-667" width="55.25" height="23"/>
  <object id="1398" x="1140" y="-668" width="24.5" height="39.5"/>
  <object id="1400" x="1055.27" y="-652.727" width="32.2273" height="88"/>
  <object id="1401" x="1087" y="-639" width="16" height="32"/>
  <object id="1402" x="1038.5" y="-594" width="20" height="29.5"/>
  <object id="1403" x="964.5" y="-544.5" width="39.25" height="28"/>
  <object id="1404" x="1005" y="-574.25" width="15" height="28.5"/>
  <object id="1406" x="945" y="-523.25" width="43.5" height="26.75"/>
  <object id="1407" x="912" y="-670" width="43" height="25"/>
  <object id="1408" x="880" y="-656" width="47.5" height="17"/>
  <object id="1409" x="881" y="-639.5" width="30.5" height="15.5"/>
  <object id="1410" x="836.25" y="-604.25" width="26.25" height="40"/>
  <object id="1411" x="852.5" y="-587.5" width="23.25" height="40"/>
  <object id="1413" x="784.5" y="-545" width="25.75" height="45"/>
  <object id="1414" x="766" y="-527.5" width="34" height="31.5"/>
  <object id="1415" x="752" y="-511.5" width="14.5" height="16"/>
  <object id="1416" x="720" y="-671" width="27.5" height="27"/>
  <object id="1417" x="671" y="-576" width="29.5" height="26.5"/>
  <object id="1418" x="575" y="-687" width="32.5" height="31.5"/>
  <object id="1419" x="480" y="-671" width="32" height="31"/>
  <object id="1420" x="536.75" y="-621.5" width="18.25" height="24"/>
  <object id="1421" x="516" y="-609.5" width="23.5" height="33.5"/>
  <object id="1425" x="501.5" y="-586.5" width="36.5" height="22.75"/>
  <object id="1427" x="468.5" y="-571" width="55" height="22.25"/>
  <object id="1429" x="437" y="-555" width="54" height="22.75"/>
  <object id="1431" x="384" y="-688" width="31.5" height="32"/>
  <object id="1432" x="272.5" y="-672.5" width="32" height="32.5"/>
  <object id="1433" x="271.5" y="-591.5" width="15" height="30.5"/>
  <object id="1434" x="278" y="-576.5" width="26" height="25.5"/>
  <object id="1435" x="287.5" y="-558" width="32" height="13"/>
  <object id="1436" x="295" y="-560" width="25" height="26"/>
  <object id="1437" x="303.5" y="-545.5" width="49" height="18"/>
  <object id="1438" x="323" y="-528" width="61" height="11"/>
  <object id="1439" x="336.5" y="-520" width="48" height="7.5"/>
  <object id="1440" x="356.5" y="-512" width="43.5" height="10.5"/>
  <object id="1441" x="366.5" y="-502" width="34.5" height="6.5"/>
  <object id="1442" x="356.75" y="-588" width="41.75" height="23"/>
  <object id="1445" x="372.5" y="-607.5" width="39.5" height="26.5"/>
 </objectgroup>
 <objectgroup id="10" name="trigger_p">
  <object id="1449" x="1231.2" y="-896.614" width="17.1591" height="16.6819"/>
 </objectgroup>
 <objectgroup id="15" name="trigger_tutorial">
  <object id="1684" x="-384.182" y="128.182" width="32.1818" height="31.8182"/>
 </objectgroup>
</map>
